;FLAVOR:Marlin
;TIME:8502
;Filament used: 3.99509m
;Layer height: 0.2
;MINX:78.46
;MINY:86.148
;MINZ:0.2
;MAXX:151.54
;MAXY:159.228
;MAXZ:56.2
;POSTPROCESSED
;Generated with Cura_SteamEngine master
M140 S60
M105
M190 S60
M104 S205
M105
M109 S205
M82 ;absolute extrusion mode
M201 X500.00 Y500.00 Z100.00 E5000.00 ;Setup machine max acceleration
M203 X500.00 Y500.00 Z10.00 E50.00 ;Setup machine max feedrate
M204 P500.00 R1000.00 T500.00 ;Setup Print/Retract/Travel acceleration
M205 X8.00 Y8.00 Z0.40 E5.00 ;Setup Jerk
M220 S100 ;Reset Feedrate
M221 S100 ;Reset Flowrate
M141 S28
G92 E0
G92 E0
G1 F2700 E-5
;LAYER_COUNT:281
;LAYER:0
M107
G0 F6000 X82.36 Y89.056 Z0.2
;TYPE:SKIRT
G1 F2700 E0
G1 F1200 X83.105 Y88.45 E0.03514
G1 X83.898 Y87.908 E0.07028
G1 X84.733 Y87.433 E0.10542
G1 X85.605 Y87.03 E0.14057
G1 X86.508 Y86.701 E0.17573
G1 X87.434 Y86.448 E0.21085
G1 X88.379 Y86.273 E0.24601
G1 X89.686 Y86.162 E0.294
G1 X90.007 Y86.153 E0.30575
G1 X90.33 Y86.148 E0.31757
G1 X139.293 Y86.148 E2.10894
G1 X139.458 Y86.149 E2.11498
G1 X140.156 Y86.159 E2.14052
G1 X141.115 Y86.213 E2.17566
G1 X142.067 Y86.346 E2.21083
G1 X143.004 Y86.558 E2.24597
G1 X143.92 Y86.847 E2.28111
G1 X144.809 Y87.212 E2.31627
G1 X145.664 Y87.649 E2.3514
G1 X146.48 Y88.155 E2.38653
G1 X147.251 Y88.728 E2.42168
G1 X147.972 Y89.363 E2.45683
G1 X148.638 Y90.056 E2.49199
G1 X149.244 Y90.801 E2.52713
G1 X149.785 Y91.595 E2.56228
G1 X150.259 Y92.431 E2.59744
G1 X150.661 Y93.303 E2.63257
G1 X150.99 Y94.206 E2.66773
G1 X151.242 Y95.132 E2.70284
G1 X151.417 Y96.077 E2.738
G1 X151.526 Y97.374 E2.78562
G1 X151.535 Y97.694 E2.79734
G1 X151.54 Y98.018 E2.80919
G1 X151.54 Y146.952 E4.5995
G1 X151.539 Y147.095 E4.60473
G1 X151.53 Y147.822 E4.63133
G1 X151.478 Y148.781 E4.66647
G1 X151.347 Y149.733 E4.70163
G1 X151.137 Y150.67 E4.73676
G1 X150.849 Y151.587 E4.77192
G1 X150.487 Y152.476 E4.80704
G1 X150.051 Y153.333 E4.84222
G1 X149.546 Y154.15 E4.87736
G1 X148.975 Y154.922 E4.91249
G1 X148.341 Y155.644 E4.94764
G1 X147.65 Y156.311 E4.98278
G1 X146.906 Y156.918 E5.01791
G1 X146.113 Y157.461 E5.05307
G1 X145.278 Y157.936 E5.08822
G1 X144.407 Y158.341 E5.12336
G1 X143.505 Y158.671 E5.1585
G1 X142.579 Y158.925 E5.19363
G1 X141.634 Y159.101 E5.2288
G1 X140.314 Y159.214 E5.27727
G1 X139.993 Y159.223 E5.28902
G1 X139.67 Y159.228 E5.30084
G1 X90.707 Y159.228 E7.09221
G1 X90.558 Y159.227 E7.09766
G1 X89.86 Y159.218 E7.1232
G1 X88.901 Y159.166 E7.15834
G1 X87.949 Y159.034 E7.1935
G1 X87.012 Y158.823 E7.22864
G1 X86.096 Y158.535 E7.26377
G1 X85.206 Y158.172 E7.29894
G1 X84.35 Y157.736 E7.33408
G1 X83.533 Y157.231 E7.36922
G1 X82.761 Y156.659 E7.40437
G1 X82.04 Y156.025 E7.4395
G1 X81.373 Y155.334 E7.47464
G1 X80.766 Y154.589 E7.5098
G1 X80.224 Y153.796 E7.54494
G1 X79.749 Y152.961 E7.58009
G1 X79.345 Y152.089 E7.61525
G1 X79.015 Y151.187 E7.65039
G1 X78.761 Y150.261 E7.68552
G1 X78.586 Y149.316 E7.72068
G1 X78.473 Y147.991 E7.76933
G1 X78.464 Y147.658 E7.78152
G1 X78.46 Y147.346 E7.79293
G1 X78.46 Y98.362 E9.58507
G1 X78.461 Y98.206 E9.59078
G1 X78.47 Y97.541 E9.61511
G1 X78.523 Y96.582 E9.65025
G1 X78.656 Y95.63 E9.68542
G1 X78.867 Y94.693 E9.72056
G1 X79.155 Y93.777 E9.75569
G1 X79.519 Y92.888 E9.79083
G1 X79.955 Y92.032 E9.82598
G1 X80.461 Y91.215 E9.86114
G1 X81.033 Y90.444 E9.89626
G1 X81.668 Y89.722 E9.93144
G1 X82.36 Y89.056 E9.96658
G0 F6000 X82.788 Y89.267
G1 F1200 X83.529 Y88.685 E10.00105
G1 X84.317 Y88.168 E10.03553
G1 X85.146 Y87.719 E10.07002
G1 X86.009 Y87.343 E10.10447
G1 X86.902 Y87.041 E10.13895
G1 X87.816 Y86.816 E10.17339
G1 X88.747 Y86.669 E10.20788
G1 X89.698 Y86.601 E10.24276
G1 X90.019 Y86.592 E10.25451
G1 X90.33 Y86.588 E10.26589
G1 X139.293 Y86.588 E12.05725
G1 X139.452 Y86.589 E12.06307
G1 X140.15 Y86.599 E12.08861
G1 X141.091 Y86.653 E12.1231
G1 X142.023 Y86.786 E12.15754
G1 X142.941 Y86.997 E12.192
G1 X143.838 Y87.286 E12.22648
G1 X144.707 Y87.65 E12.26095
G1 X145.542 Y88.086 E12.29541
G1 X146.337 Y88.591 E12.32987
G1 X147.087 Y89.162 E12.36436
G1 X147.785 Y89.795 E12.39883
G1 X148.427 Y90.484 E12.43329
G1 X149.009 Y91.225 E12.46776
G1 X149.525 Y92.013 E12.50222
G1 X149.973 Y92.842 E12.5367
G1 X150.348 Y93.706 E12.57116
G1 X150.65 Y94.599 E12.60565
G1 X150.874 Y95.514 E12.64011
G1 X151.02 Y96.445 E12.67459
G1 X151.087 Y97.386 E12.7091
G1 X151.096 Y97.706 E12.72082
G1 X151.1 Y98.018 E12.73223
G1 X151.1 Y146.952 E14.52254
G1 X151.099 Y147.089 E14.52755
G1 X151.09 Y147.816 E14.55415
G1 X151.039 Y148.757 E14.58863
G1 X150.907 Y149.69 E14.6231
G1 X150.697 Y150.609 E14.65759
G1 X150.41 Y151.506 E14.69205
G1 X150.048 Y152.376 E14.72652
G1 X149.614 Y153.212 E14.76099
G1 X149.11 Y154.008 E14.79546
G1 X148.541 Y154.758 E14.8299
G1 X147.909 Y155.458 E14.8644
G1 X147.221 Y156.101 E14.89886
G1 X146.481 Y156.684 E14.93332
G1 X145.694 Y157.202 E14.96779
G1 X144.866 Y157.651 E15.00225
G1 X144.003 Y158.029 E15.03672
G1 X143.111 Y158.332 E15.07119
G1 X142.196 Y158.558 E15.10567
G1 X141.266 Y158.706 E15.14013
G1 X140.302 Y158.775 E15.17548
G1 X139.981 Y158.784 E15.18723
G1 X139.67 Y158.788 E15.19861
G1 X90.707 Y158.788 E16.98998
G1 X90.564 Y158.787 E16.99521
G1 X89.866 Y158.778 E17.02075
G1 X88.925 Y158.726 E17.05523
G1 X87.992 Y158.594 E17.08971
G1 X87.074 Y158.384 E17.12416
G1 X86.177 Y158.096 E17.15863
G1 X85.307 Y157.734 E17.1931
G1 X84.471 Y157.299 E17.22758
G1 X83.676 Y156.795 E17.26202
G1 X82.925 Y156.225 E17.29651
G1 X82.226 Y155.593 E17.33099
G1 X81.583 Y154.905 E17.36544
G1 X81.001 Y154.164 E17.39992
G1 X80.483 Y153.377 E17.43439
G1 X80.034 Y152.549 E17.46885
G1 X79.657 Y151.685 E17.50334
G1 X79.355 Y150.793 E17.53779
G1 X79.129 Y149.879 E17.57224
G1 X78.982 Y148.948 E17.60672
G1 X78.913 Y147.979 E17.64226
G1 X78.904 Y147.646 E17.65445
G1 X78.9 Y147.346 E17.66543
G1 X78.9 Y98.362 E19.45756
G1 X78.901 Y98.212 E19.46305
G1 X78.91 Y97.547 E19.48738
G1 X78.963 Y96.606 E19.52187
G1 X79.095 Y95.673 E19.55634
G1 X79.306 Y94.755 E19.5908
G1 X79.594 Y93.858 E19.62527
G1 X79.957 Y92.989 E19.65973
G1 X80.392 Y92.153 E19.69421
G1 X80.897 Y91.358 E19.72866
G1 X81.468 Y90.608 E19.76315
G1 X82.1 Y89.909 E19.79763
G1 X82.788 Y89.267 E19.83206
G0 F6000 X83.216 Y89.482
G1 F1200 X83.952 Y88.925 E19.86582
G1 X84.734 Y88.434 E19.89961
G1 X85.556 Y88.012 E19.93341
G1 X86.41 Y87.663 E19.96717
G1 X87.292 Y87.389 E20.00096
G1 X88.194 Y87.193 E20.03473
G1 X89.11 Y87.075 E20.06852
G1 X89.71 Y87.041 E20.0905
G1 X90.031 Y87.032 E20.10225
G1 X90.33 Y87.028 E20.11319
G1 X139.293 Y87.028 E21.90456
G1 X139.446 Y87.029 E21.91016
G1 X140.144 Y87.039 E21.9357
G1 X141.065 Y87.092 E21.96945
G1 X141.979 Y87.225 E22.00324
G1 X142.878 Y87.436 E22.03703
G1 X143.755 Y87.725 E22.07081
G1 X144.604 Y88.088 E22.10459
G1 X145.418 Y88.523 E22.13836
G1 X146.192 Y89.027 E22.17215
G1 X146.919 Y89.596 E22.20593
G1 X147.594 Y90.226 E22.23971
G1 X148.212 Y90.912 E22.27349
G1 X148.768 Y91.648 E22.30723
G1 X149.259 Y92.431 E22.34105
G1 X149.68 Y93.252 E22.3748
G1 X150.028 Y94.107 E22.40858
G1 X150.301 Y94.989 E22.44236
G1 X150.497 Y95.891 E22.47613
G1 X150.614 Y96.807 E22.50991
G1 X150.647 Y97.398 E22.53157
G1 X150.656 Y97.718 E22.54328
G1 X150.66 Y98.018 E22.55426
G1 X150.66 Y146.952 E24.34456
G1 X150.659 Y147.084 E24.34939
G1 X150.65 Y147.811 E24.37599
G1 X150.599 Y148.733 E24.40978
G1 X150.468 Y149.647 E24.44356
G1 X150.258 Y150.546 E24.47734
G1 X149.972 Y151.424 E24.51112
G1 X149.61 Y152.273 E24.54489
G1 X149.177 Y153.088 E24.57865
G1 X148.674 Y153.863 E24.61245
G1 X148.107 Y154.591 E24.64621
G1 X147.478 Y155.267 E24.68
G1 X146.793 Y155.887 E24.7138
G1 X146.058 Y156.444 E24.74754
G1 X145.276 Y156.936 E24.78134
G1 X144.456 Y157.359 E24.8151
G1 X143.601 Y157.709 E24.8489
G1 X142.72 Y157.984 E24.88267
G1 X141.818 Y158.181 E24.91644
G1 X140.902 Y158.3 E24.95024
G1 X140.29 Y158.335 E24.97267
G1 X139.969 Y158.344 E24.98442
G1 X139.67 Y158.348 E24.99536
G1 X90.707 Y158.348 E26.78672
G1 X90.57 Y158.347 E26.79174
G1 X89.872 Y158.338 E26.81727
G1 X88.95 Y158.286 E26.85106
G1 X88.036 Y158.155 E26.88484
G1 X87.137 Y157.945 E26.91862
G1 X86.259 Y157.658 E26.95241
G1 X85.41 Y157.296 E26.98618
G1 X84.595 Y156.862 E27.01996
G1 X83.821 Y156.359 E27.05374
G1 X83.093 Y155.791 E27.08752
G1 X82.417 Y155.162 E27.1213
G1 X81.798 Y154.477 E27.15508
G1 X81.241 Y153.741 E27.18885
G1 X80.749 Y152.96 E27.22262
G1 X80.327 Y152.139 E27.25639
G1 X79.977 Y151.284 E27.29019
G1 X79.703 Y150.403 E27.32395
G1 X79.506 Y149.501 E27.35773
G1 X79.388 Y148.585 E27.39152
G1 X79.353 Y147.967 E27.41416
G1 X79.344 Y147.634 E27.42635
G1 X79.34 Y147.346 E27.43689
G1 X79.34 Y98.362 E29.22902
G1 X79.341 Y98.218 E29.23429
G1 X79.35 Y97.553 E29.25862
G1 X79.402 Y96.631 E29.29241
G1 X79.534 Y95.717 E29.3262
G1 X79.745 Y94.818 E29.35998
G1 X80.033 Y93.941 E29.39375
G1 X80.395 Y93.092 E29.42752
G1 X80.83 Y92.277 E29.46132
G1 X81.333 Y91.503 E29.49509
G1 X81.901 Y90.776 E29.52885
G1 X82.531 Y90.1 E29.56265
G1 X83.216 Y89.482 E29.59641
G0 F6000 X82.961 Y90.296
G1 F1200 X83.643 Y89.702 E29.6295
G1 X84.374 Y89.171 E29.66255
G1 X85.15 Y88.706 E29.69565
G1 X85.963 Y88.312 E29.7287
G1 X86.809 Y87.991 E29.76181
G1 X87.679 Y87.746 E29.79488
G1 X88.567 Y87.579 E29.82793
G1 X89.723 Y87.481 E29.87038
G1 X90.044 Y87.472 E29.88213
G1 X90.33 Y87.468 E29.89259
G1 X139.293 Y87.468 E31.68396
G1 X139.439 Y87.469 E31.6893
G1 X140.137 Y87.479 E31.71484
G1 X141.04 Y87.532 E31.74794
G1 X141.934 Y87.664 E31.781
G1 X142.813 Y87.875 E31.81407
G1 X143.67 Y88.163 E31.84715
G1 X144.498 Y88.526 E31.88023
G1 X145.291 Y88.96 E31.9133
G1 X146.043 Y89.462 E31.94638
G1 X146.747 Y90.029 E31.97945
G1 X147.398 Y90.656 E32.01252
G1 X147.991 Y91.338 E32.04558
G1 X148.522 Y92.07 E32.07867
G1 X148.986 Y92.846 E32.11175
G1 X149.379 Y93.66 E32.14482
G1 X149.699 Y94.505 E32.17788
G1 X149.944 Y95.376 E32.21098
G1 X150.11 Y96.264 E32.24403
G1 X150.207 Y97.411 E32.28614
G1 X150.216 Y97.731 E32.29786
G1 X150.22 Y98.018 E32.30836
G1 X150.22 Y146.952 E34.09866
G1 X150.219 Y147.079 E34.10331
G1 X150.21 Y147.806 E34.12991
G1 X150.159 Y148.708 E34.16296
G1 X150.028 Y149.603 E34.19606
G1 X149.819 Y150.482 E34.22911
G1 X149.533 Y151.339 E34.26217
G1 X149.172 Y152.168 E34.29525
G1 X148.74 Y152.962 E34.32832
G1 X148.238 Y153.715 E34.36143
G1 X147.673 Y154.42 E34.39448
G1 X147.047 Y155.072 E34.42755
G1 X146.366 Y155.667 E34.46064
G1 X145.635 Y156.199 E34.49372
G1 X144.861 Y156.664 E34.52675
G1 X144.047 Y157.059 E34.55985
G1 X143.203 Y157.381 E34.5929
G1 X142.333 Y157.627 E34.62598
G1 X141.445 Y157.795 E34.65905
G1 X140.277 Y157.895 E34.70194
G1 X139.956 Y157.904 E34.71368
G1 X139.67 Y157.908 E34.72415
G1 X90.707 Y157.908 E36.51552
G1 X90.575 Y157.907 E36.52035
G1 X89.877 Y157.898 E36.54588
G1 X88.975 Y157.847 E36.57894
G1 X88.08 Y157.715 E36.61204
G1 X87.201 Y157.506 E36.64509
G1 X86.344 Y157.219 E36.67816
G1 X85.515 Y156.858 E36.71124
G1 X84.721 Y156.425 E36.74433
G1 X83.969 Y155.923 E36.77741
G1 X83.264 Y155.357 E36.81048
G1 X82.612 Y154.731 E36.84355
G1 X82.018 Y154.05 E36.87662
G1 X81.486 Y153.319 E36.90969
G1 X81.021 Y152.544 E36.94276
G1 X80.626 Y151.731 E36.97583
G1 X80.305 Y150.886 E37.0089
G1 X80.06 Y150.016 E37.04197
G1 X79.892 Y149.127 E37.07507
G1 X79.793 Y147.955 E37.1181
G1 X79.784 Y147.622 E37.13029
G1 X79.78 Y147.346 E37.14039
G1 X79.78 Y98.362 E38.93252
G1 X79.781 Y98.224 E38.93757
G1 X79.79 Y97.559 E38.9619
G1 X79.842 Y96.656 E38.995
G1 X79.974 Y95.762 E39.02806
G1 X80.184 Y94.883 E39.06112
G1 X80.471 Y94.025 E39.09422
G1 X80.833 Y93.197 E39.12728
G1 X81.267 Y92.404 E39.16036
G1 X81.768 Y91.652 E39.19342
G1 X82.335 Y90.947 E39.22652
G1 X82.961 Y90.296 E39.25956
G1 F2700 E34.25956
;MESH:AIl_In_One_3D_printer_test_micro.stl
G0 F6000 X89.335 Y146.588
G0 X91.1 Y146.588
;TYPE:WALL-INNER
G1 F2700 E39.25956
G1 F1200 X91.1 Y98.788 E41.00838
G1 X138.9 Y98.788 E42.7572
G1 X138.9 Y146.588 E44.50601
G1 X91.1 Y146.588 E46.25483
G0 F6000 X90.66 Y147.028
G1 F1200 X90.66 Y98.348 E48.03585
G1 X139.34 Y98.348 E49.81686
G1 X139.34 Y147.028 E51.59787
G1 X90.66 Y147.028 E53.37889
G0 F6000 X90.22 Y147.468
;TYPE:WALL-OUTER
G1 F1200 X90.22 Y97.908 E55.1921
G1 X139.78 Y97.908 E57.00531
G1 X139.78 Y147.468 E58.81852
G1 X90.22 Y147.468 E60.63173
G0 F6000 X91.53 Y146.158
;TYPE:SKIN
G1 F1200 X91.53 Y99.218 E62.34908
G1 X138.47 Y99.218 E64.06643
G1 X138.47 Y146.158 E65.78379
G1 X91.53 Y146.158 E67.50114
G0 F6000 X91.844 Y145.98
G1 F1200 X91.706 Y145.842 E67.50828
G0 F6000 X91.706 Y145.219
G1 F1200 X92.466 Y145.98 E67.54763
G0 F6000 X93.089 Y145.98
G1 F1200 X91.706 Y144.597 E67.61919
G0 F6000 X91.706 Y143.975
G1 F1200 X93.711 Y145.98 E67.72293
G0 F6000 X94.333 Y145.98
G1 F1200 X91.706 Y143.353 E67.85885
G0 F6000 X91.706 Y142.73
G1 F1200 X94.955 Y145.98 E68.02698
G0 F6000 X95.578 Y145.98
G1 F1200 X91.706 Y142.108 E68.22732
G0 F6000 X91.706 Y141.486
G1 F1200 X96.2 Y145.98 E68.45984
G0 F6000 X96.822 Y145.98
G1 F1200 X91.706 Y140.864 E68.72455
G0 F6000 X91.706 Y140.241
G1 F1200 X97.444 Y145.98 E69.02146
G0 F6000 X98.067 Y145.98
G1 F1200 X91.706 Y139.619 E69.35058
G0 F6000 X91.706 Y138.997
G1 F1200 X98.689 Y145.98 E69.71189
G0 F6000 X99.311 Y145.98
G1 F1200 X91.706 Y138.375 E70.10538
G0 F6000 X91.706 Y137.752
G1 F1200 X99.933 Y145.98 E70.53107
G0 F6000 X100.556 Y145.98
G1 F1200 X91.706 Y137.13 E70.98898
G0 F6000 X91.706 Y136.508
G1 F1200 X101.178 Y145.98 E71.47906
G0 F6000 X101.8 Y145.98
G1 F1200 X91.706 Y135.886 E72.00133
G0 F6000 X91.706 Y135.263
G1 F1200 X102.423 Y145.98 E72.55584
G0 F6000 X103.045 Y145.98
G1 F1200 X91.706 Y134.641 E73.14252
G0 F6000 X91.706 Y134.019
G1 F1200 X103.667 Y145.98 E73.76139
G0 F6000 X104.289 Y145.98
G1 F1200 X91.706 Y133.397 E74.41245
G0 F6000 X91.706 Y132.774
G1 F1200 X104.912 Y145.98 E75.09573
G0 F6000 X105.534 Y145.98
G1 F1200 X91.706 Y132.152 E75.8112
G0 F6000 X91.706 Y131.53
G1 F1200 X106.156 Y145.98 E76.55885
G0 F6000 X106.778 Y145.98
G1 F1200 X91.706 Y130.908 E77.33869
G0 F6000 X91.706 Y130.285
G1 F1200 X107.401 Y145.98 E78.15076
G0 F6000 X108.023 Y145.98
G1 F1200 X91.706 Y129.663 E78.99501
G0 F6000 X91.706 Y129.041
G1 F1200 X108.645 Y145.98 E79.87144
G0 F6000 X109.267 Y145.98
G1 F1200 X91.706 Y128.419 E80.78006
G0 F6000 X91.706 Y127.796
G1 F1200 X109.89 Y145.98 E81.72091
G0 F6000 X110.512 Y145.98
G1 F1200 X91.706 Y127.174 E82.69395
G0 F6000 X91.706 Y126.552
G1 F1200 X111.134 Y145.98 E83.69916
G0 F6000 X111.756 Y145.98
G1 F1200 X91.706 Y125.93 E84.73656
G0 F6000 X91.706 Y125.307
G1 F1200 X112.379 Y145.98 E85.8062
G0 F6000 X113.001 Y145.98
G1 F1200 X91.706 Y124.685 E86.90801
G0 F6000 X91.706 Y124.063
G1 F1200 X113.623 Y145.98 E88.04201
G0 F6000 X114.245 Y145.98
G1 F1200 X91.706 Y123.441 E89.2082
G0 F6000 X91.706 Y122.818
G1 F1200 X114.868 Y145.98 E90.40661
G0 F6000 X115.49 Y145.98
G1 F1200 X91.706 Y122.196 E91.63721
G0 F6000 X91.706 Y121.574
G1 F1200 X116.112 Y145.98 E92.89999
G0 F6000 X116.734 Y145.98
G1 F1200 X91.706 Y120.952 E94.19496
G0 F6000 X91.706 Y120.329
G1 F1200 X117.357 Y145.98 E95.52216
G0 F6000 X117.979 Y145.98
G1 F1200 X91.706 Y119.707 E96.88154
G0 F6000 X91.706 Y119.085
G1 F1200 X118.601 Y145.98 E98.2731
G0 F6000 X119.223 Y145.98
G1 F1200 X91.706 Y118.463 E99.69685
G0 F6000 X91.706 Y117.84
G1 F1200 X119.846 Y145.98 E101.15283
G0 F6000 X120.468 Y145.98
G1 F1200 X91.706 Y117.218 E102.64099
G0 F6000 X91.706 Y116.596
G1 F1200 X121.09 Y145.98 E104.16134
G0 F6000 X121.712 Y145.98
G1 F1200 X91.706 Y115.973 E105.7139
G0 F6000 X91.706 Y115.351
G1 F1200 X122.335 Y145.98 E107.29866
G0 F6000 X122.957 Y145.98
G1 F1200 X91.706 Y114.729 E108.91561
G0 F6000 X91.706 Y114.107
G1 F1200 X123.579 Y145.98 E110.56474
G0 F6000 X124.201 Y145.98
G1 F1200 X91.706 Y113.484 E112.24607
G0 F6000 X91.706 Y112.862
G1 F1200 X124.824 Y145.98 E113.95962
G0 F6000 X125.446 Y145.98
G1 F1200 X91.706 Y112.24 E115.70535
G0 F6000 X91.706 Y111.618
G1 F1200 X126.068 Y145.98 E117.48326
G0 F6000 X126.69 Y145.98
G1 F1200 X91.706 Y110.995 E119.29338
G0 F6000 X91.706 Y110.373
G1 F1200 X127.313 Y145.98 E121.13571
G0 F6000 X127.935 Y145.98
G1 F1200 X91.706 Y109.751 E123.01022
G0 F6000 X91.706 Y109.129
G1 F1200 X128.557 Y145.98 E124.91691
G0 F6000 X129.179 Y145.98
G1 F1200 X91.706 Y108.506 E126.85582
