;FLAVOR:Marlin
;TIME:7556
;Filament used: 3.70735m
;Layer height: 0.2
;MINX:78.46
;MINY:78.46
;MINZ:0.2
;MAXX:151.54
;MAXY:151.54
;MAXZ:56.2
;POSTPROCESSED
;Generated with Cura_SteamEngine master
M140 S60
M105
M190 S60
M104 S200
M105
M109 S200
M82 ;absolute extrusion mode
M201 X500.00 Y500.00 Z100.00 E5000.00 ;Setup machine max acceleration
M203 X500.00 Y500.00 Z10.00 E50.00 ;Setup machine max feedrate
M204 P500.00 R1000.00 T500.00 ;Setup Print/Retract/Travel acceleration
M205 X8.00 Y8.00 Z0.40 E5.00 ;Setup Jerk
M220 S100 ;Reset Feedrate
M221 S100 ;Reset Flowrate
M141 S28
G92 E0
G92 E0
G1 F2700 E-2
;LAYER_COUNT:281
;LAYER:0
M107
G0 F6000 X81.668 Y82.034 Z0.2
;TYPE:SKIRT
G1 F2700 E0
G1 F1200 X82.36 Y81.368 E0.03261
G1 X83.105 Y80.762 E0.06521
G1 X83.898 Y80.22 E0.09783
G1 X84.733 Y79.745 E0.13044
G1 X85.605 Y79.342 E0.16306
G1 X86.508 Y79.013 E0.19569
G1 X87.434 Y78.76 E0.22828
G1 X88.379 Y78.585 E0.26091
G1 X89.686 Y78.474 E0.30544
G1 X90.007 Y78.465 E0.31635
G1 X90.33 Y78.46 E0.32731
G1 X139.293 Y78.46 E1.9897
G1 X139.458 Y78.461 E1.99531
G1 X140.156 Y78.471 E2.01901
G1 X141.115 Y78.525 E2.05162
G1 X142.067 Y78.658 E2.08425
G1 X143.004 Y78.87 E2.11687
G1 X143.92 Y79.159 E2.14948
G1 X144.809 Y79.524 E2.18211
G1 X145.664 Y79.961 E2.21471
G1 X146.48 Y80.467 E2.24731
G1 X147.251 Y81.04 E2.27992
G1 X147.972 Y81.675 E2.31254
G1 X148.638 Y82.368 E2.34518
G1 X149.244 Y83.113 E2.37778
G1 X149.785 Y83.907 E2.4104
G1 X150.259 Y84.743 E2.44303
G1 X150.661 Y85.615 E2.47563
G1 X150.99 Y86.518 E2.50826
G1 X151.242 Y87.444 E2.54085
G1 X151.417 Y88.389 E2.57348
G1 X151.526 Y89.686 E2.61767
G1 X151.535 Y90.006 E2.62854
G1 X151.54 Y90.33 E2.63954
G1 X151.54 Y139.264 E4.30094
G1 X151.539 Y139.407 E4.3058
G1 X151.53 Y140.134 E4.33048
G1 X151.478 Y141.093 E4.36309
G1 X151.347 Y142.045 E4.39572
G1 X151.137 Y142.982 E4.42832
G1 X150.849 Y143.899 E4.46095
G1 X150.487 Y144.788 E4.49354
G1 X150.051 Y145.645 E4.52619
G1 X149.546 Y146.462 E4.5588
G1 X148.975 Y147.234 E4.5914
G1 X148.341 Y147.956 E4.62402
G1 X147.65 Y148.623 E4.65663
G1 X146.906 Y149.23 E4.68923
G1 X146.113 Y149.773 E4.72186
G1 X145.278 Y150.248 E4.75448
G1 X144.407 Y150.653 E4.78709
G1 X143.505 Y150.983 E4.8197
G1 X142.579 Y151.237 E4.8523
G1 X141.634 Y151.413 E4.88494
G1 X140.314 Y151.526 E4.92992
G1 X139.993 Y151.535 E4.94082
G1 X139.67 Y151.54 E4.95179
G1 X90.707 Y151.54 E6.61418
G1 X90.558 Y151.539 E6.61924
G1 X89.86 Y151.53 E6.64294
G1 X88.901 Y151.478 E6.67554
G1 X87.949 Y151.346 E6.70818
G1 X87.012 Y151.135 E6.74079
G1 X86.096 Y150.847 E6.77339
G1 X85.206 Y150.484 E6.80602
G1 X84.35 Y150.048 E6.83864
G1 X83.533 Y149.543 E6.87125
G1 X82.761 Y148.971 E6.90387
G1 X82.04 Y148.337 E6.93647
G1 X81.373 Y147.646 E6.96907
G1 X80.766 Y146.901 E7.0017
G1 X80.224 Y146.108 E7.03431
G1 X79.749 Y145.273 E7.06693
G1 X79.345 Y144.401 E7.09956
G1 X79.015 Y143.499 E7.13217
G1 X78.761 Y142.573 E7.16477
G1 X78.586 Y141.628 E7.1974
G1 X78.473 Y140.303 E7.24255
G1 X78.464 Y139.97 E7.25386
G1 X78.46 Y139.658 E7.26445
G1 X78.46 Y90.674 E8.92755
G1 X78.461 Y90.518 E8.93285
G1 X78.47 Y89.853 E8.95543
G1 X78.523 Y88.894 E8.98804
G1 X78.656 Y87.942 E9.02068
G1 X78.867 Y87.005 E9.05329
G1 X79.155 Y86.089 E9.08589
G1 X79.519 Y85.2 E9.1185
G1 X79.955 Y84.344 E9.15112
G1 X80.461 Y83.527 E9.18375
G1 X81.033 Y82.756 E9.21634
G1 X81.668 Y82.034 E9.24898
G0 F6000 X82.1 Y82.221
G1 F1200 X82.788 Y81.579 E9.28093
G1 X83.529 Y80.997 E9.31292
G1 X84.317 Y80.48 E9.34492
G1 X85.146 Y80.031 E9.37693
G1 X86.009 Y79.655 E9.40889
G1 X86.902 Y79.353 E9.4409
G1 X87.816 Y79.128 E9.47286
G1 X88.747 Y78.981 E9.50486
G1 X89.698 Y78.913 E9.53723
G1 X90.019 Y78.904 E9.54813
G1 X90.33 Y78.9 E9.55869
G1 X139.293 Y78.9 E11.22108
G1 X139.452 Y78.901 E11.22648
G1 X140.15 Y78.911 E11.25018
G1 X141.091 Y78.965 E11.28218
G1 X142.023 Y79.098 E11.31415
G1 X142.941 Y79.309 E11.34613
G1 X143.838 Y79.598 E11.37812
G1 X144.707 Y79.962 E11.41011
G1 X145.542 Y80.398 E11.44209
G1 X146.337 Y80.903 E11.47407
G1 X147.087 Y81.474 E11.50607
G1 X147.785 Y82.107 E11.53807
G1 X148.427 Y82.796 E11.57004
G1 X149.009 Y83.537 E11.60203
G1 X149.525 Y84.325 E11.63401
G1 X149.973 Y85.154 E11.666
G1 X150.348 Y86.018 E11.69798
G1 X150.65 Y86.911 E11.72999
G1 X150.874 Y87.826 E11.76197
G1 X151.02 Y88.757 E11.79397
G1 X151.087 Y89.698 E11.826
G1 X151.096 Y90.018 E11.83687
G1 X151.1 Y90.33 E11.84746
G1 X151.1 Y139.264 E13.50886
G1 X151.099 Y139.401 E13.51352
G1 X151.09 Y140.128 E13.5382
G1 X151.039 Y141.069 E13.5702
G1 X150.907 Y142.002 E13.60219
G1 X150.697 Y142.921 E13.63419
G1 X150.41 Y143.818 E13.66617
G1 X150.048 Y144.688 E13.69816
G1 X149.614 Y145.524 E13.73014
G1 X149.11 Y146.32 E13.76213
G1 X148.541 Y147.07 E13.7941
G1 X147.909 Y147.77 E13.82611
G1 X147.221 Y148.413 E13.85809
G1 X146.481 Y148.996 E13.89007
G1 X145.694 Y149.514 E13.92206
G1 X144.866 Y149.963 E13.95404
G1 X144.003 Y150.341 E13.98603
G1 X143.111 Y150.644 E14.01801
G1 X142.196 Y150.87 E14.05001
G1 X141.266 Y151.018 E14.08199
G1 X140.302 Y151.087 E14.1148
G1 X139.981 Y151.096 E14.1257
G1 X139.67 Y151.1 E14.13626
G1 X90.707 Y151.1 E15.79865
G1 X90.564 Y151.099 E15.80351
G1 X89.866 Y151.09 E15.82721
G1 X88.925 Y151.038 E15.8592
G1 X87.992 Y150.906 E15.8912
G1 X87.074 Y150.696 E15.92317
G1 X86.177 Y150.408 E15.95516
G1 X85.307 Y150.046 E15.98715
G1 X84.471 Y149.611 E16.01915
G1 X83.676 Y149.107 E16.0511
G1 X82.925 Y148.537 E16.08311
G1 X82.226 Y147.905 E16.11511
G1 X81.583 Y147.217 E16.14708
G1 X81.001 Y146.476 E16.17907
G1 X80.483 Y145.689 E16.21106
G1 X80.034 Y144.861 E16.24304
G1 X79.657 Y143.997 E16.27505
G1 X79.355 Y143.105 E16.30702
G1 X79.129 Y142.191 E16.33899
G1 X78.982 Y141.26 E16.37099
G1 X78.913 Y140.291 E16.40397
G1 X78.904 Y139.958 E16.41528
G1 X78.9 Y139.658 E16.42547
G1 X78.9 Y90.674 E18.08857
G1 X78.901 Y90.524 E18.09366
G1 X78.91 Y89.859 E18.11624
G1 X78.963 Y88.918 E18.14824
G1 X79.095 Y87.985 E18.18023
G1 X79.306 Y87.067 E18.21221
G1 X79.594 Y86.17 E18.2442
G1 X79.957 Y85.301 E18.27618
G1 X80.392 Y84.465 E18.30817
G1 X80.897 Y83.67 E18.34015
G1 X81.468 Y82.92 E18.37215
G1 X82.1 Y82.221 E18.40415
G0 F6000 X82.531 Y82.412
G1 F1200 X83.216 Y81.794 E18.43547
G1 X83.952 Y81.237 E18.46681
G1 X84.734 Y80.746 E18.49816
G1 X85.556 Y80.324 E18.52953
G1 X86.41 Y79.975 E18.56085
G1 X87.292 Y79.701 E18.59221
G1 X88.194 Y79.505 E18.62355
G1 X89.11 Y79.387 E18.65491
G1 X89.71 Y79.353 E18.67531
G1 X90.031 Y79.344 E18.68621
G1 X90.33 Y79.34 E18.69637
G1 X139.293 Y79.34 E20.35875
G1 X139.446 Y79.341 E20.36395
G1 X140.144 Y79.351 E20.38765
G1 X141.065 Y79.404 E20.41897
G1 X141.979 Y79.537 E20.45033
G1 X142.878 Y79.748 E20.48168
G1 X143.755 Y80.037 E20.51303
G1 X144.604 Y80.4 E20.54438
G1 X145.418 Y80.835 E20.57572
G1 X146.192 Y81.339 E20.60708
G1 X146.919 Y81.908 E20.63842
G1 X147.594 Y82.538 E20.66977
G1 X148.212 Y83.224 E20.70112
G1 X148.768 Y83.96 E20.73244
G1 X149.259 Y84.743 E20.76382
G1 X149.68 Y85.564 E20.79514
G1 X150.028 Y86.419 E20.82648
G1 X150.301 Y87.301 E20.85783
G1 X150.497 Y88.203 E20.88917
G1 X150.614 Y89.119 E20.92052
G1 X150.647 Y89.71 E20.94062
G1 X150.656 Y90.03 E20.95149
G1 X150.66 Y90.33 E20.96167
G1 X150.66 Y139.264 E22.62308
G1 X150.659 Y139.396 E22.62756
G1 X150.65 Y140.123 E22.65225
G1 X150.599 Y141.045 E22.6836
G1 X150.468 Y141.959 E22.71495
G1 X150.258 Y142.858 E22.74629
G1 X149.972 Y143.736 E22.77764
G1 X149.61 Y144.585 E22.80898
G1 X149.177 Y145.4 E22.84031
G1 X148.674 Y146.175 E22.87168
G1 X148.107 Y146.903 E22.90301
G1 X147.478 Y147.579 E22.93436
G1 X146.793 Y148.199 E22.96573
G1 X146.058 Y148.756 E22.99704
G1 X145.276 Y149.248 E23.02841
G1 X144.456 Y149.671 E23.05974
G1 X143.601 Y150.021 E23.0911
G1 X142.72 Y150.296 E23.12244
G1 X141.818 Y150.493 E23.15378
G1 X140.902 Y150.612 E23.18515
G1 X140.29 Y150.647 E23.20596
G1 X139.969 Y150.656 E23.21686
G1 X139.67 Y150.66 E23.22701
G1 X90.707 Y150.66 E24.8894
G1 X90.57 Y150.659 E24.89405
G1 X89.872 Y150.65 E24.91775
G1 X88.95 Y150.598 E24.94911
G1 X88.036 Y150.467 E24.98046
G1 X87.137 Y150.257 E25.0118
G1 X86.259 Y149.97 E25.04316
G1 X85.41 Y149.608 E25.0745
G1 X84.595 Y149.174 E25.10585
G1 X83.821 Y148.671 E25.13719
G1 X83.093 Y148.103 E25.16854
G1 X82.417 Y147.474 E25.19989
G1 X81.798 Y146.789 E25.23124
G1 X81.241 Y146.053 E25.26257
G1 X80.749 Y145.272 E25.29391
G1 X80.327 Y144.451 E25.32525
G1 X79.977 Y143.596 E25.35662
G1 X79.703 Y142.715 E25.38795
G1 X79.506 Y141.813 E25.41929
G1 X79.388 Y140.897 E25.45065
G1 X79.353 Y140.279 E25.47167
G1 X79.344 Y139.946 E25.48298
G1 X79.34 Y139.658 E25.49276
G1 X79.34 Y90.674 E27.15586
G1 X79.341 Y90.53 E27.16075
G1 X79.35 Y89.865 E27.18333
G1 X79.402 Y88.943 E27.21468
G1 X79.534 Y88.029 E27.24603
G1 X79.745 Y87.13 E27.27739
G1 X80.033 Y86.253 E27.30873
G1 X80.395 Y85.404 E27.34006
G1 X80.83 Y84.589 E27.37143
G1 X81.333 Y83.815 E27.40277
G1 X81.901 Y83.088 E27.43409
G1 X82.531 Y82.412 E27.46547
G0 F6000 X82.335 Y83.259
G1 F1200 X82.961 Y82.608 E27.49613
G1 X83.643 Y82.014 E27.52684
G1 X84.374 Y81.483 E27.55751
G1 X85.15 Y81.018 E27.58823
G1 X85.963 Y80.624 E27.6189
G1 X86.809 Y80.303 E27.64962
G1 X87.679 Y80.058 E27.68031
G1 X88.567 Y79.891 E27.71099
G1 X89.723 Y79.793 E27.75038
G1 X90.044 Y79.784 E27.76128
G1 X90.33 Y79.78 E27.77099
G1 X139.293 Y79.78 E29.43338
G1 X139.439 Y79.781 E29.43834
G1 X140.137 Y79.791 E29.46204
G1 X141.04 Y79.844 E29.49275
G1 X141.934 Y79.976 E29.52343
G1 X142.813 Y80.187 E29.55412
G1 X143.67 Y80.475 E29.58482
G1 X144.498 Y80.838 E29.61551
G1 X145.291 Y81.272 E29.64621
G1 X146.043 Y81.774 E29.6769
G1 X146.747 Y82.341 E29.70759
G1 X147.398 Y82.968 E29.73828
G1 X147.991 Y83.65 E29.76897
G1 X148.522 Y84.382 E29.79967
G1 X148.986 Y85.158 E29.83037
G1 X149.379 Y85.972 E29.86105
G1 X149.699 Y86.817 E29.89173
G1 X149.944 Y87.688 E29.92245
G1 X150.11 Y88.576 E29.95312
G1 X150.207 Y89.723 E29.99221
G1 X150.216 Y90.043 E30.00307
G1 X150.22 Y90.33 E30.01282
G1 X150.22 Y139.264 E31.67422
G1 X150.219 Y139.391 E31.67854
G1 X150.21 Y140.118 E31.70322
G1 X150.159 Y141.02 E31.7339
G1 X150.028 Y141.915 E31.76461
G1 X149.819 Y142.794 E31.79528
G1 X149.533 Y143.651 E31.82596
G1 X149.172 Y144.48 E31.85666
G1 X148.74 Y145.274 E31.88734
G1 X148.238 Y146.027 E31.91807
G1 X147.673 Y146.732 E31.94875
G1 X147.047 Y147.384 E31.97943
G1 X146.366 Y147.979 E32.01014
G1 X145.635 Y148.511 E32.04083
G1 X144.861 Y148.976 E32.07149
G1 X144.047 Y149.371 E32.10221
G1 X143.203 Y149.693 E32.13288
G1 X142.333 Y149.939 E32.16357
G1 X141.445 Y150.107 E32.19426
G1 X140.277 Y150.207 E32.23406
G1 X139.956 Y150.216 E32.24496
G1 X139.67 Y150.22 E32.25467
G1 X90.707 Y150.22 E33.91706
G1 X90.575 Y150.219 E33.92154
G1 X89.877 Y150.21 E33.94524
G1 X88.975 Y150.159 E33.97592
G1 X88.08 Y150.027 E34.00663
G1 X87.201 Y149.818 E34.03731
G1 X86.344 Y149.531 E34.06799
G1 X85.515 Y149.17 E34.09869
G1 X84.721 Y148.737 E34.1294
G1 X83.969 Y148.235 E34.1601
G1 X83.264 Y147.669 E34.19079
G1 X82.612 Y147.043 E34.22148
G1 X82.018 Y146.362 E34.25216
G1 X81.486 Y145.631 E34.28286
G1 X81.021 Y144.856 E34.31354
G1 X80.626 Y144.043 E34.34423
G1 X80.305 Y143.198 E34.37492
G1 X80.06 Y142.328 E34.40561
G1 X79.892 Y141.439 E34.43633
G1 X79.793 Y140.267 E34.47626
G1 X79.784 Y139.934 E34.48757
G1 X79.78 Y139.658 E34.49694
G1 X79.78 Y90.674 E36.16004
G1 X79.781 Y90.536 E36.16473
G1 X79.79 Y89.871 E36.18731
G1 X79.842 Y88.968 E36.21802
G1 X79.974 Y88.074 E36.2487
G1 X80.184 Y87.195 E36.27938
G1 X80.471 Y86.337 E36.3101
G1 X80.833 Y85.509 E36.34078
G1 X81.267 Y84.716 E36.37148
G1 X81.768 Y83.964 E36.40216
G1 X82.335 Y83.259 E36.43287
G1 F2700 E34.43287
;MESH:AIl_In_One_3D_printer_test_micro.stl
G0 F6000 X89.335 Y138.9
G0 X91.1 Y138.9
;TYPE:WALL-INNER
G1 F2700 E36.43287
G1 F1200 X91.1 Y91.1 E38.05578
G1 X138.9 Y91.1 E39.67868
G1 X138.9 Y138.9 E41.30158
G1 X91.1 Y138.9 E42.92448
G0 F6000 X90.66 Y139.34
G1 F1200 X90.66 Y90.66 E44.57726
G1 X139.34 Y90.66 E46.23005
G1 X139.34 Y139.34 E47.88283
G1 X90.66 Y139.34 E49.53561
G0 F6000 X90.22 Y139.78
;TYPE:WALL-OUTER
G1 F1200 X90.22 Y90.22 E51.21827
G1 X139.78 Y90.22 E52.90092
G1 X139.78 Y139.78 E54.58358
G1 X90.22 Y139.78 E56.26624
G0 F6000 X91.53 Y138.47
;TYPE:SKIN
G1 F1200 X91.53 Y91.53 E57.85995
G1 X138.47 Y91.53 E59.45365
G1 X138.47 Y138.47 E61.04735
G1 X91.53 Y138.47 E62.64106
G0 F6000 X92.246 Y138.293
G1 F1200 X91.705 Y137.752 E62.66703
G0 F6000 X91.705 Y137.129
G1 F1200 X92.868 Y138.293 E62.7229
G0 F6000 X93.49 Y138.293
G1 F1200 X91.705 Y136.507 E62.80863
G0 F6000 X91.705 Y135.885
G1 F1200 X94.113 Y138.293 E62.92425
G0 F6000 X94.735 Y138.293
G1 F1200 X91.705 Y135.263 E63.06974
G0 F6000 X91.705 Y134.64
G1 F1200 X95.357 Y138.293 E63.24511
G0 F6000 X95.979 Y138.293
G1 F1200 X91.705 Y134.018 E63.45036
G0 F6000 X91.705 Y133.396
G1 F1200 X96.602 Y138.293 E63.68549
G0 F6000 X97.224 Y138.293
G1 F1200 X91.705 Y132.774 E63.95048
G0 F6000 X91.705 Y132.151
G1 F1200 X97.846 Y138.293 E64.24537
G0 F6000 X98.468 Y138.293
G1 F1200 X91.705 Y131.529 E64.57012
G0 F6000 X91.705 Y130.907
G1 F1200 X99.091 Y138.293 E64.92476
G0 F6000 X99.713 Y138.293
G1 F1200 X91.705 Y130.285 E65.30927
G0 F6000 X91.705 Y129.662
G1 F1200 X100.335 Y138.293 E65.72366
G0 F6000 X100.957 Y138.293
G1 F1200 X91.705 Y129.04 E66.16793
G0 F6000 X91.705 Y128.418
G1 F1200 X101.58 Y138.293 E66.64208
G0 F6000 X102.202 Y138.293
G1 F1200 X91.705 Y127.796 E67.14609
G0 F6000 X91.705 Y127.173
G1 F1200 X102.824 Y138.293 E67.68
G0 F6000 X103.446 Y138.293
G1 F1200 X91.705 Y126.551 E68.24377
G0 F6000 X91.705 Y125.929
G1 F1200 X104.069 Y138.293 E68.83743
G0 F6000 X104.691 Y138.293
G1 F1200 X91.705 Y125.307 E69.46096
G0 F6000 X91.705 Y124.684
G1 F1200 X105.313 Y138.293 E70.11438
G0 F6000 X105.935 Y138.293
G1 F1200 X91.705 Y124.062 E70.79766
G0 F6000 X91.705 Y123.44
G1 F1200 X106.558 Y138.293 E71.51083
G0 F6000 X107.18 Y138.293
G1 F1200 X91.705 Y122.818 E72.25387
G0 F6000 X91.705 Y122.195
G1 F1200 X107.802 Y138.293 E73.02679
G0 F6000 X108.424 Y138.293
G1 F1200 X91.705 Y121.573 E73.82958
G0 F6000 X91.705 Y120.951
G1 F1200 X109.047 Y138.293 E74.66227
G0 F6000 X109.669 Y138.293
G1 F1200 X91.705 Y120.329 E75.52481
G0 F6000 X91.705 Y119.706
G1 F1200 X110.291 Y138.293 E76.41725
G0 F6000 X110.913 Y138.293
G1 F1200 X91.705 Y119.084 E77.33955
G0 F6000 X91.705 Y118.462
G1 F1200 X111.536 Y138.293 E78.29174
G0 F6000 X112.158 Y138.293
G1 F1200 X91.705 Y117.84 E79.2738
G0 F6000 X91.705 Y117.217
G1 F1200 X112.78 Y138.293 E80.28575
G0 F6000 X113.402 Y138.293
G1 F1200 X91.705 Y116.595 E81.32756
G0 F6000 X91.705 Y115.973
G1 F1200 X114.025 Y138.293 E82.39926
G0 F6000 X114.647 Y138.293
G1 F1200 X91.705 Y115.351 E83.50083
G0 F6000 X91.705 Y114.728
G1 F1200 X115.269 Y138.293 E84.63228
G0 F6000 X115.891 Y138.293
G1 F1200 X91.705 Y114.106 E85.7936
G0 F6000 X91.705 Y113.484
G1 F1200 X116.514 Y138.293 E86.98482
G0 F6000 X117.136 Y138.293
G1 F1200 X91.705 Y112.862 E88.20589
G0 F6000 X91.705 Y112.239
G1 F1200 X117.758 Y138.293 E89.45686
G0 F6000 X118.38 Y138.293
G1 F1200 X91.705 Y111.617 E90.73769
G0 F6000 X91.705 Y110.995
G1 F1200 X119.003 Y138.293 E92.04841
G0 F6000 X119.625 Y138.293
G1 F1200 X91.705 Y110.373 E93.389
G0 F6000 X91.705 Y109.75
G1 F1200 X120.247 Y138.293 E94.75948
G0 F6000 X120.87 Y138.293
G1 F1200 X91.705 Y109.128 E96.15984
G0 F6000 X91.705 Y108.506
G1 F1200 X121.492 Y138.293 E97.59008
G0 F6000 X122.114 Y138.293
G1 F1200 X91.705 Y107.883 E99.0502
G0 F6000 X91.705 Y107.261
G1 F1200 X122.736 Y138.293 E100.54018
G0 F6000 X123.359 Y138.293
G1 F1200 X91.705 Y106.639 E102.06006
G0 F6000 X91.705 Y106.017
G1 F1200 X123.981 Y138.293 E103.6098
G0 F6000 X124.603 Y138.293
G1 F1200 X91.705 Y105.394 E105.18943
G0 F6000 X91.705 Y104.772
G1 F1200 X125.225 Y138.293 E106.79893
G0 F6000 X125.848 Y138.293
G1 F1200 X91.705 Y104.15 E108.43832
G0 F6000 X91.705 Y103.528
G1 F1200 X126.47 Y138.293 E110.10757
G0 F6000 X127.092 Y138.293
G1 F1200 X91.705 Y102.905 E111.80671
G0 F6000 X91.705 Y102.283
G1 F1200 X127.714 Y138.293 E113.53572
G0 F6000 X128.337 Y138.293
G1 F1200 X91.705 Y101.661 E115.29461
G0 F6000 X91.705 Y101.039
G1 F1200 X128.959 Y138.293 E117.08338
G0 F6000 X129.581 Y138.293
G1 F1200 X91.705 Y100.416 E118.90203
G0 F6000 X91.705 Y99.794
