;FLAVOR:Marlin
;TIME:287
;Filament used: 0.107732m
;Layer height: 0.2
;MINX:90.96
;MINY:90.96
;MINZ:0.2
;MAXX:139.04
;MAXY:139.04
;MAXZ:5
;POSTPROCESSED
;Generated with Cura_SteamEngine master
M140 S60
M105
M190 S60
M104 S205
M105
M109 S205
M82 ;absolute extrusion mode
M201 X500.00 Y500.00 Z100.00 E5000.00 ;Setup machine max acceleration
M203 X500.00 Y500.00 Z10.00 E50.00 ;Setup machine max feedrate
M204 P500.00 R1000.00 T500.00 ;Setup Print/Retract/Travel acceleration
M205 X8.00 Y8.00 Z0.40 E5.00 ;Setup Jerk
M220 S100 ;Reset Feedrate
M221 S100 ;Reset Flowrate
M141 S28
G92 E0
G92 E0
G1 F2700 E-5
;LAYER_COUNT:25
;LAYER:0
M107
G0 F6000 X94.168 Y94.534 Z0.2
;TYPE:SKIRT
G1 F2700 E0
G1 F1200 X94.86 Y93.868 E0.03261
G1 X95.605 Y93.262 E0.06521
G1 X96.398 Y92.72 E0.09783
G1 X97.233 Y92.245 E0.13044
G1 X98.105 Y91.842 E0.16306
G1 X99.008 Y91.513 E0.19569
G1 X99.934 Y91.26 E0.22828
G1 X100.879 Y91.085 E0.26091
G1 X102.186 Y90.974 E0.30544
G1 X102.507 Y90.965 E0.31635
G1 X102.83 Y90.96 E0.32731
G1 X126.793 Y90.96 E1.1409
G1 X126.958 Y90.961 E1.14651
G1 X127.656 Y90.971 E1.17021
G1 X128.615 Y91.025 E1.20282
G1 X129.567 Y91.158 E1.23546
G1 X130.504 Y91.37 E1.26807
G1 X131.42 Y91.659 E1.30068
G1 X132.309 Y92.024 E1.33331
G1 X133.164 Y92.461 E1.36591
G1 X133.98 Y92.967 E1.39851
G1 X134.751 Y93.54 E1.43113
G1 X135.472 Y94.175 E1.46375
G1 X136.138 Y94.868 E1.49638
G1 X136.744 Y95.613 E1.52898
G1 X137.285 Y96.407 E1.56161
G1 X137.759 Y97.243 E1.59423
G1 X138.161 Y98.115 E1.62683
G1 X138.49 Y99.018 E1.65946
G1 X138.742 Y99.944 E1.69205
G1 X138.917 Y100.889 E1.72468
G1 X139.026 Y102.186 E1.76887
G1 X139.035 Y102.506 E1.77974
G1 X139.04 Y102.83 E1.79074
G1 X139.04 Y126.764 E2.60335
G1 X139.039 Y126.907 E2.6082
G1 X139.03 Y127.634 E2.63289
G1 X138.978 Y128.593 E2.66549
G1 X138.847 Y129.545 E2.69812
G1 X138.637 Y130.482 E2.73072
G1 X138.349 Y131.399 E2.76336
G1 X137.987 Y132.288 E2.79595
G1 X137.551 Y133.145 E2.82859
G1 X137.046 Y133.962 E2.8612
G1 X136.475 Y134.734 E2.8938
G1 X135.841 Y135.456 E2.92643
G1 X135.15 Y136.123 E2.95903
G1 X134.406 Y136.73 E2.99163
G1 X133.613 Y137.273 E3.02426
G1 X132.778 Y137.748 E3.05688
G1 X131.907 Y138.153 E3.08949
G1 X131.005 Y138.483 E3.1221
G1 X130.079 Y138.737 E3.1547
G1 X129.134 Y138.913 E3.18734
G1 X127.814 Y139.026 E3.23232
G1 X127.493 Y139.035 E3.24322
G1 X127.17 Y139.04 E3.25419
G1 X103.207 Y139.04 E4.06778
G1 X103.058 Y139.039 E4.07284
G1 X102.36 Y139.03 E4.09654
G1 X101.401 Y138.978 E4.12915
G1 X100.449 Y138.846 E4.16178
G1 X99.512 Y138.635 E4.19439
G1 X98.596 Y138.347 E4.22699
G1 X97.706 Y137.984 E4.25962
G1 X96.85 Y137.548 E4.29224
G1 X96.033 Y137.043 E4.32485
G1 X95.261 Y136.471 E4.35747
G1 X94.54 Y135.837 E4.39007
G1 X93.873 Y135.146 E4.42268
G1 X93.266 Y134.401 E4.4553
G1 X92.724 Y133.608 E4.48792
G1 X92.249 Y132.773 E4.52053
G1 X91.845 Y131.901 E4.55316
G1 X91.515 Y130.999 E4.58577
G1 X91.261 Y130.073 E4.61837
G1 X91.086 Y129.128 E4.651
G1 X90.973 Y127.803 E4.69615
G1 X90.964 Y127.47 E4.70746
G1 X90.96 Y127.158 E4.71806
G1 X90.96 Y103.174 E5.53236
G1 X90.961 Y103.018 E5.53766
G1 X90.97 Y102.353 E5.56024
G1 X91.023 Y101.394 E5.59284
G1 X91.156 Y100.442 E5.62548
G1 X91.367 Y99.505 E5.65809
G1 X91.655 Y98.589 E5.69069
G1 X92.019 Y97.7 E5.72331
G1 X92.455 Y96.844 E5.75592
G1 X92.961 Y96.027 E5.78855
G1 X93.533 Y95.256 E5.82114
G1 X94.168 Y94.534 E5.85379
G0 F6000 X94.6 Y94.721
G1 F1200 X95.288 Y94.079 E5.88574
G1 X96.029 Y93.497 E5.91773
G1 X96.817 Y92.98 E5.94973
G1 X97.646 Y92.531 E5.98174
G1 X98.509 Y92.155 E6.0137
G1 X99.402 Y91.853 E6.0457
G1 X100.316 Y91.628 E6.07766
G1 X101.247 Y91.481 E6.10966
G1 X102.198 Y91.413 E6.14203
G1 X102.519 Y91.404 E6.15294
G1 X102.83 Y91.4 E6.1635
G1 X126.793 Y91.4 E6.97709
G1 X126.952 Y91.401 E6.98249
G1 X127.65 Y91.411 E7.00619
G1 X128.591 Y91.465 E7.03819
G1 X129.523 Y91.598 E7.07015
G1 X130.441 Y91.809 E7.10213
G1 X131.338 Y92.098 E7.13413
G1 X132.207 Y92.462 E7.16612
G1 X133.042 Y92.898 E7.1981
G1 X133.837 Y93.403 E7.23008
G1 X134.587 Y93.974 E7.26208
G1 X135.285 Y94.607 E7.29407
G1 X135.927 Y95.296 E7.32605
G1 X136.509 Y96.037 E7.35804
G1 X137.025 Y96.825 E7.39002
G1 X137.473 Y97.654 E7.42201
G1 X137.848 Y98.518 E7.45399
G1 X138.15 Y99.411 E7.48599
G1 X138.374 Y100.326 E7.51798
G1 X138.52 Y101.257 E7.54997
G1 X138.587 Y102.198 E7.582
G1 X138.596 Y102.518 E7.59287
G1 X138.6 Y102.83 E7.60347
G1 X138.6 Y126.764 E8.41607
G1 X138.599 Y126.901 E8.42072
G1 X138.59 Y127.628 E8.44541
G1 X138.539 Y128.569 E8.4774
G1 X138.407 Y129.502 E8.5094
G1 X138.197 Y130.421 E8.5414
G1 X137.91 Y131.318 E8.57338
G1 X137.548 Y132.188 E8.60537
G1 X137.114 Y133.024 E8.63735
G1 X136.61 Y133.82 E8.66934
G1 X136.041 Y134.57 E8.7013
G1 X135.409 Y135.27 E8.73332
G1 X134.721 Y135.913 E8.7653
G1 X133.981 Y136.496 E8.79728
G1 X133.194 Y137.014 E8.82927
G1 X132.366 Y137.463 E8.86125
G1 X131.503 Y137.841 E8.89324
G1 X130.611 Y138.144 E8.92522
G1 X129.696 Y138.37 E8.95722
G1 X128.766 Y138.518 E8.98919
G1 X127.802 Y138.587 E9.02201
G1 X127.481 Y138.596 E9.03291
G1 X127.17 Y138.6 E9.04347
G1 X103.207 Y138.6 E9.85706
G1 X103.064 Y138.599 E9.86192
G1 X102.366 Y138.59 E9.88562
G1 X101.425 Y138.538 E9.91761
G1 X100.492 Y138.406 E9.94961
G1 X99.574 Y138.196 E9.98158
G1 X98.677 Y137.908 E10.01357
G1 X97.807 Y137.546 E10.04556
G1 X96.971 Y137.111 E10.07755
G1 X96.176 Y136.607 E10.10951
G1 X95.425 Y136.037 E10.14152
G1 X94.726 Y135.405 E10.17352
G1 X94.083 Y134.717 E10.20549
G1 X93.501 Y133.976 E10.23748
G1 X92.983 Y133.189 E10.26947
G1 X92.534 Y132.361 E10.30145
G1 X92.157 Y131.497 E10.33346
G1 X91.855 Y130.605 E10.36543
G1 X91.629 Y129.691 E10.3974
G1 X91.482 Y128.76 E10.4294
G1 X91.413 Y127.791 E10.46238
G1 X91.404 Y127.458 E10.47369
G1 X91.4 Y127.158 E10.48388
G1 X91.4 Y103.174 E11.29818
G1 X91.401 Y103.024 E11.30327
G1 X91.41 Y102.359 E11.32585
G1 X91.463 Y101.418 E11.35785
G1 X91.595 Y100.485 E11.38984
G1 X91.806 Y99.567 E11.42183
G1 X92.094 Y98.67 E11.45381
G1 X92.457 Y97.801 E11.48579
G1 X92.892 Y96.965 E11.51778
G1 X93.397 Y96.17 E11.54976
G1 X93.968 Y95.42 E11.58176
G1 X94.6 Y94.721 E11.61376
G0 F6000 X95.031 Y94.912
G1 F1200 X95.716 Y94.294 E11.64508
G1 X96.452 Y93.737 E11.67642
G1 X97.234 Y93.246 E11.70777
G1 X98.056 Y92.824 E11.73914
G1 X98.91 Y92.475 E11.77046
G1 X99.792 Y92.201 E11.80182
G1 X100.694 Y92.005 E11.83316
G1 X101.61 Y91.887 E11.86452
G1 X102.21 Y91.853 E11.88492
G1 X102.531 Y91.844 E11.89582
G1 X102.83 Y91.84 E11.90598
G1 X126.793 Y91.84 E12.71957
G1 X126.946 Y91.841 E12.72476
G1 X127.644 Y91.851 E12.74846
G1 X128.565 Y91.904 E12.77978
G1 X129.479 Y92.037 E12.81114
G1 X130.378 Y92.248 E12.8425
G1 X131.255 Y92.537 E12.87385
G1 X132.104 Y92.9 E12.9052
G1 X132.918 Y93.335 E12.93653
G1 X133.692 Y93.839 E12.96789
G1 X134.419 Y94.408 E12.99923
G1 X135.094 Y95.038 E13.03058
G1 X135.712 Y95.724 E13.06193
G1 X136.268 Y96.46 E13.09325
G1 X136.759 Y97.243 E13.12463
G1 X137.18 Y98.064 E13.15595
G1 X137.528 Y98.919 E13.1873
G1 X137.801 Y99.801 E13.21864
G1 X137.997 Y100.703 E13.24998
G1 X138.114 Y101.619 E13.28133
G1 X138.147 Y102.21 E13.30143
G1 X138.156 Y102.53 E13.3123
G1 X138.16 Y102.83 E13.32249
G1 X138.16 Y126.764 E14.13509
G1 X138.159 Y126.896 E14.13957
G1 X138.15 Y127.623 E14.16426
G1 X138.099 Y128.545 E14.19561
G1 X137.968 Y129.459 E14.22696
G1 X137.758 Y130.358 E14.2583
G1 X137.472 Y131.236 E14.28966
G1 X137.11 Y132.085 E14.32099
G1 X136.677 Y132.9 E14.35233
G1 X136.174 Y133.675 E14.38369
G1 X135.607 Y134.403 E14.41502
G1 X134.978 Y135.079 E14.44637
G1 X134.293 Y135.699 E14.47774
G1 X133.558 Y136.256 E14.50905
G1 X132.776 Y136.748 E14.54042
G1 X131.956 Y137.171 E14.57175
G1 X131.101 Y137.521 E14.60312
G1 X130.22 Y137.796 E14.63445
G1 X129.318 Y137.993 E14.6658
G1 X128.402 Y138.112 E14.69716
G1 X127.79 Y138.147 E14.71797
G1 X127.469 Y138.156 E14.72887
G1 X127.17 Y138.16 E14.73903
G1 X103.207 Y138.16 E15.55262
G1 X103.07 Y138.159 E15.55727
G1 X102.372 Y138.15 E15.58097
G1 X101.45 Y138.098 E15.61232
G1 X100.536 Y137.967 E15.64367
G1 X99.637 Y137.757 E15.67502
G1 X98.759 Y137.47 E15.70638
G1 X97.91 Y137.108 E15.73771
G1 X97.095 Y136.674 E15.76906
G1 X96.321 Y136.171 E15.8004
G1 X95.593 Y135.603 E15.83175
G1 X94.917 Y134.974 E15.8631
G1 X94.298 Y134.289 E15.89445
G1 X93.741 Y133.553 E15.92579
G1 X93.249 Y132.772 E15.95713
G1 X92.827 Y131.951 E15.98847
G1 X92.477 Y131.096 E16.01984
G1 X92.203 Y130.215 E16.05116
G1 X92.006 Y129.313 E16.08251
G1 X91.888 Y128.397 E16.11386
G1 X91.853 Y127.779 E16.13488
G1 X91.844 Y127.446 E16.14619
G1 X91.84 Y127.158 E16.15597
G1 X91.84 Y103.174 E16.97027
G1 X91.841 Y103.03 E16.97516
G1 X91.85 Y102.365 E16.99774
G1 X91.902 Y101.443 E17.0291
G1 X92.034 Y100.529 E17.06045
G1 X92.245 Y99.63 E17.0918
G1 X92.533 Y98.753 E17.12314
G1 X92.895 Y97.904 E17.15448
G1 X93.33 Y97.089 E17.18584
G1 X93.833 Y96.315 E17.21718
G1 X94.401 Y95.588 E17.24851
G1 X95.031 Y94.912 E17.27988
G0 F6000 X94.835 Y95.759
G1 F1200 X95.461 Y95.108 E17.31055
G1 X96.143 Y94.514 E17.34125
G1 X96.874 Y93.983 E17.37193
G1 X97.65 Y93.518 E17.40264
G1 X98.463 Y93.124 E17.43332
G1 X99.309 Y92.803 E17.46404
G1 X100.179 Y92.558 E17.49472
G1 X101.067 Y92.391 E17.5254
G1 X102.223 Y92.293 E17.56479
G1 X102.544 Y92.284 E17.57569
G1 X102.83 Y92.28 E17.58541
G1 X126.793 Y92.28 E18.399
G1 X126.939 Y92.281 E18.40395
G1 X127.637 Y92.291 E18.42765
G1 X128.54 Y92.344 E18.45837
G1 X129.434 Y92.476 E18.48905
G1 X130.313 Y92.687 E18.51974
G1 X131.17 Y92.975 E18.55044
G1 X131.998 Y93.338 E18.58113
G1 X132.791 Y93.772 E18.61182
G1 X133.543 Y94.274 E18.64252
G1 X134.247 Y94.841 E18.67321
G1 X134.898 Y95.468 E18.7039
G1 X135.491 Y96.15 E18.73458
G1 X136.022 Y96.882 E18.76529
G1 X136.486 Y97.658 E18.79598
G1 X136.879 Y98.472 E18.82667
G1 X137.199 Y99.317 E18.85735
G1 X137.444 Y100.188 E18.88807
G1 X137.61 Y101.076 E18.91874
G1 X137.707 Y102.223 E18.95782
G1 X137.716 Y102.543 E18.96869
G1 X137.72 Y102.83 E18.97844
G1 X137.72 Y126.764 E19.79104
G1 X137.719 Y126.891 E19.79536
G1 X137.71 Y127.618 E19.82004
G1 X137.659 Y128.52 E19.85071
G1 X137.528 Y129.415 E19.88142
G1 X137.319 Y130.294 E19.9121
G1 X137.033 Y131.151 E19.94277
G1 X136.672 Y131.98 E19.97347
G1 X136.24 Y132.774 E20.00416
G1 X135.738 Y133.527 E20.03489
G1 X135.173 Y134.232 E20.06556
G1 X134.547 Y134.884 E20.09625
G1 X133.866 Y135.479 E20.12696
G1 X133.135 Y136.011 E20.15765
G1 X132.361 Y136.476 E20.18831
G1 X131.547 Y136.871 E20.21903
G1 X130.703 Y137.193 E20.2497
G1 X129.833 Y137.439 E20.28039
G1 X128.945 Y137.607 E20.31108
G1 X127.777 Y137.707 E20.35088
G1 X127.456 Y137.716 E20.36178
G1 X127.17 Y137.72 E20.37149
G1 X103.207 Y137.72 E21.18508
G1 X103.075 Y137.719 E21.18956
G1 X102.377 Y137.71 E21.21327
G1 X101.475 Y137.659 E21.24394
G1 X100.58 Y137.527 E21.27465
G1 X99.701 Y137.318 E21.30533
G1 X98.844 Y137.031 E21.33602
G1 X98.015 Y136.67 E21.36671
G1 X97.221 Y136.237 E21.39742
G1 X96.469 Y135.735 E21.42812
G1 X95.764 Y135.169 E21.45881
G1 X95.112 Y134.543 E21.4895
G1 X94.518 Y133.862 E21.52018
G1 X93.986 Y133.131 E21.55088
G1 X93.521 Y132.356 E21.58156
G1 X93.126 Y131.543 E21.61225
G1 X92.805 Y130.698 E21.64294
G1 X92.56 Y129.828 E21.67363
G1 X92.392 Y128.939 E21.70435
G1 X92.293 Y127.767 E21.74428
G1 X92.284 Y127.434 E21.75559
G1 X92.28 Y127.158 E21.76496
G1 X92.28 Y103.174 E22.57927
G1 X92.281 Y103.036 E22.58395
G1 X92.29 Y102.371 E22.60653
G1 X92.342 Y101.468 E22.63724
G1 X92.474 Y100.574 E22.66792
G1 X92.684 Y99.695 E22.69861
G1 X92.971 Y98.837 E22.72932
G1 X93.333 Y98.009 E22.76001
G1 X93.767 Y97.216 E22.7907
G1 X94.268 Y96.464 E22.82138
G1 X94.835 Y95.759 E22.85209
G1 F2700 E17.85209
G0 F6000 X101.847 Y128.153
G0 X127.5 Y128.165
G0 X127.5 Y127.5
;TYPE:WALL-OUTER
G1 F2700 E22.85209
G1 F1200 X102.5 Y127.5 E23.70089
G1 X102.5 Y102.5 E24.54969
G1 X127.5 Y102.5 E25.39849
G1 X127.5 Y127.5 E26.24729
;TIME_ELAPSED:44.711659
G4 P1
;LAYER:1
M140 S60
M106 S85
G0 F7500 X127.5 Y127.5 Z0.4
;TYPE:WALL-OUTER
G1 F600 X102.5 Y127.5 E27.09609
G1 X102.5 Y102.5 E27.94489
G1 X127.5 Y102.5 E28.79368
G1 X127.5 Y127.5 E29.64248
;TIME_ELAPSED:54.819589
G4 P1
;LAYER:2
M106 S170
G0 F9000 X127.5 Y127.5 Z0.6
;TYPE:WALL-OUTER
G1 F600 X102.5 Y127.5 E30.49128
G1 X102.5 Y102.5 E31.34008
G1 X127.5 Y102.5 E32.18888
G1 X127.5 Y127.5 E33.03768
;TIME_ELAPSED:64.927518
G4 P1
;LAYER:3
M106 S255
G0 F9000 X127.5 Y127.5 Z0.8
;TYPE:WALL-OUTER
G1 F600 X102.5 Y127.5 E33.88648
G1 X102.5 Y102.5 E34.73527
G1 X127.5 Y102.5 E35.58407
G1 X127.5 Y127.5 E36.43287
;TIME_ELAPSED:75.035448
G4 P1
;LAYER:4
G0 F9000 X127.5 Y127.5 Z1
;TYPE:WALL-OUTER
G1 F600 X102.5 Y127.5 E37.28167
G1 X102.5 Y102.5 E38.13047
G1 X127.5 Y102.5 E38.97927
G1 X127.5 Y127.5 E39.82807
;TIME_ELAPSED:85.143377
G4 P1
;LAYER:5
G0 F9000 X127.5 Y127.5 Z1.2
;TYPE:WALL-OUTER
G1 F600 X102.5 Y127.5 E40.67687
G1 X102.5 Y102.5 E41.52566
G1 X127.5 Y102.5 E42.37446
G1 X127.5 Y127.5 E43.22326
;TIME_ELAPSED:95.251307
G4 P1
;LAYER:6
G0 F9000 X127.5 Y127.5 Z1.4
;TYPE:WALL-OUTER
G1 F600 X102.5 Y127.5 E44.07206
G1 X102.5 Y102.5 E44.92086
G1 X127.5 Y102.5 E45.76966
G1 X127.5 Y127.5 E46.61846
;TIME_ELAPSED:105.359236
G4 P1
;LAYER:7
G0 F9000 X127.5 Y127.5 Z1.6
;TYPE:WALL-OUTER
G1 F600 X102.5 Y127.5 E47.46725
G1 X102.5 Y102.5 E48.31605
G1 X127.5 Y102.5 E49.16485
G1 X127.5 Y127.5 E50.01365
;TIME_ELAPSED:115.467166
G4 P1
;LAYER:8
G0 F9000 X127.5 Y127.5 Z1.8
;TYPE:WALL-OUTER
G1 F600 X102.5 Y127.5 E50.86245
G1 X102.5 Y102.5 E51.71125
G1 X127.5 Y102.5 E52.56005
G1 X127.5 Y127.5 E53.40885
;TIME_ELAPSED:125.575095
G4 P1
;LAYER:9
G0 F9000 X127.5 Y127.5 Z2
;TYPE:WALL-OUTER
G1 F600 X102.5 Y127.5 E54.25764
G1 X102.5 Y102.5 E55.10644
G1 X127.5 Y102.5 E55.95524
G1 X127.5 Y127.5 E56.80404
;TIME_ELAPSED:135.683025
G4 P1
;LAYER:10
G0 F9000 X127.5 Y127.5 Z2.2
;TYPE:WALL-OUTER
G1 F600 X102.5 Y127.5 E57.65284
G1 X102.5 Y102.5 E58.50164
G1 X127.5 Y102.5 E59.35044
G1 X127.5 Y127.5 E60.19923
;TIME_ELAPSED:145.790954
G4 P1
;LAYER:11
G0 F9000 X127.5 Y127.5 Z2.4
;TYPE:WALL-OUTER
G1 F600 X102.5 Y127.5 E61.04803
G1 X102.5 Y102.5 E61.89683
G1 X127.5 Y102.5 E62.74563
G1 X127.5 Y127.5 E63.59443
;TIME_ELAPSED:155.898884
G4 P1
;LAYER:12
G0 F9000 X127.5 Y127.5 Z2.6
;TYPE:WALL-OUTER
G1 F600 X102.5 Y127.5 E64.44323
G1 X102.5 Y102.5 E65.29203
G1 X127.5 Y102.5 E66.14082
G1 X127.5 Y127.5 E66.98962
;TIME_ELAPSED:166.006813
G4 P1
;LAYER:13
G0 F9000 X127.5 Y127.5 Z2.8
;TYPE:WALL-OUTER
G1 F600 X102.5 Y127.5 E67.83842
G1 X102.5 Y102.5 E68.68722
G1 X127.5 Y102.5 E69.53602
G1 X127.5 Y127.5 E70.38482
;TIME_ELAPSED:176.114743
G4 P1
;LAYER:14
G0 F9000 X127.5 Y127.5 Z3
;TYPE:WALL-OUTER
G1 F600 X102.5 Y127.5 E71.23362
G1 X102.5 Y102.5 E72.08242
G1 X127.5 Y102.5 E72.93121
G1 X127.5 Y127.5 E73.78001
;TIME_ELAPSED:186.222672
G4 P1
;LAYER:15
G0 F9000 X127.5 Y127.5 Z3.2
;TYPE:WALL-OUTER
G1 F600 X102.5 Y127.5 E74.62881
G1 X102.5 Y102.5 E75.47761
G1 X127.5 Y102.5 E76.32641
G1 X127.5 Y127.5 E77.17521
;TIME_ELAPSED:196.330602
G4 P1
;LAYER:16
G0 F9000 X127.5 Y127.5 Z3.4
;TYPE:WALL-OUTER
G1 F600 X102.5 Y127.5 E78.02401
G1 X102.5 Y102.5 E78.8728
G1 X127.5 Y102.5 E79.7216
G1 X127.5 Y127.5 E80.5704
;TIME_ELAPSED:206.438531
G4 P1
;LAYER:17
G0 F9000 X127.5 Y127.5 Z3.6
;TYPE:WALL-OUTER
G1 F600 X102.5 Y127.5 E81.4192
G1 X102.5 Y102.5 E82.268
G1 X127.5 Y102.5 E83.1168
G1 X127.5 Y127.5 E83.9656
;TIME_ELAPSED:216.546461
G4 P1
;LAYER:18
G0 F9000 X127.5 Y127.5 Z3.8
;TYPE:WALL-OUTER
G1 F600 X102.5 Y127.5 E84.8144
G1 X102.5 Y102.5 E85.66319
G1 X127.5 Y102.5 E86.51199
G1 X127.5 Y127.5 E87.36079
;TIME_ELAPSED:226.654390
G4 P1
;LAYER:19
G0 F9000 X127.5 Y127.5 Z4
;TYPE:WALL-OUTER
G1 F600 X102.5 Y127.5 E88.20959
G1 X102.5 Y102.5 E89.05839
G1 X127.5 Y102.5 E89.90719
G1 X127.5 Y127.5 E90.75599
;TIME_ELAPSED:236.762320
G4 P1
;LAYER:20
G0 F9000 X127.5 Y127.5 Z4.2
;TYPE:WALL-OUTER
G1 F600 X102.5 Y127.5 E91.60478
G1 X102.5 Y102.5 E92.45358
G1 X127.5 Y102.5 E93.30238
G1 X127.5 Y127.5 E94.15118
;TIME_ELAPSED:246.870249
G4 P1
;LAYER:21
G0 F9000 X127.5 Y127.5 Z4.4
;TYPE:WALL-OUTER
G1 F600 X102.5 Y127.5 E94.99998
G1 X102.5 Y102.5 E95.84878
G1 X127.5 Y102.5 E96.69758
G1 X127.5 Y127.5 E97.54637
;TIME_ELAPSED:256.978179
G4 P1
;LAYER:22
G0 F9000 X127.5 Y127.5 Z4.6
;TYPE:WALL-OUTER
G1 F600 X102.5 Y127.5 E98.39517
