;FLAVOR:Marlin
;TIME:1947
;Filament used: 1.52865m
;Layer height: 0.2
;MINX:93.46
;MINY:93.46
;MINZ:0.2
;MAXX:136.539
;MAXY:136.54
;MAXZ:20
;POSTPROCESSED
;Generated with Cura_SteamEngine master
M140 S60
M105
M190 S60
M104 S200
M105
M109 S200
M82 ;absolute extrusion mode
M201 X500.00 Y500.00 Z100.00 E5000.00 ;Setup machine max acceleration
M203 X500.00 Y500.00 Z10.00 E50.00 ;Setup machine max feedrate
M204 P500.00 R1000.00 T500.00 ;Setup Print/Retract/Travel acceleration
M205 X8.00 Y8.00 Z0.40 E5.00 ;Setup Jerk
M220 S100 ;Reset Feedrate
M221 S100 ;Reset Flowrate
M141 S28
G92 E0
G92 E0
G1 F2700 E-2
;LAYER_COUNT:100
;LAYER:0
M107
G0 F6000 X96.681 Y97.022 Z0.2
;TYPE:SKIRT
G1 F2700 E0
G1 F1200 X97.374 Y96.357 E0.03261
G1 X98.12 Y95.752 E0.06522
G1 X98.914 Y95.211 E0.09784
G1 X99.75 Y94.738 E0.13045
G1 X100.622 Y94.336 E0.16305
G1 X101.525 Y94.008 E0.19567
G1 X102.452 Y93.756 E0.22829
G1 X103.397 Y93.582 E0.26091
G1 X104.686 Y93.474 E0.30483
G1 X105.006 Y93.465 E0.3157
G1 X105.33 Y93.46 E0.3267
G1 X124.256 Y93.46 E0.96927
G1 X124.424 Y93.461 E0.97498
G1 X125.11 Y93.471 E0.99827
G1 X126.069 Y93.525 E1.03088
G1 X127.021 Y93.659 E1.06352
G1 X127.957 Y93.871 E1.09611
G1 X128.873 Y94.16 E1.12872
G1 X129.762 Y94.525 E1.16135
G1 X130.618 Y94.962 E1.19398
G1 X131.434 Y95.469 E1.2266
G1 X132.205 Y96.042 E1.25921
G1 X132.925 Y96.677 E1.2918
G1 X133.591 Y97.37 E1.32444
G1 X134.196 Y98.116 E1.35705
G1 X134.738 Y98.909 E1.38966
G1 X135.211 Y99.745 E1.42227
G1 X135.613 Y100.617 E1.45487
G1 X135.942 Y101.52 E1.4875
G1 X136.194 Y102.447 E1.52012
G1 X136.368 Y103.392 E1.55274
G1 X136.479 Y104.742 E1.59873
G1 X136.502 Y105.733 E1.63239
G1 X136.505 Y105.98 E1.64077
G1 X136.539 Y124.253 E2.26118
G1 X136.538 Y124.407 E2.26641
G1 X136.53 Y125.103 E2.29004
G1 X136.479 Y126.062 E2.32265
G1 X136.349 Y127.014 E2.35527
G1 X136.139 Y127.951 E2.38787
G1 X135.853 Y128.868 E2.42048
G1 X135.491 Y129.758 E2.4531
G1 X135.056 Y130.615 E2.48573
G1 X134.552 Y131.432 E2.51833
G1 X133.981 Y132.205 E2.55096
G1 X133.348 Y132.928 E2.58358
G1 X132.658 Y133.595 E2.61616
G1 X131.914 Y134.203 E2.64879
G1 X131.122 Y134.747 E2.68141
G1 X130.287 Y135.223 E2.71404
G1 X129.416 Y135.628 E2.74665
G1 X128.515 Y135.959 E2.77924
G1 X127.588 Y136.214 E2.81189
G1 X126.334 Y136.432 E2.8551
G1 X126.095 Y136.46 E2.86327
G1 X124.861 Y136.537 E2.90525
G1 X124.649 Y136.539 E2.91245
G1 X124.54 Y136.54 E2.91615
G1 X105.707 Y136.54 E3.55556
G1 X105.558 Y136.539 E3.56062
G1 X104.86 Y136.53 E3.58432
G1 X103.901 Y136.478 E3.61693
G1 X102.949 Y136.346 E3.64956
G1 X102.012 Y136.135 E3.68217
G1 X101.096 Y135.847 E3.71477
G1 X100.206 Y135.484 E3.74741
G1 X99.35 Y135.048 E3.78002
G1 X98.533 Y134.543 E3.81263
G1 X97.761 Y133.971 E3.84526
G1 X97.04 Y133.337 E3.87785
G1 X96.373 Y132.646 E3.91046
G1 X95.766 Y131.901 E3.94309
G1 X95.224 Y131.108 E3.9757
G1 X94.749 Y130.273 E4.00831
G1 X94.345 Y129.401 E4.04094
G1 X94.015 Y128.499 E4.07355
G1 X93.761 Y127.573 E4.10615
G1 X93.586 Y126.628 E4.13878
G1 X93.473 Y125.303 E4.18393
G1 X93.464 Y124.97 E4.19524
G1 X93.46 Y124.658 E4.20584
G1 X93.46 Y105.674 E4.85038
G1 X93.461 Y105.5 E4.85629
G1 X93.471 Y104.835 E4.87887
G1 X93.526 Y103.876 E4.91148
G1 X93.66 Y102.925 E4.94409
G1 X93.872 Y101.988 E4.97671
G1 X94.162 Y101.073 E5.0093
G1 X94.527 Y100.184 E5.04193
G1 X94.965 Y99.329 E5.07454
G1 X95.472 Y98.513 E5.10716
G1 X96.045 Y97.742 E5.13977
G1 X96.681 Y97.022 E5.17239
G0 F6000 X97.112 Y97.209
G1 F1200 X97.802 Y96.568 E5.20437
G1 X98.544 Y95.987 E5.23636
G1 X99.332 Y95.471 E5.26834
G1 X100.162 Y95.024 E5.30035
G1 X101.026 Y94.649 E5.33233
G1 X101.919 Y94.348 E5.36432
G1 X102.834 Y94.124 E5.39631
G1 X103.765 Y93.979 E5.4283
G1 X104.698 Y93.913 E5.46005
G1 X105.018 Y93.904 E5.47092
G1 X105.33 Y93.9 E5.48152
G1 X124.256 Y93.9 E6.12409
G1 X124.418 Y93.901 E6.12959
G1 X125.104 Y93.911 E6.15288
G1 X126.044 Y93.965 E6.18485
G1 X126.977 Y94.098 E6.21685
G1 X127.895 Y94.31 E6.24884
G1 X128.792 Y94.599 E6.28083
G1 X129.661 Y94.963 E6.31282
G1 X130.496 Y95.399 E6.3448
G1 X131.291 Y95.905 E6.3768
G1 X132.04 Y96.476 E6.40878
G1 X132.738 Y97.109 E6.44077
G1 X133.38 Y97.798 E6.47274
G1 X133.961 Y98.54 E6.50474
G1 X134.477 Y99.328 E6.53672
G1 X134.925 Y100.157 E6.56871
G1 X135.3 Y101.021 E6.60069
G1 X135.601 Y101.914 E6.63268
G1 X135.826 Y102.829 E6.66468
G1 X135.971 Y103.76 E6.69667
G1 X136.039 Y104.752 E6.73043
G1 X136.062 Y105.743 E6.76408
G1 X136.065 Y105.98 E6.77213
G1 X136.099 Y124.253 E7.39253
G1 X136.098 Y124.402 E7.39759
G1 X136.09 Y125.098 E7.42122
G1 X136.039 Y126.038 E7.45319
G1 X135.909 Y126.971 E7.48517
G1 X135.7 Y127.89 E7.51717
G1 X135.414 Y128.788 E7.54917
G1 X135.053 Y129.658 E7.58115
G1 X134.619 Y130.494 E7.61313
G1 X134.116 Y131.291 E7.64512
G1 X133.547 Y132.042 E7.67711
G1 X132.916 Y132.742 E7.70911
G1 X132.229 Y133.386 E7.74108
G1 X131.489 Y133.969 E7.77307
G1 X130.703 Y134.488 E7.80505
G1 X129.875 Y134.938 E7.83704
G1 X129.012 Y135.316 E7.86903
G1 X128.12 Y135.62 E7.90103
G1 X127.206 Y135.847 E7.933
G1 X126.283 Y135.995 E7.96474
G1 X126.044 Y136.023 E7.97291
G1 X124.857 Y136.098 E8.01329
G1 X124.645 Y136.1 E8.02049
G1 X105.707 Y136.1 E8.66347
G1 X105.564 Y136.099 E8.66833
G1 X104.866 Y136.09 E8.69203
G1 X103.925 Y136.038 E8.72402
G1 X102.992 Y135.906 E8.75602
G1 X102.074 Y135.696 E8.78799
G1 X101.177 Y135.408 E8.81998
G1 X100.307 Y135.046 E8.85197
G1 X99.471 Y134.611 E8.88396
G1 X98.676 Y134.107 E8.91592
G1 X97.925 Y133.537 E8.94793
G1 X97.226 Y132.905 E8.97993
G1 X96.583 Y132.217 E9.0119
G1 X96.001 Y131.476 E9.04389
G1 X95.483 Y130.689 E9.07588
G1 X95.034 Y129.861 E9.10786
G1 X94.657 Y128.997 E9.13987
G1 X94.355 Y128.105 E9.17184
G1 X94.129 Y127.191 E9.20381
G1 X93.982 Y126.26 E9.23581
G1 X93.913 Y125.291 E9.26879
G1 X93.904 Y124.958 E9.2801
G1 X93.9 Y124.658 E9.29029
G1 X93.9 Y105.674 E9.93483
G1 X93.901 Y105.507 E9.9405
G1 X93.911 Y104.842 E9.96308
G1 X93.965 Y103.902 E9.99505
G1 X94.099 Y102.969 E10.02705
G1 X94.311 Y102.051 E10.05904
G1 X94.601 Y101.154 E10.09105
G1 X94.965 Y100.286 E10.123
G1 X95.402 Y99.451 E10.155
G1 X95.908 Y98.656 E10.187
G1 X96.479 Y97.907 E10.21897
G1 X97.112 Y97.209 E10.25096
G0 F6000 X97.543 Y97.401
G1 F1200 X98.229 Y96.783 E10.28231
G1 X98.967 Y96.228 E10.31366
G1 X99.749 Y95.738 E10.345
G1 X100.571 Y95.317 E10.37635
G1 X101.426 Y94.969 E10.40769
G1 X102.309 Y94.697 E10.43906
G1 X103.211 Y94.502 E10.4704
G1 X104.127 Y94.386 E10.50174
G1 X104.71 Y94.353 E10.52157
G1 X105.03 Y94.344 E10.53244
G1 X105.33 Y94.34 E10.54262
G1 X124.256 Y94.34 E11.1852
G1 X124.411 Y94.341 E11.19046
G1 X125.097 Y94.351 E11.21376
G1 X126.019 Y94.405 E11.24511
G1 X126.933 Y94.538 E11.27647
G1 X127.831 Y94.749 E11.30779
G1 X128.708 Y95.038 E11.33914
G1 X129.557 Y95.401 E11.37049
G1 X130.371 Y95.836 E11.40183
G1 X131.145 Y96.34 E11.43319
G1 X131.872 Y96.91 E11.46455
G1 X132.547 Y97.54 E11.4959
G1 X133.164 Y98.226 E11.52723
G1 X133.721 Y98.963 E11.55859
G1 X134.211 Y99.745 E11.58992
G1 X134.632 Y100.567 E11.62128
G1 X134.98 Y101.422 E11.65262
G1 X135.253 Y102.304 E11.68397
G1 X135.448 Y103.206 E11.7153
G1 X135.565 Y104.122 E11.74665
G1 X135.599 Y104.763 E11.76845
G1 X135.622 Y105.754 E11.8021
G1 X135.625 Y105.981 E11.80981
G1 X135.659 Y124.254 E12.43021
G1 X135.658 Y124.397 E12.43507
G1 X135.65 Y125.093 E12.4587
G1 X135.6 Y126.014 E12.49002
G1 X135.47 Y126.928 E12.52136
G1 X135.261 Y127.828 E12.55273
G1 X134.975 Y128.706 E12.58408
G1 X134.614 Y129.556 E12.61544
G1 X134.181 Y130.371 E12.64677
G1 X133.68 Y131.146 E12.6781
G1 X133.113 Y131.875 E12.70946
G1 X132.485 Y132.552 E12.74081
G1 X131.801 Y133.172 E12.77215
G1 X131.065 Y133.73 E12.80351
G1 X130.285 Y134.223 E12.83484
G1 X129.464 Y134.646 E12.8662
G1 X128.61 Y134.997 E12.89755
G1 X127.729 Y135.272 E12.92888
G1 X126.827 Y135.471 E12.96024
G1 X126.231 Y135.558 E12.98069
G1 X125.992 Y135.586 E12.98886
G1 X124.853 Y135.658 E13.02761
G1 X124.641 Y135.66 E13.03481
G1 X105.707 Y135.66 E13.67766
G1 X105.57 Y135.659 E13.68231
G1 X104.872 Y135.65 E13.70601
G1 X103.95 Y135.598 E13.73736
G1 X103.036 Y135.467 E13.76871
G1 X102.137 Y135.257 E13.80005
G1 X101.259 Y134.97 E13.83142
G1 X100.41 Y134.608 E13.86275
G1 X99.595 Y134.174 E13.8941
G1 X98.821 Y133.671 E13.92544
G1 X98.093 Y133.103 E13.95679
G1 X97.417 Y132.474 E13.98814
G1 X96.798 Y131.789 E14.01949
G1 X96.241 Y131.053 E14.05083
G1 X95.749 Y130.272 E14.08217
G1 X95.327 Y129.451 E14.11351
G1 X94.977 Y128.596 E14.14487
G1 X94.703 Y127.715 E14.1762
G1 X94.506 Y126.813 E14.20755
G1 X94.388 Y125.897 E14.2389
G1 X94.353 Y125.279 E14.25992
G1 X94.344 Y124.946 E14.27123
G1 X94.34 Y124.658 E14.28101
G1 X94.34 Y105.674 E14.92555
G1 X94.341 Y105.514 E14.93098
G1 X94.351 Y104.849 E14.95357
G1 X94.405 Y103.927 E14.98492
G1 X94.538 Y103.013 E15.01628
G1 X94.75 Y102.115 E15.04761
G1 X95.039 Y101.238 E15.07896
G1 X95.403 Y100.389 E15.11032
G1 X95.839 Y99.575 E15.14167
G1 X96.343 Y98.802 E15.173
G1 X96.913 Y98.076 E15.20434
G1 X97.543 Y97.401 E15.23569
G0 F6000 X97.346 Y98.248
G1 F1200 X97.974 Y97.597 E15.2664
G1 X98.656 Y97.004 E15.29709
G1 X99.388 Y96.474 E15.32777
G1 X100.164 Y96.011 E15.35845
G1 X100.978 Y95.618 E15.38914
G1 X101.824 Y95.298 E15.41985
G1 X102.695 Y95.055 E15.45055
G1 X103.583 Y94.889 E15.48122
G1 X104.723 Y94.793 E15.52006
G1 X105.043 Y94.784 E15.53093
G1 X105.33 Y94.78 E15.54068
G1 X124.256 Y94.78 E16.18325
G1 X124.405 Y94.781 E16.18831
G1 X125.091 Y94.791 E16.2116
G1 X125.993 Y94.844 E16.24228
G1 X126.888 Y94.977 E16.273
G1 X127.767 Y95.188 E16.30369
G1 X128.623 Y95.476 E16.33436
G1 X129.452 Y95.839 E16.36508
G1 X130.244 Y96.273 E16.39575
G1 X130.996 Y96.776 E16.42646
G1 X131.7 Y97.343 E16.45715
G1 X132.351 Y97.97 E16.48784
G1 X132.944 Y98.652 E16.51853
G1 X133.474 Y99.384 E16.54921
G1 X133.938 Y100.16 E16.57991
G1 X134.331 Y100.974 E16.6106
G1 X134.651 Y101.82 E16.64131
G1 X134.895 Y102.69 E16.67198
G1 X135.061 Y103.579 E16.70269
G1 X135.159 Y104.773 E16.74336
G1 X135.182 Y105.764 E16.77702
G1 X135.185 Y105.982 E16.78442
G1 X135.219 Y124.255 E17.40483
G1 X135.218 Y124.391 E17.40944
G1 X135.21 Y125.087 E17.43308
G1 X135.16 Y125.99 E17.46378
G1 X135.03 Y126.885 E17.49449
G1 X134.822 Y127.764 E17.52515
G1 X134.536 Y128.622 E17.55586
G1 X134.176 Y129.451 E17.58655
G1 X133.744 Y130.245 E17.61724
G1 X133.244 Y130.998 E17.64793
G1 X132.679 Y131.704 E17.67863
G1 X132.054 Y132.357 E17.70932
G1 X131.373 Y132.952 E17.74002
G1 X130.643 Y133.485 E17.77071
G1 X129.868 Y133.951 E17.80141
G1 X129.056 Y134.347 E17.83208
G1 X128.211 Y134.669 E17.86278
G1 X127.342 Y134.916 E17.89346
G1 X126.18 Y135.121 E17.93352
G1 X125.941 Y135.149 E17.94169
G1 X124.848 Y135.218 E17.97887
G1 X124.636 Y135.22 E17.98607
G1 X105.707 Y135.22 E18.62875
G1 X105.575 Y135.219 E18.63323
G1 X104.877 Y135.21 E18.65693
G1 X103.975 Y135.159 E18.6876
G1 X103.08 Y135.027 E18.71832
G1 X102.201 Y134.818 E18.74899
G1 X101.344 Y134.531 E18.77968
G1 X100.515 Y134.17 E18.81038
G1 X99.721 Y133.737 E18.84108
G1 X98.969 Y133.235 E18.87178
G1 X98.264 Y132.669 E18.90248
G1 X97.612 Y132.043 E18.93317
G1 X97.018 Y131.362 E18.96385
G1 X96.486 Y130.631 E18.99454
G1 X96.021 Y129.856 E19.02523
G1 X95.626 Y129.043 E19.05592
G1 X95.305 Y128.198 E19.08661
G1 X95.06 Y127.328 E19.11729
G1 X94.892 Y126.439 E19.14801
G1 X94.793 Y125.267 E19.18794
G1 X94.784 Y124.934 E19.19925
G1 X94.78 Y124.658 E19.20863
G1 X94.78 Y105.674 E19.85317
G1 X94.781 Y105.52 E19.8584
G1 X94.791 Y104.855 E19.88098
G1 X94.845 Y103.953 E19.91166
G1 X94.978 Y103.059 E19.94235
G1 X95.189 Y102.18 E19.97304
G1 X95.478 Y101.323 E20.00374
G1 X95.841 Y100.495 E20.03444
G1 X96.276 Y99.703 E20.06512
G1 X96.779 Y98.952 E20.09581
G1 X97.346 Y98.248 E20.1265
G1 F2700 E18.1265
;MESH:xyzCalibration_cube.stl
G0 F6000 X104.335 Y123.9
G0 X106.1 Y123.9
;TYPE:WALL-INNER
G1 F2700 E20.1265
G1 F1200 X106.1 Y106.1 E20.73084
G1 X123.9 Y106.1 E21.33519
G1 X123.9 Y123.9 E21.93953
G1 X106.1 Y123.9 E22.54388
G0 F6000 X105.66 Y124.34
G1 F1200 X105.66 Y105.66 E23.1781
G1 X124.34 Y105.66 E23.81232
G1 X124.34 Y124.34 E24.44654
G1 X105.66 Y124.34 E25.08077
G0 F6000 X105.22 Y124.78
;TYPE:WALL-OUTER
G1 F1200 X105.22 Y105.22 E25.74487
G1 X124.78 Y105.22 E26.40897
G1 X124.78 Y124.78 E27.07307
G1 X105.22 Y124.78 E27.73717
G0 F6000 X106.53 Y123.47
;TYPE:SKIN
G1 F1200 X106.53 Y106.53 E28.31231
G1 X123.47 Y106.53 E28.88746
G1 X123.47 Y123.47 E29.4626
G1 X106.53 Y123.47 E30.03775
G0 F6000 X107.114 Y123.293
G1 F1200 X106.705 Y122.884 E30.05739
G0 F6000 X106.705 Y122.262
G1 F1200 X107.736 Y123.293 E30.10689
G0 F6000 X108.359 Y123.293
G1 F1200 X106.705 Y121.64 E30.18628
G0 F6000 X106.705 Y121.017
G1 F1200 X108.981 Y123.293 E30.29557
G0 F6000 X109.603 Y123.293
G1 F1200 X106.705 Y120.395 E30.43472
G0 F6000 X106.705 Y119.773
G1 F1200 X110.225 Y123.293 E30.60373
G0 F6000 X110.848 Y123.293
G1 F1200 X106.705 Y119.151 E30.80263
G0 F6000 X106.705 Y118.528
G1 F1200 X111.47 Y123.293 E31.03143
G0 F6000 X112.092 Y123.293
G1 F1200 X106.705 Y117.906 E31.29008
G0 F6000 X106.705 Y117.284
G1 F1200 X112.714 Y123.293 E31.57861
G0 F6000 X113.337 Y123.293
G1 F1200 X106.705 Y116.662 E31.89702
G0 F6000 X106.705 Y116.039
G1 F1200 X113.959 Y123.293 E32.24532
G0 F6000 X114.581 Y123.293
G1 F1200 X106.705 Y115.417 E32.62349
G0 F6000 X106.705 Y114.795
G1 F1200 X115.203 Y123.293 E33.03153
G0 F6000 X115.826 Y123.293
G1 F1200 X106.705 Y114.172 E33.46947
G0 F6000 X106.705 Y113.55
G1 F1200 X116.448 Y123.293 E33.93729
G0 F6000 X117.07 Y123.293
G1 F1200 X106.705 Y112.928 E34.43497
G0 F6000 X106.705 Y112.306
G1 F1200 X117.692 Y123.293 E34.96251
G0 F6000 X118.315 Y123.293
G1 F1200 X106.705 Y111.683 E35.51997
G0 F6000 X106.705 Y111.061
G1 F1200 X118.937 Y123.293 E36.10729
G0 F6000 X119.559 Y123.293
G1 F1200 X106.705 Y110.439 E36.72448
G0 F6000 X106.705 Y109.817
G1 F1200 X120.181 Y123.293 E37.37153
G0 F6000 X120.804 Y123.293
G1 F1200 X106.705 Y109.194 E38.0485
G0 F6000 X106.705 Y108.572
G1 F1200 X121.426 Y123.293 E38.75534
G0 F6000 X122.048 Y123.293
G1 F1200 X106.705 Y107.95 E39.49203
G0 F6000 X106.705 Y107.328
G1 F1200 X122.671 Y123.293 E40.25862
G0 F6000 X123.293 Y123.293
G1 F1200 X106.705 Y106.705 E41.0551
G0 F6000 X107.328 Y106.705
G1 F1200 X123.293 Y122.671 E41.82169
G0 F6000 X123.293 Y122.049
G1 F1200 X107.95 Y106.705 E42.55841
G0 F6000 X108.572 Y106.705
G1 F1200 X123.293 Y121.427 E43.26527
G0 F6000 X123.293 Y120.804
G1 F1200 X109.194 Y106.705 E43.94224
G0 F6000 X109.817 Y106.705
G1 F1200 X123.293 Y120.182 E44.58931
G0 F6000 X123.293 Y119.56
G1 F1200 X110.439 Y106.705 E45.20653
G0 F6000 X111.061 Y106.705
G1 F1200 X123.293 Y118.938 E45.79387
G0 F6000 X123.293 Y118.315
G1 F1200 X111.683 Y106.705 E46.35133
G0 F6000 X112.306 Y106.705
G1 F1200 X123.293 Y117.693 E46.8789
G0 F6000 X123.293 Y117.071
G1 F1200 X112.928 Y106.705 E47.3766
G0 F6000 X113.55 Y106.705
G1 F1200 X123.293 Y116.449 E47.84444
G0 F6000 X123.293 Y115.826
G1 F1200 X114.172 Y106.705 E48.28239
G0 F6000 X114.795 Y106.705
G1 F1200 X123.293 Y115.204 E48.69045
G0 F6000 X123.293 Y114.582
G1 F1200 X115.417 Y106.705 E49.06864
G0 F6000 X116.039 Y106.705
G1 F1200 X123.293 Y113.96 E49.41697
G0 F6000 X123.293 Y113.337
G1 F1200 X116.662 Y106.705 E49.73538
G0 F6000 X117.284 Y106.705
G1 F1200 X123.293 Y112.715 E50.02393
G0 F6000 X123.293 Y112.093
G1 F1200 X117.906 Y106.705 E50.28261
G0 F6000 X118.528 Y106.705
G1 F1200 X123.293 Y111.471 E50.51143
G0 F6000 X123.293 Y110.848
G1 F1200 X119.151 Y106.705 E50.71033
G0 F6000 X119.773 Y106.705
G1 F1200 X123.293 Y110.226 E50.87937
G0 F6000 X123.293 Y109.604
G1 F1200 X120.395 Y106.705 E51.01854
G0 F6000 X121.017 Y106.705
G1 F1200 X123.293 Y108.982 E51.12785
G0 F6000 X123.293 Y108.359
G1 F1200 X121.64 Y106.705 E51.20724
G0 F6000 X122.262 Y106.705
G1 F1200 X123.293 Y107.737 E51.25677
G0 F6000 X123.293 Y107.115
G1 F1200 X122.884 Y106.705 E51.27643
G1 F2700 E49.27643
;MESH:NONMESH
G0 F600 X122.884 Y106.705 Z0.4
G0 F6000 X122.884 Y104.335
G0 X104.347 Y104.347
G0 X104.335 Y123.9
G0 X106.1 Y123.9
;TIME_ELAPSED:86.332183
G4 P1
;LAYER:1
M140 S60
M106 S85
;TYPE:WALL-INNER
;MESH:xyzCalibration_cube.stl
G1 F2700 E51.27643
G1 F1950 X106.1 Y106.1 E51.88077
G1 X123.9 Y106.1 E52.48512
G1 X123.9 Y123.9 E53.08946
