;FLAVOR:Marlin
;TIME:10641
;Filament used: 1.81427m
;Layer height: 0.15
;MINX:83.95
;MINY:94
;MINZ:0.2
;MAXX:146.051
;MAXY:135
;MAXZ:20
;POSTPROCESSED
;Generated with Cura_SteamEngine master
M140 S60
M105
M190 S60
M104 S200
M105
M109 S200
M82 ;absolute extrusion mode
M201 X500.00 Y500.00 Z100.00 E5000.00 ;Setup machine max acceleration
M203 X500.00 Y500.00 Z10.00 E50.00 ;Setup machine max feedrate
M204 P500.00 R1000.00 T500.00 ;Setup Print/Retract/Travel acceleration
M205 X8.00 Y8.00 Z0.40 E5.00 ;Setup Jerk
M220 S100 ;Reset Feedrate
M221 S100 ;Reset Flowrate
; Home all axes
G28 X0 Y0
G28 Z0
; Set K-Factor
M900 K0.1
M141 S28
G92 E0
G92 E0
G1 F2700 E-2
;LAYER_COUNT:133
;LAYER:0
M107
G0 F6000 X88.051 Y96.741 Z0.2
;TYPE:SKIRT
G1 F2700 E0
G1 F1200 X88.803 Y96.152 E0.02859
G1 X89.601 Y95.628 E0.05717
G1 X90.44 Y95.172 E0.08575
G1 X91.314 Y94.789 E0.11432
G1 X92.217 Y94.479 E0.1429
G1 X93.143 Y94.247 E0.17147
G1 X94.086 Y94.093 E0.20008
G1 X95.25 Y94.012 E0.235
G1 X95.807 Y94.002 E0.25168
G1 X96.013 Y94 E0.25785
G1 X116.067 Y94.001 E0.85814
G1 X133.842 Y94 E1.39022
G1 X134.006 Y94.001 E1.39513
G1 X134.704 Y94.011 E1.41603
G1 X135.658 Y94.065 E1.44463
G1 X136.603 Y94.198 E1.4732
G1 X137.534 Y94.41 E1.50178
G1 X138.444 Y94.699 E1.53036
G1 X139.327 Y95.063 E1.55895
G1 X140.176 Y95.5 E1.58753
G1 X140.985 Y96.006 E1.6161
G1 X141.749 Y96.578 E1.64467
G1 X142.434 Y97.185 E1.67206
G1 X142.533 Y97.28 E1.67617
G1 X143.194 Y97.969 E1.70475
G1 X143.794 Y98.711 E1.73332
G1 X144.331 Y99.501 E1.76191
G1 X144.799 Y100.333 E1.79049
G1 X145.196 Y101.201 E1.81906
G1 X145.519 Y102.1 E1.84765
G1 X145.766 Y103.022 E1.87622
G1 X145.935 Y103.962 E1.90481
G1 X146.038 Y105.29 E1.94469
G1 X146.048 Y105.82 E1.96055
G1 X146.05 Y106.034 E1.96696
G1 X146.051 Y122.712 E2.4662
G1 X146.05 Y122.868 E2.47087
G1 X146.04 Y123.603 E2.49287
G1 X145.987 Y124.556 E2.52145
G1 X145.854 Y125.502 E2.55004
G1 X145.643 Y126.433 E2.57862
G1 X145.355 Y127.343 E2.60719
G1 X144.991 Y128.226 E2.63578
G1 X144.555 Y129.075 E2.66435
G1 X143.838 Y130.184 E2.70388
G1 X143.734 Y130.326 E2.70915
G1 X143.138 Y131.072 E2.73773
G1 X142.482 Y131.765 E2.76629
G1 X141.77 Y132.402 E2.79489
G1 X141.007 Y132.976 E2.82347
G1 X140.199 Y133.484 E2.85204
G1 X139.351 Y133.924 E2.88064
G1 X138.47 Y134.29 E2.9092
G1 X137.561 Y134.582 E2.93778
G1 X136.63 Y134.796 E2.96637
G1 X135.685 Y134.932 E2.99495
G1 X134.898 Y134.984 E3.01856
G1 X134.677 Y134.991 E3.02518
G1 X134.439 Y134.996 E3.03231
G1 X134.16 Y134.999 E3.04066
G1 X134.037 Y135 E3.04434
G1 X96.157 Y135 E4.17824
G1 X95.994 Y134.999 E4.18312
G1 X95.296 Y134.989 E4.20402
G1 X94.342 Y134.935 E4.23262
G1 X93.397 Y134.802 E4.26119
G1 X92.466 Y134.59 E4.28977
G1 X91.556 Y134.301 E4.31835
G1 X90.673 Y133.937 E4.34694
G1 X89.824 Y133.5 E4.37553
G1 X89.015 Y132.994 E4.40409
G1 X88.251 Y132.422 E4.43266
G1 X87.537 Y131.788 E4.46124
G1 X86.879 Y131.096 E4.48982
G1 X86.095 Y130.093 E4.52793
G1 X85.995 Y129.949 E4.53318
G1 X85.484 Y129.142 E4.56177
G1 X85.042 Y128.296 E4.59035
G1 X84.672 Y127.416 E4.61892
G1 X84.378 Y126.507 E4.64752
G1 X84.16 Y125.578 E4.67608
G1 X84.021 Y124.633 E4.70468
G1 X83.96 Y123.608 E4.73541
G1 X83.951 Y122.976 E4.75433
G1 X83.95 Y122.814 E4.75918
G1 X83.95 Y106.174 E5.25729
G1 X83.951 Y106.003 E5.2624
G1 X83.961 Y105.335 E5.2824
G1 X84.016 Y104.382 E5.31098
G1 X84.149 Y103.437 E5.33954
G1 X84.362 Y102.506 E5.36813
G1 X84.651 Y101.596 E5.39671
G1 X85.016 Y100.714 E5.42529
G1 X85.453 Y99.865 E5.45387
G1 X85.96 Y99.056 E5.48245
G1 X86.533 Y98.292 E5.51104
G1 X87.257 Y97.487 E5.54345
G1 X87.352 Y97.391 E5.54749
G1 X88.051 Y96.741 E5.57606
G0 F6000 X88.324 Y97.035
G1 F1200 X89.063 Y96.458 E5.60413
G1 X89.849 Y95.946 E5.63221
G1 X90.675 Y95.503 E5.66026
G1 X91.537 Y95.132 E5.68835
G1 X92.427 Y94.835 E5.71644
G1 X93.338 Y94.616 E5.74449
G1 X94.266 Y94.474 E5.77259
G1 X95.258 Y94.412 E5.80234
G1 X95.815 Y94.402 E5.81902
G1 X96.013 Y94.4 E5.82495
G1 X116.067 Y94.401 E6.42524
G1 X133.842 Y94.4 E6.95732
G1 X134.001 Y94.401 E6.96208
G1 X134.699 Y94.411 E6.98298
G1 X135.635 Y94.465 E7.01104
G1 X136.563 Y94.597 E7.0391
G1 X137.477 Y94.809 E7.06719
G1 X138.369 Y95.098 E7.09526
G1 X139.234 Y95.461 E7.12334
G1 X140.064 Y95.897 E7.1514
G1 X140.855 Y96.402 E7.17949
G1 X141.599 Y96.973 E7.20757
G1 X142.157 Y97.473 E7.23
G1 X142.256 Y97.568 E7.2341
G1 X142.905 Y98.246 E7.2622
G1 X143.493 Y98.976 E7.29026
G1 X144.017 Y99.754 E7.31833
G1 X144.473 Y100.574 E7.34642
G1 X144.857 Y101.429 E7.37448
G1 X145.167 Y102.314 E7.40255
G1 X145.401 Y103.223 E7.43064
G1 X145.556 Y104.148 E7.45872
G1 X145.638 Y105.297 E7.4932
G1 X145.648 Y105.827 E7.50907
G1 X145.65 Y106.034 E7.51527
G1 X145.651 Y122.712 E8.01451
G1 X145.65 Y122.863 E8.01903
G1 X145.64 Y123.598 E8.04103
G1 X145.587 Y124.534 E8.06909
G1 X145.455 Y125.463 E8.09718
G1 X145.244 Y126.376 E8.12523
G1 X144.956 Y127.269 E8.15332
G1 X144.593 Y128.134 E8.1814
G1 X144.158 Y128.964 E8.20945
G1 X143.515 Y129.948 E8.24464
G1 X143.411 Y130.09 E8.24991
G1 X142.826 Y130.822 E8.27796
G1 X142.179 Y131.502 E8.30605
G1 X141.478 Y132.124 E8.33411
G1 X140.725 Y132.684 E8.3622
G1 X139.928 Y133.178 E8.39026
G1 X139.092 Y133.603 E8.41834
G1 X138.222 Y133.954 E8.44642
G1 X137.326 Y134.231 E8.47449
G1 X136.41 Y134.429 E8.50255
G1 X135.48 Y134.55 E8.53062
G1 X134.885 Y134.584 E8.54846
G1 X134.664 Y134.591 E8.55508
G1 X134.434 Y134.596 E8.56196
G1 X134.155 Y134.599 E8.57032
G1 X134.037 Y134.6 E8.57385
G1 X96.157 Y134.6 E9.70775
G1 X95.999 Y134.599 E9.71248
G1 X95.301 Y134.589 E9.73338
G1 X94.365 Y134.535 E9.76144
G1 X93.437 Y134.403 E9.7895
G1 X92.523 Y134.191 E9.81759
G1 X91.631 Y133.902 E9.84566
G1 X90.766 Y133.539 E9.87374
G1 X89.936 Y133.103 E9.9018
G1 X89.145 Y132.598 E9.92989
G1 X88.401 Y132.027 E9.95797
G1 X87.708 Y131.395 E9.98604
G1 X87.071 Y130.707 E10.01411
G1 X86.424 Y129.864 E10.04592
G1 X86.324 Y129.72 E10.05117
G1 X85.822 Y128.928 E10.07924
G1 X85.39 Y128.096 E10.1073
G1 X85.03 Y127.23 E10.13537
G1 X84.745 Y126.336 E10.16346
G1 X84.538 Y125.421 E10.19154
G1 X84.409 Y124.492 E10.21962
G1 X84.36 Y123.603 E10.24627
G1 X84.351 Y122.971 E10.26519
G1 X84.35 Y122.814 E10.26989
G1 X84.35 Y106.174 E10.76799
G1 X84.351 Y106.009 E10.77293
G1 X84.361 Y105.341 E10.79293
G1 X84.415 Y104.405 E10.821
G1 X84.549 Y103.477 E10.84906
G1 X84.761 Y102.563 E10.87715
G1 X85.05 Y101.671 E10.90522
G1 X85.414 Y100.807 E10.93328
G1 X85.851 Y99.977 E10.96136
G1 X86.356 Y99.187 E10.98943
G1 X86.927 Y98.443 E11.0175
G1 X87.541 Y97.769 E11.04479
G1 X87.636 Y97.673 E11.04884
G1 X88.324 Y97.035 E11.07692
G0 F6000 X88.596 Y97.328
G1 F1200 X89.323 Y96.764 E11.10447
G1 X90.096 Y96.264 E11.13202
G1 X90.91 Y95.834 E11.15958
G1 X91.758 Y95.475 E11.18715
G1 X92.634 Y95.192 E11.2147
G1 X93.532 Y94.986 E11.24228
G1 X94.443 Y94.858 E11.26982
G1 X95.265 Y94.812 E11.29446
G1 X95.822 Y94.802 E11.31114
G1 X96.013 Y94.8 E11.31686
G1 X116.067 Y94.801 E11.91716
G1 X133.842 Y94.8 E12.44924
G1 X133.995 Y94.801 E12.45382
G1 X134.693 Y94.811 E12.47471
G1 X135.612 Y94.864 E12.50227
G1 X136.523 Y94.997 E12.52983
G1 X137.419 Y95.208 E12.55738
G1 X138.293 Y95.496 E12.58493
G1 X139.14 Y95.859 E12.61251
G1 X139.951 Y96.294 E12.64006
G1 X140.721 Y96.798 E12.66761
G1 X141.445 Y97.367 E12.69517
G1 X141.88 Y97.762 E12.71276
G1 X141.979 Y97.857 E12.71687
G1 X142.615 Y98.522 E12.74441
G1 X143.191 Y99.241 E12.77199
G1 X143.702 Y100.006 E12.79953
G1 X144.145 Y100.814 E12.82711
G1 X144.516 Y101.656 E12.85465
G1 X144.813 Y102.528 E12.88223
G1 X145.033 Y103.421 E12.90976
G1 X145.175 Y104.331 E12.93733
G1 X145.238 Y105.305 E12.96655
G1 X145.248 Y105.835 E12.98241
G1 X145.25 Y106.034 E12.98837
G1 X145.251 Y122.712 E13.48761
G1 X145.25 Y122.857 E13.49195
G1 X145.24 Y123.592 E13.51396
G1 X145.188 Y124.511 E13.54151
G1 X145.055 Y125.422 E13.56907
G1 X144.845 Y126.319 E13.59665
G1 X144.557 Y127.193 E13.62419
G1 X144.195 Y128.04 E13.65177
G1 X143.76 Y128.851 E13.67931
G1 X143.193 Y129.711 E13.71015
G1 X143.089 Y129.853 E13.71542
G1 X142.513 Y130.572 E13.74299
G1 X141.877 Y131.237 E13.77054
G1 X141.186 Y131.845 E13.79809
G1 X140.444 Y132.391 E13.82567
G1 X139.658 Y132.871 E13.85324
G1 X138.834 Y133.28 E13.88077
G1 X137.977 Y133.616 E13.90833
G1 X137.094 Y133.877 E13.93589
G1 X136.192 Y134.06 E13.96344
G1 X134.873 Y134.185 E14.0031
G1 X134.652 Y134.192 E14.00972
G1 X134.43 Y134.196 E14.01637
G1 X134.151 Y134.199 E14.02472
G1 X134.037 Y134.2 E14.02813
G1 X96.157 Y134.2 E15.16204
G1 X96.005 Y134.199 E15.16659
G1 X95.307 Y134.189 E15.18748
G1 X94.388 Y134.136 E15.21504
G1 X93.477 Y134.003 E15.2426
G1 X92.581 Y133.792 E15.27015
G1 X91.707 Y133.504 E15.2977
G1 X90.86 Y133.141 E15.32528
G1 X90.049 Y132.706 E15.35283
G1 X89.279 Y132.202 E15.38038
G1 X88.555 Y131.633 E15.40794
G1 X87.883 Y131.003 E15.43551
G1 X87.268 Y130.318 E15.46307
G1 X86.752 Y129.636 E15.48867
G1 X86.652 Y129.492 E15.49392
G1 X86.161 Y128.714 E15.52146
G1 X85.738 Y127.896 E15.54902
G1 X85.388 Y127.044 E15.5766
G1 X85.114 Y126.166 E15.60413
G1 X84.916 Y125.266 E15.63171
G1 X84.798 Y124.353 E15.65927
G1 X84.76 Y123.597 E15.68193
G1 X84.751 Y122.965 E15.70085
G1 X84.75 Y122.814 E15.70537
G1 X84.75 Y106.174 E16.20347
G1 X84.751 Y106.015 E16.20823
G1 X84.761 Y105.347 E16.22823
G1 X84.815 Y104.428 E16.25579
G1 X84.948 Y103.517 E16.28335
G1 X85.16 Y102.621 E16.31091
G1 X85.449 Y101.747 E16.33846
G1 X85.812 Y100.901 E16.36602
G1 X86.248 Y100.09 E16.39358
G1 X86.752 Y99.32 E16.42113
G1 X87.321 Y98.596 E16.4487
G1 X87.826 Y98.05 E16.47096
G1 X87.921 Y97.954 E16.475
G1 X88.596 Y97.328 E16.50256
G0 F6000 X88.868 Y97.622
G1 F1200 X89.583 Y97.07 E16.5296
G1 X90.343 Y96.583 E16.55662
G1 X91.144 Y96.166 E16.58365
G1 X91.979 Y95.821 E16.61069
G1 X92.84 Y95.551 E16.63771
G1 X93.723 Y95.358 E16.66476
G1 X94.619 Y95.244 E16.6918
G1 X95.272 Y95.212 E16.71137
G1 X95.829 Y95.202 E16.72805
G1 X96.013 Y95.2 E16.73355
G1 X116.067 Y95.201 E17.33385
G1 X133.842 Y95.2 E17.86593
G1 X133.989 Y95.201 E17.87033
G1 X134.687 Y95.211 E17.89123
G1 X135.589 Y95.264 E17.91827
G1 X136.482 Y95.396 E17.9453
G1 X137.36 Y95.607 E17.97233
G1 X138.216 Y95.895 E17.99936
G1 X139.043 Y96.257 E18.02639
G1 X139.835 Y96.692 E18.05343
G1 X140.586 Y97.194 E18.08047
G1 X141.603 Y98.05 E18.12027
G1 X141.702 Y98.145 E18.12437
G1 X142.326 Y98.799 E18.15143
G1 X142.889 Y99.505 E18.17846
G1 X143.387 Y100.258 E18.20549
G1 X143.817 Y101.052 E18.23251
G1 X144.175 Y101.882 E18.25957
G1 X144.458 Y102.739 E18.28659
G1 X144.664 Y103.618 E18.31361
G1 X144.792 Y104.512 E18.34065
G1 X144.838 Y105.313 E18.36466
G1 X144.848 Y105.843 E18.38053
G1 X144.85 Y106.034 E18.38625
G1 X144.851 Y122.712 E18.88549
G1 X144.85 Y122.852 E18.88968
G1 X144.84 Y123.587 E18.91169
G1 X144.788 Y124.488 E18.9387
G1 X144.656 Y125.382 E18.96575
G1 X144.446 Y126.26 E18.99278
G1 X144.159 Y127.116 E19.0198
G1 X143.797 Y127.944 E19.04685
G1 X143.363 Y128.736 E19.07389
G1 X142.87 Y129.475 E19.10048
G1 X142.766 Y129.617 E19.10575
G1 X142.201 Y130.321 E19.13277
G1 X141.575 Y130.973 E19.15982
G1 X140.895 Y131.566 E19.18683
G1 X140.164 Y132.097 E19.21388
G1 X139.39 Y132.562 E19.24091
G1 X138.577 Y132.956 E19.26795
G1 X137.733 Y133.276 E19.29497
G1 X136.863 Y133.521 E19.32203
G1 X135.976 Y133.688 E19.34904
G1 X134.86 Y133.785 E19.38258
G1 X134.639 Y133.792 E19.38919
G1 X134.426 Y133.796 E19.39557
G1 X134.147 Y133.799 E19.40392
G1 X134.037 Y133.8 E19.40722
G1 X96.157 Y133.8 E20.54112
G1 X96.011 Y133.799 E20.54549
G1 X95.313 Y133.789 E20.56639
G1 X94.411 Y133.736 E20.59344
G1 X93.518 Y133.604 E20.62046
G1 X92.64 Y133.393 E20.64749
G1 X91.784 Y133.105 E20.67452
G1 X90.957 Y132.743 E20.70155
G1 X90.165 Y132.308 E20.72859
G1 X89.414 Y131.806 E20.75563
G1 X88.711 Y131.239 E20.78267
G1 X88.061 Y130.612 E20.8097
G1 X87.469 Y129.93 E20.83674
G1 X87.081 Y129.408 E20.85621
G1 X86.981 Y129.264 E20.86145
G1 X86.499 Y128.5 E20.8885
G1 X86.087 Y127.697 E20.91551
G1 X85.747 Y126.86 E20.94255
G1 X85.483 Y125.996 E20.9696
G1 X85.296 Y125.113 E20.99662
G1 X85.188 Y124.216 E21.02366
G1 X85.16 Y123.591 E21.04239
G1 X85.151 Y122.959 E21.06131
G1 X85.15 Y122.814 E21.06565
G1 X85.15 Y106.174 E21.56375
G1 X85.151 Y106.021 E21.56833
G1 X85.161 Y105.353 E21.58833
G1 X85.215 Y104.452 E21.61535
G1 X85.348 Y103.559 E21.64238
G1 X85.559 Y102.681 E21.66941
G1 X85.847 Y101.825 E21.69644
G1 X86.21 Y100.998 E21.72348
G1 X86.645 Y100.206 E21.75053
G1 X87.148 Y99.456 E21.77756
G1 X87.715 Y98.753 E21.80459
G1 X88.11 Y98.331 E21.8219
G1 X88.205 Y98.235 E21.82594
G1 X88.868 Y97.622 E21.85297
G1 F2700 E19.85297
;MESH:test_link_0.1mm.stl
G0 F6000 X113.547 Y122.6
;TYPE:WALL-INNER
G1 F2700 E21.85297
G1 F1200 X96.35 Y122.6 E22.36775
G1 X96.35 Y122 E22.38571
G1 X96.35 Y106.5 E22.84968
G1 X96.35 Y106.4 E22.85268
G1 X96.45 Y106.4 E22.85463
G1 X113.45 Y106.4 E23.36351
G1 X113.55 Y106.4 E23.3665
G1 X113.55 Y106.5 E23.36845
G1 X113.55 Y109.059 E23.44505
G1 X113.548 Y122 E23.83243
G1 X113.548 Y122.151 E23.83695
G1 X113.547 Y122.6 E23.85039
G0 F6000 X113.45 Y122
G1 F1200 X113.45 Y109.059 E23.94626
G1 X113.45 Y106.5 E23.96541
G1 X96.45 Y106.5 E24.09263
G1 X96.45 Y122 E24.20863
G1 X113.299 Y122 E24.71299
G1 X113.45 Y122 E24.7163
G0 F6000 X113.947 Y123
G1 F1200 X95.95 Y123 E25.25503
G1 X95.95 Y106 E25.76391
G1 X113.95 Y106 E26.30272
G1 X113.95 Y109.059 E26.39429
G1 X113.947 Y123 E26.8116
G1 F2700 E24.8116
G0 F6000 X113.05 Y121.6
G1 F2700 E26.8116
G1 F1200 X113.05 Y106.9 E27.25163
G1 X96.85 Y106.9 E27.73657
G1 X96.85 Y121.6 E28.1766
G1 X113.05 Y121.6 E28.66153
G1 F2700 E26.66153
G0 F6000 X114.347 Y123.4
;TYPE:WALL-OUTER
G1 F2700 E28.66153
G1 F1200 X95.553 Y123.4 E29.22411
G1 X95.55 Y123.395 E29.22429
G1 X95.55 Y105.6 E29.75697
G1 X114.35 Y105.6 E30.31973
G1 X114.35 Y109.059 E30.42327
G1 X114.347 Y123.4 E30.85255
G1 F2700 E28.85255
G0 F6000 X112.65 Y121.2
G1 F2700 E30.85255
G1 F1200 X112.65 Y107.3 E31.26864
G1 X97.25 Y107.3 E31.72962
G1 X97.25 Y121.2 E32.14571
G1 X112.65 Y121.2 E32.60669
G0 F6000 X113.386 Y122.437
;TYPE:SKIN
G1 F1200 X113.108 Y122.159 E32.61846
G0 F6000 X112.822 Y122.439
G1 F1200 X112.543 Y122.159 E32.63029
G0 F6000 X112.256 Y122.439
G1 F1200 X111.977 Y122.159 E32.64213
G0 F6000 X111.691 Y122.439
G1 F1200 X111.411 Y122.159 E32.65398
G0 F6000 X111.125 Y122.439
G1 F1200 X110.846 Y122.159 E32.66581
G0 F6000 X110.559 Y122.439
G1 F1200 X110.28 Y122.159 E32.67764
G0 F6000 X109.993 Y122.439
G1 F1200 X109.714 Y122.159 E32.68948
G0 F6000 X109.428 Y122.439
G1 F1200 X109.149 Y122.159 E32.70131
G0 F6000 X108.862 Y122.439
G1 F1200 X108.583 Y122.159 E32.71314
G0 F6000 X108.296 Y122.439
G1 F1200 X108.017 Y122.159 E32.72497
G0 F6000 X107.731 Y122.439
G1 F1200 X107.451 Y122.159 E32.73683
G0 F6000 X107.165 Y122.439
G1 F1200 X106.886 Y122.159 E32.74866
G0 F6000 X106.599 Y122.439
G1 F1200 X106.32 Y122.159 E32.76049
G0 F6000 X106.034 Y122.439
G1 F1200 X105.754 Y122.159 E32.77234
G0 F6000 X105.468 Y122.439
G1 F1200 X105.189 Y122.159 E32.78418
G0 F6000 X104.902 Y122.439
G1 F1200 X104.623 Y122.159 E32.79601
G0 F6000 X104.337 Y122.439
G1 F1200 X104.057 Y122.159 E32.80786
G0 F6000 X103.771 Y122.439
G1 F1200 X103.492 Y122.159 E32.81969
G0 F6000 X103.205 Y122.439
G1 F1200 X102.926 Y122.159 E32.83153
G0 F6000 X102.64 Y122.439
G1 F1200 X102.36 Y122.159 E32.84338
G0 F6000 X102.074 Y122.439
G1 F1200 X101.795 Y122.159 E32.85521
G0 F6000 X101.508 Y122.439
G1 F1200 X101.229 Y122.159 E32.86704
G0 F6000 X100.943 Y122.439
G1 F1200 X100.663 Y122.159 E32.8789
G0 F6000 X100.377 Y122.439
G1 F1200 X100.098 Y122.159 E32.89073
G0 F6000 X99.811 Y122.439
G1 F1200 X99.532 Y122.159 E32.90256
G0 F6000 X99.245 Y122.439
G1 F1200 X98.966 Y122.159 E32.91439
G0 F6000 X98.68 Y122.439
G1 F1200 X98.4 Y122.159 E32.92625
G0 F6000 X98.114 Y122.439
G1 F1200 X97.835 Y122.159 E32.93808
G0 F6000 X97.548 Y122.439
G1 F1200 X97.269 Y122.159 E32.94991
G0 F6000 X96.983 Y122.439
G1 F1200 X96.703 Y122.159 E32.96176
G1 F2700 E30.96176
G0 F6000 X116.45 Y122.6
;TYPE:WALL-INNER
G1 F2700 E32.96176
G1 F1200 X116.45 Y122 E32.97972
G1 X116.45 Y106.5 E33.4437
G1 X116.45 Y106.4 E33.4467
G1 X116.55 Y106.4 E33.44864
G1 X133.55 Y106.4 E33.95752
G1 X133.65 Y106.4 E33.96052
G1 X133.65 Y106.5 E33.96177
G1 X133.648 Y122 E34.42575
