; generated by Slic3r 1.3.0 on 2020-03-12 at 17:09:14

; external perimeters extrusion width = 0.44mm (2.98mm^3/s)
; perimeters extrusion width = 0.56mm (7.76mm^3/s)
; infill extrusion width = 0.50mm (9.14mm^3/s)
; solid infill extrusion width = 0.56mm (2.07mm^3/s)
; top infill extrusion width = 0.56mm (1.55mm^3/s)

M107 ; disable fan
M190 S65 ; set bed temperature and wait for it to be reached
M104 S200 ; set temperature
G28 ; home all axes
; Filament gcode

M109 S200 ; set temperature and wait for it to be reached
G21 ; set units to millimeters
G90 ; use absolute coordinates
M82 ; use absolute distances for extrusion
G92 E0 ; reset extrusion distance
;Layer: 0
G10 ; retract extruder 0
G92 E0 ; reset extrusion distance
G1 Z0.350 F12000.000 ; move to next layer (0)
; OctoLapse Trigger
G4 P1
G1 X12.020 Y11.410 F12000.000 ; move to first skirt point
G11 ; unretract extruder 0
G92 E0 ; reset extrusion distance
G1 F1800
G1 X12.305 Y11.192 E0.03266 ; skirt
G1 X13.803 Y10.327 E0.18990 ; skirt
G1 X14.135 Y10.189 E0.22255 ; skirt
G1 X15.805 Y9.742 E0.37982 ; skirt
G1 X16.161 Y9.695 E0.41247 ; skirt
G1 X17.026 Y9.638 E0.49126 ; skirt
G1 X70.838 Y9.638 E5.38433 ; skirt
G1 X212.825 Y9.887 E18.29518 ; skirt
G1 X213.678 Y9.944 E18.37292 ; skirt
G1 X214.066 Y9.995 E18.40853 ; skirt
G1 X215.737 Y10.443 E18.56579 ; skirt
G1 X216.098 Y10.592 E18.60139 ; skirt
G1 X217.596 Y11.457 E18.75860 ; skirt
G1 X217.907 Y11.696 E18.79426 ; skirt
G1 X219.129 Y12.918 E18.95146 ; skirt
G1 X219.368 Y13.229 E18.98713 ; skirt
G1 X220.233 Y14.727 E19.14437 ; skirt
G1 X220.383 Y15.089 E19.17999 ; skirt
G1 X220.830 Y16.759 E19.33724 ; skirt
G1 X220.924 Y17.581 E19.41243 ; skirt
G1 X226.864 Y108.590 E27.70549 ; skirt
G1 X226.938 Y110.296 E27.86079 ; skirt
G1 X226.938 Y112.443 E28.05595 ; skirt
G1 X226.895 Y113.195 E28.12444 ; skirt
G1 X226.831 Y113.759 E28.17605 ; skirt
G1 X226.492 Y115.224 E28.31280 ; skirt
G1 X226.302 Y115.759 E28.36441 ; skirt
G1 X225.641 Y117.110 E28.50117 ; skirt
G1 X225.049 Y118.000 E28.59837 ; skirt
G1 X155.100 Y211.068 E39.18477 ; skirt
G1 X154.383 Y211.910 E39.28529 ; skirt
G1 X153.187 Y212.969 E39.43052 ; skirt
G1 X152.716 Y213.294 E39.48262 ; skirt
G1 X152.023 Y213.712 E39.55615 ; skirt
G1 X146.180 Y216.758 E40.15534 ; skirt
G1 X143.118 Y217.508 E40.44204 ; skirt
G1 X88.048 Y217.508 E45.44950 ; skirt
G1 X87.458 Y217.488 E45.50314 ; skirt
G1 X86.756 Y217.418 E45.56732 ; skirt
G1 X85.974 Y217.254 E45.64000 ; skirt
G1 X85.673 Y217.170 E45.66839 ; skirt
G1 X84.416 Y216.669 E45.79147 ; skirt
G1 X83.856 Y216.369 E45.84921 ; skirt
G1 X82.443 Y215.269 E46.01204 ; skirt
G1 X81.984 Y214.750 E46.07501 ; skirt
G1 X4.880 Y117.535 E57.35750 ; skirt
G1 X4.205 Y116.497 E57.47012 ; skirt
G1 X3.939 Y115.990 E57.52219 ; skirt
G1 X3.372 Y114.497 E57.66740 ; skirt
G1 X3.235 Y113.941 E57.71948 ; skirt
G1 X3.055 Y112.756 E57.82851 ; skirt
G1 X3.038 Y112.469 E57.85460 ; skirt
G1 X3.026 Y109.923 E58.08613 ; skirt
G1 X3.073 Y108.591 E58.20730 ; skirt
G1 X9.040 Y17.207 E66.53453 ; skirt
G1 X9.129 Y16.418 E66.60673 ; skirt
G1 X9.577 Y14.747 E66.76399 ; skirt
G1 X9.714 Y14.416 E66.79664 ; skirt
G1 X10.579 Y12.918 E66.95390 ; skirt
G1 X10.797 Y12.633 E66.98656 ; skirt
G1 X11.978 Y11.453 E67.13835 ; skirt
G10 ; retract extruder 0
G92 E0 ; reset extrusion distance
G1 X89.272 Y111.531 F12000.000 ; move to first perimeter point
G11 ; unretract extruder 0
G92 E0 ; reset extrusion distance
G1 F2250
G1 X142.624 Y111.531 E4.85122 ; perimeter
G1 X142.625 Y186.236 E11.64409 ; perimeter
G1 X147.787 Y199.230 E12.91545 ; perimeter
G1 X147.916 Y199.568 E12.94838 ; perimeter
G1 X148.286 Y200.797 E13.06505 ; perimeter
G1 X148.518 Y202.029 E13.17902 ; perimeter
G1 X148.620 Y203.301 E13.29506 ; perimeter
G1 X148.625 Y205.691 E13.51239 ; perimeter
G1 X148.563 Y206.009 E13.54185 ; perimeter
G1 X148.478 Y206.172 E13.55862 ; perimeter
G1 X148.355 Y206.310 E13.57539 ; perimeter
G1 X148.125 Y206.469 E13.60082 ; perimeter
G1 X142.726 Y209.284 E14.15448 ; perimeter
G1 X88.752 Y209.284 E19.06232 ; perimeter
G1 X88.769 Y203.062 E19.62804 ; perimeter
G1 X89.276 Y202.709 E19.68421 ; perimeter
G1 X89.272 Y111.591 E27.96949 ; perimeter
G1 X88.708 Y111.111 F12000.000 ; move to first perimeter point
G1 F2250
G1 X88.771 Y111.030 E27.97880 ; perimeter
G1 X88.852 Y110.967 E27.98811 ; perimeter
G1 X88.946 Y110.928 E27.99742 ; perimeter
G1 X89.112 Y110.906 E28.01258 ; perimeter
G1 X142.784 Y110.906 E32.89298 ; perimeter
G1 X142.949 Y110.928 E32.90814 ; perimeter
G1 X143.044 Y110.967 E32.91745 ; perimeter
G1 X143.125 Y111.030 E32.92676 ; perimeter
G1 X143.188 Y111.111 E32.93607 ; perimeter
G1 X143.227 Y111.205 E32.94538 ; perimeter
G1 X143.249 Y111.371 E32.96055 ; perimeter
G1 X143.250 Y186.117 E39.75714 ; perimeter
G1 X148.370 Y199.004 E41.01807 ; perimeter
G1 X148.508 Y199.367 E41.05343 ; perimeter
G1 X148.894 Y200.648 E41.17510 ; perimeter
G1 X149.138 Y201.946 E41.29512 ; perimeter
G1 X149.245 Y203.275 E41.41641 ; perimeter
G1 X149.239 Y205.877 E41.65298 ; perimeter
G1 X149.152 Y206.232 E41.68626 ; perimeter
G1 X148.996 Y206.530 E41.71682 ; perimeter
G1 X148.773 Y206.781 E41.74739 ; perimeter
G1 X148.448 Y207.005 E41.78323 ; perimeter
G1 X142.879 Y209.909 E42.35433 ; perimeter
G1 X88.125 Y209.909 E47.33308 ; perimeter
G1 X88.145 Y202.736 E47.98531 ; perimeter
G1 X88.651 Y202.383 E48.04138 ; perimeter
G1 X88.647 Y111.371 E56.31707 ; perimeter
G1 X88.685 Y111.166 E56.33598 ; perimeter
G1 X88.163 Y110.796 F12000.000 ; move to first perimeter point
G1 F1125
G1 X88.325 Y110.584 E56.36025 ; perimeter
G1 X88.537 Y110.422 E56.38452 ; perimeter
G1 X88.783 Y110.319 E56.40879 ; perimeter
G1 X89.071 Y110.282 E56.43517 ; perimeter
G1 X142.825 Y110.282 E61.32301 ; perimeter
G1 X143.113 Y110.319 E61.34938 ; perimeter
G1 X143.359 Y110.422 E61.37365 ; perimeter
G1 X143.571 Y110.584 E61.39792 ; perimeter
G1 X143.733 Y110.796 E61.42219 ; perimeter
G1 X143.836 Y111.042 E61.44646 ; perimeter
G1 X143.873 Y111.330 E61.47283 ; perimeter
G1 X143.874 Y185.997 E68.26227 ; perimeter
G1 X148.952 Y198.778 E69.51278 ; perimeter
G1 X149.100 Y199.166 E69.55057 ; perimeter
G1 X149.502 Y200.500 E69.67724 ; perimeter
G1 X149.759 Y201.862 E69.80332 ; perimeter
G1 X149.870 Y203.250 E69.92985 ; perimeter
G1 X149.874 Y205.727 E70.15516 ; perimeter
G1 X149.860 Y205.971 E70.17737 ; perimeter
G1 X149.740 Y206.455 E70.22271 ; perimeter
G1 X149.514 Y206.887 E70.26707 ; perimeter
G1 X149.190 Y207.253 E70.31144 ; perimeter
G1 X148.771 Y207.542 E70.35770 ; perimeter
G1 X143.032 Y210.534 E70.94624 ; perimeter
G1 X88.061 Y210.534 E75.94469 ; perimeter
G1 X87.755 Y210.510 E75.97265 ; perimeter
G1 X87.499 Y210.437 E75.99686 ; perimeter
G1 X87.521 Y202.554 E76.71369 ; perimeter
G1 X87.569 Y202.376 E76.73047 ; perimeter
G1 X88.026 Y202.057 E76.78115 ; perimeter
G1 X88.023 Y111.330 E85.03091 ; perimeter
G1 X88.060 Y111.042 E85.05729 ; perimeter
G1 X88.140 Y110.851 E85.07610 ; perimeter
G1 X88.429 Y110.795 F12000.000 ; move inwards before travel
G10 ; retract extruder 0
G92 E0 ; reset extrusion distance
G1 X89.654 Y112.399 F12000.000 ; move to first infill point
G11 ; unretract extruder 0
G92 E0 ; reset extrusion distance
G1 F600
G1 X90.140 Y111.913 E0.06275 ; infill
G1 X91.028 Y111.913 E0.14376 ; infill
G1 X89.654 Y113.287 E0.32108 ; infill
G1 X89.654 Y114.174 E0.40208 ; infill
G1 X91.915 Y111.913 E0.69396 ; infill
G1 X92.802 Y111.913 E0.77496 ; infill
G1 X89.654 Y115.061 E1.18139 ; infill
G1 X89.654 Y115.948 E1.26239 ; infill
G1 X93.689 Y111.913 E1.78337 ; infill
G1 X94.577 Y111.913 E1.86437 ; infill
G1 X89.654 Y116.836 E2.49990 ; infill
G1 X89.654 Y117.723 E2.58090 ; infill
G1 X95.464 Y111.913 E3.33098 ; infill
G1 X96.351 Y111.913 E3.41198 ; infill
G1 X89.654 Y118.610 E4.27661 ; infill
G1 X89.654 Y119.497 E4.35761 ; infill
G1 X97.239 Y111.913 E5.33680 ; infill
G1 X98.126 Y111.913 E5.41780 ; infill
G1 X89.654 Y120.385 E6.51153 ; infill
G1 X89.654 Y121.272 E6.59253 ; infill
G1 X99.013 Y111.913 E7.80082 ; infill
G1 X99.900 Y111.913 E7.88182 ; infill
G1 X89.655 Y122.159 E9.20465 ; infill
G1 X89.655 Y123.046 E9.28565 ; infill
G1 X100.788 Y111.913 E10.72304 ; infill
G1 X101.675 Y111.913 E10.80404 ; infill
G1 X89.655 Y123.933 E12.35598 ; infill
G1 X89.655 Y124.821 E12.43698 ; infill
G1 X102.562 Y111.913 E14.10347 ; infill
G1 X103.449 Y111.913 E14.18447 ; infill
G1 X89.655 Y125.708 E15.96551 ; infill
G1 X89.655 Y126.595 E16.04651 ; infill
G1 X104.337 Y111.913 E17.94210 ; infill
G1 X105.224 Y111.913 E18.02310 ; infill
G1 X89.655 Y127.482 E20.03324 ; infill
G1 X89.655 Y128.370 E20.11424 ; infill
G1 X106.111 Y111.913 E22.23893 ; infill
G1 X106.999 Y111.913 E22.31993 ; infill
G1 X89.655 Y129.257 E24.55918 ; infill
G1 X89.655 Y130.144 E24.64018 ; infill
G1 X107.886 Y111.913 E26.99397 ; infill
G1 X108.773 Y111.913 E27.07497 ; infill
G1 X89.655 Y131.031 E29.54332 ; infill
G1 X89.655 Y131.919 E29.62432 ; infill
G1 X109.660 Y111.913 E32.20721 ; infill
G1 X110.548 Y111.913 E32.28821 ; infill
G1 X89.655 Y132.806 E34.98566 ; infill
G1 X89.655 Y133.693 E35.06666 ; infill
G1 X111.435 Y111.913 E37.87866 ; infill
G1 X112.322 Y111.913 E37.95966 ; infill
G1 X89.655 Y134.580 E40.88621 ; infill
G1 X89.655 Y135.468 E40.96721 ; infill
G1 X113.209 Y111.913 E44.00830 ; infill
G1 X114.097 Y111.913 E44.08931 ; infill
G1 X89.655 Y136.355 E47.24496 ; infill
G1 X89.655 Y137.242 E47.32596 ; infill
G1 X114.984 Y111.913 E50.59616 ; infill
G1 X115.871 Y111.913 E50.67716 ; infill
G1 X89.655 Y138.129 E54.06191 ; infill
G1 X89.655 Y139.017 E54.14291 ; infill
G1 X116.758 Y111.913 E57.64221 ; infill
G1 X117.646 Y111.913 E57.72321 ; infill
G1 X89.655 Y139.904 E61.33707 ; infill
G1 X89.655 Y140.791 E61.41807 ; infill
G1 X118.533 Y111.913 E65.14647 ; infill
G1 X119.420 Y111.913 E65.22747 ; infill
G1 X89.655 Y141.678 E69.07043 ; infill
G1 X89.655 Y142.565 E69.15143 ; infill
G1 X120.308 Y111.913 E73.10893 ; infill
G1 X121.195 Y111.913 E73.18994 ; infill
G1 X89.655 Y143.453 E77.26199 ; infill
G1 X89.655 Y144.340 E77.34299 ; infill
G1 X122.082 Y111.913 E81.52960 ; infill
G1 X122.969 Y111.913 E81.61060 ; infill
G1 X89.655 Y145.227 E85.91176 ; infill
G1 X89.655 Y146.114 E85.99276 ; infill
G1 X123.857 Y111.913 E90.40847 ; infill
G1 X124.744 Y111.913 E90.48947 ; infill
G1 X89.655 Y147.002 E95.01973 ; infill
G1 X89.655 Y147.889 E95.10073 ; infill
G1 X125.631 Y111.913 E99.74555 ; infill
G1 X126.518 Y111.913 E99.82655 ; infill
G1 X89.655 Y148.776 E104.58591 ; infill
G1 X89.655 Y149.663 E104.66691 ; infill
G1 X127.406 Y111.913 E109.54082 ; infill
G1 X128.293 Y111.913 E109.62183 ; infill
G1 X89.656 Y150.551 E114.61029 ; infill
G1 X89.656 Y151.438 E114.69129 ; infill
G1 X129.180 Y111.913 E119.79430 ; infill
G1 X130.068 Y111.913 E119.87531 ; infill
G1 X89.656 Y152.325 E125.09287 ; infill
G1 X89.656 Y153.212 E125.17387 ; infill
G1 X130.955 Y111.913 E130.50599 ; infill
G1 X131.842 Y111.913 E130.58699 ; infill
G1 X89.656 Y154.100 E136.03366 ; infill
G1 X89.656 Y154.987 E136.11466 ; infill
G1 X132.729 Y111.913 E141.67588 ; infill
G1 X133.617 Y111.913 E141.75688 ; infill
G1 X89.656 Y155.874 E147.43265 ; infill
G1 X89.656 Y156.761 E147.51365 ; infill
G1 X134.504 Y111.913 E153.30397 ; infill
G1 X135.391 Y111.913 E153.38497 ; infill
G1 X89.656 Y157.649 E159.28984 ; infill
G1 X89.656 Y158.536 E159.37084 ; infill
G1 X136.278 Y111.913 E165.39027 ; infill
G1 X137.166 Y111.913 E165.47127 ; infill
G1 X89.656 Y159.423 E171.60524 ; infill
G1 X89.656 Y160.310 E171.68624 ; infill
G1 X138.053 Y111.913 E177.93476 ; infill
G1 X138.940 Y111.913 E178.01577 ; infill
G1 X89.656 Y161.197 E184.37884 ; infill
G1 X89.656 Y162.085 E184.45984 ; infill
G1 X139.828 Y111.913 E190.93747 ; infill
G1 X140.715 Y111.913 E191.01847 ; infill
G1 X89.656 Y162.972 E197.61065 ; infill
G1 X89.656 Y163.859 E197.69165 ; infill
G1 X141.602 Y111.913 E204.39837 ; infill
G1 X142.242 Y111.913 E204.45678 ; infill
G1 X142.242 Y112.161 E204.47938 ; infill
G1 X89.656 Y164.746 E211.26870 ; infill
G1 X89.656 Y165.634 E211.34970 ; infill
G1 X142.242 Y113.048 E218.13902 ; infill
G1 X142.242 Y113.935 E218.22002 ; infill
G1 X89.656 Y166.521 E225.00934 ; infill
G1 X89.656 Y167.408 E225.09033 ; infill
G1 X142.242 Y114.822 E231.87965 ; infill
G1 X142.242 Y115.710 E231.96065 ; infill
G1 X89.656 Y168.295 E238.74996 ; infill
G1 X89.656 Y169.183 E238.83096 ; infill
G1 X142.242 Y116.597 E245.62027 ; infill
G1 X142.242 Y117.484 E245.70127 ; infill
G1 X89.656 Y170.070 E252.49058 ; infill
G1 X89.656 Y170.957 E252.57158 ; infill
G1 X142.242 Y118.371 E259.36088 ; infill
G1 X142.242 Y119.259 E259.44188 ; infill
G1 X89.656 Y171.844 E266.23118 ; infill
G1 X89.656 Y172.732 E266.31218 ; infill
G1 X142.242 Y120.146 E273.10148 ; infill
G1 X142.242 Y121.033 E273.18248 ; infill
G1 X89.656 Y173.619 E279.97178 ; infill
G1 X89.656 Y174.506 E280.05278 ; infill
G1 X142.242 Y121.921 E286.84207 ; infill
G1 X142.242 Y122.808 E286.92307 ; infill
G1 X89.656 Y175.393 E293.71236 ; infill
G1 X89.656 Y176.281 E293.79336 ; infill
G1 X142.242 Y123.695 E300.58265 ; infill
G1 X142.242 Y124.582 E300.66365 ; infill
G1 X89.656 Y177.168 E307.45293 ; infill
G1 X89.657 Y178.055 E307.53393 ; infill
G1 X142.242 Y125.470 E314.32321 ; infill
G1 X142.242 Y126.357 E314.40422 ; infill
G1 X89.657 Y178.942 E321.19349 ; infill
G1 X89.657 Y179.830 E321.27449 ; infill
G1 X142.242 Y127.244 E328.06377 ; infill
G1 X142.242 Y128.131 E328.14477 ; infill
G1 X89.657 Y180.717 E334.93405 ; infill
G1 X89.657 Y181.604 E335.01505 ; infill
G1 X142.242 Y129.019 E341.80432 ; infill
G1 X142.242 Y129.906 E341.88532 ; infill
G1 X89.657 Y182.491 E348.67459 ; infill
G1 X89.657 Y183.378 E348.75559 ; infill
G1 X142.242 Y130.793 E355.54485 ; infill
G1 X142.242 Y131.680 E355.62586 ; infill
G1 X89.657 Y184.266 E362.41512 ; infill
G1 X89.657 Y185.153 E362.49612 ; infill
G1 X142.242 Y132.568 E369.28538 ; infill
G1 X142.242 Y133.455 E369.36638 ; infill
G1 X89.657 Y186.040 E376.15564 ; infill
G1 X89.657 Y186.927 E376.23664 ; infill
G1 X142.242 Y134.342 E383.02590 ; infill
G1 X142.242 Y135.229 E383.10690 ; infill
G1 X89.657 Y187.815 E389.89615 ; infill
G1 X89.657 Y188.702 E389.97715 ; infill
G1 X142.242 Y136.117 E396.76640 ; infill
G1 X142.242 Y137.004 E396.84740 ; infill
G1 X89.657 Y189.589 E403.63665 ; infill
G1 X89.657 Y190.476 E403.71765 ; infill
G1 X142.242 Y137.891 E410.50689 ; infill
G1 X142.242 Y138.778 E410.58790 ; infill
G1 X89.657 Y191.364 E417.37714 ; infill
G1 X89.657 Y192.251 E417.45814 ; infill
G1 X142.242 Y139.666 E424.24738 ; infill
G1 X142.242 Y140.553 E424.32838 ; infill
G1 X89.657 Y193.138 E431.11762 ; infill
G1 X89.657 Y194.025 E431.19862 ; infill
G1 X142.242 Y141.440 E437.98785 ; infill
G1 X142.242 Y142.327 E438.06885 ; infill
G1 X89.657 Y194.913 E444.85808 ; infill
G1 X89.657 Y195.800 E444.93908 ; infill
G1 X142.242 Y143.215 E451.72831 ; infill
G1 X142.242 Y144.102 E451.80931 ; infill
G1 X89.657 Y196.687 E458.59854 ; infill
G1 X89.657 Y197.574 E458.67954 ; infill
G1 X142.242 Y144.989 E465.46876 ; infill
G1 X142.242 Y145.877 E465.54977 ; infill
G1 X89.657 Y198.462 E472.33899 ; infill
G1 X89.657 Y199.349 E472.41999 ; infill
G1 X142.242 Y146.764 E479.20921 ; infill
G1 X142.242 Y147.651 E479.29021 ; infill
G1 X89.657 Y200.236 E486.07942 ; infill
G1 X89.657 Y201.123 E486.16042 ; infill
G1 X142.242 Y148.538 E492.94964 ; infill
G1 X142.242 Y149.426 E493.03064 ; infill
G1 X89.657 Y202.010 E499.81985 ; infill
G1 X89.657 Y202.898 E499.90085 ; infill
G1 X142.242 Y150.313 E506.69006 ; infill
G1 X142.242 Y151.200 E506.77106 ; infill
G1 X89.148 Y204.294 E513.62604 ; infill
G1 X89.146 Y205.184 E513.70726 ; infill
G1 X142.242 Y152.087 E520.56256 ; infill
G1 X142.242 Y152.975 E520.64356 ; infill
G1 X89.143 Y206.074 E527.49918 ; infill
G1 X89.141 Y206.964 E527.58041 ; infill
G1 X142.242 Y153.862 E534.43635 ; infill
G1 X142.242 Y154.749 E534.51735 ; infill
G1 X89.138 Y207.853 E541.37361 ; infill
G1 X89.136 Y208.743 E541.45484 ; infill
G1 X142.242 Y155.636 E548.31142 ; infill
G1 X142.242 Y156.524 E548.39242 ; infill
G1 X89.864 Y208.902 E555.15495 ; infill
G1 X90.751 Y208.902 E555.23595 ; infill
