;FLAVOR:Marlin
;TIME:4160
;Filament used: 2.83586m
;Layer height: 0.2
;MINX:105.44
;MINY:83.998
;MINZ:0.2
;MAXX:129.559
;MAXY:151.218
;MAXZ:15.2
;Generated with Cura_SteamEngine 4.5.0
M82 ;absolute extrusion mode
M201 X500 Y500 Z100 E5000 ;Setup machine max acceleration
M203 X500 Y500 Z10 E50 ;Setup machine max feedrate
M204 P500 T500 ;Setup Print/Travel acceleration
M205 X10 Y10 Z0.4 E5 ;Setup Jerk
;M207 F45 S1.0 Z0.2 ;Setup firmware-based retraction
;M208 F45 S0 ;Setup firmware-based retraction (recovery)
M209 S0 ;Disable Auto Retract
M104 S205.0 ;Start heating extruder
M140 S60 ;Start heating bed
G28 ;Home all axes
G29 J ;Adjust the existing mesh to the bed tilt
G0 X255 F5000 ;Move over purge bucket
M109 S205.0 ;Wait for extruder to reach temp before proceeding
G92 E0 ;Zero the extruded length
G1 E15 F50 ;Purge nozzle
G92 E0 ;Zero the extruded length again
G12 ;Clean the nozzle
M190 S60 ;Wait for bed to reach temp before proceeding
M109 S205.0 ; Wait for extruder to reach temp before proceeding
M220 S100 ;Reset Feedrate
M221 S100 ;Reset Flowrate
G92 E0
G92 E0
G10
;LAYER_COUNT:76
;LAYER:0
M107
;MESH:y_tensioner_mount_adapter_f624.stl
G0 F8400 X110.735 Y143.371 Z0.2
;TYPE:WALL-INNER
G11
G1 F2400 X110.668 Y143.372 E0.00223
G1 X110.653 Y143.307 E0.00445
G1 X110.643 Y143.158 E0.00941
G1 X110.643 Y143.138 E0.01008
G1 X110.643 Y135.061 E0.27872
G1 X110.643 Y134.777 E0.28817
G1 X110.643 Y134.431 E0.29968
G1 X110.643 Y134.079 E0.31138
G1 X110.643 Y133.733 E0.32289
G1 X110.643 Y133.387 E0.3344
G1 X110.643 Y133.109 E0.34365
G1 X110.644 Y129.782 E0.4543
G1 X111.466 Y129.607 E0.48225
G1 X112.288 Y129.406 E0.5104
G1 X112.289 Y126.573 E0.60463
G1 X112.064 Y126.539 E0.61219
G1 X111.866 Y126.509 E0.61885
G1 X112.045 Y126.33 E0.6223
G1 X112.104 Y126.271 E0.62359
G1 X112.283 Y125.856 E0.63862
G1 X112.291 Y125.246 E0.65891
G1 X112.29 Y124.618 E0.6798
G1 X112.2 Y124.23 E0.69305
G1 X111.936 Y123.901 E0.70708
G1 X111.774 Y123.787 E0.71367
G1 X111.727 Y123.754 E0.71558
G1 X111.804 Y123.703 E0.71604
G1 X111.857 Y123.668
G1 X112.102 Y123.421 E0.72761
G1 X112.286 Y123.005 E0.74274
G1 X112.291 Y121.759 E0.78419
G1 X112.192 Y121.37 E0.79754
G1 X111.937 Y121.052 E0.81109
G1 X111.769 Y120.933 E0.81794
G1 X111.727 Y120.903 E0.81966
G1 X111.803 Y120.853 E0.81998
G1 X111.845 Y120.824 E0.82066
G1 X112.087 Y120.598 E0.83168
G1 X112.284 Y120.167 E0.84744
G1 X112.29 Y119.553 E0.86786
G1 X112.289 Y118.904 E0.88945
G1 X112.199 Y118.566 E0.90108
G1 X111.975 Y118.227 E0.9146
G1 X111.804 Y118.108 E0.92153
G1 X111.732 Y118.057 E0.92446
G1 X111.8 Y118.004 E0.92512
G1 X111.967 Y117.874 E0.92975
G1 X112.2 Y117.552 E0.94297
G1 X112.289 Y117.183 E0.9556
G1 X112.289 Y116.057 E0.99305
G1 X112.199 Y115.716 E1.00478
G1 X111.975 Y115.377 E1.01829
G1 X111.795 Y115.252 E1.02558
G1 X111.73 Y115.206 E1.02823
G1 X111.806 Y115.15 E1.02895
G1 X111.929 Y115.059 E1.03167
G1 X112.126 Y114.817 E1.04204
G1 X112.284 Y114.461 E1.055
G1 X112.29 Y113.749 E1.07868
G1 X112.325 Y113.749 E1.07984
G1 X112.325 Y101.299 E1.49393
G1 X111.464 Y101.299 E1.52257
G1 X111.464 Y92.693 E1.80881
G1 X111.362 Y92.044 E1.83066
G1 X111.334 Y91.74 E1.84081
G1 X111.326 Y91.495 E1.84896
G1 X111.323 Y91.391 E1.85243
G1 X111.335 Y91.195 E1.85896
G1 X111.439 Y91.195 E1.86242
G1 X111.941 Y91.195 E1.87911
G1 X111.946 Y91.374 E1.88507
G1 X111.946 Y99.848 E2.16691
G1 X112.625 Y100.539 E2.19914
G1 X116.575 Y100.539 E2.33051
G1 X117.26 Y99.854 E2.36273
G1 X117.268 Y91.195 E2.65073
G1 X117.736 Y91.195 E2.6663
G1 X117.741 Y91.374 E2.67226
G1 X117.741 Y99.848 E2.9541
G1 X118.42 Y100.539 E2.98632
G1 X122.37 Y100.539 E3.1177
G1 X123.055 Y99.854 E3.14992
G1 X123.063 Y91.195 E3.43792
G1 X123.531 Y91.195 E3.45349
G1 X123.536 Y91.374 E3.45944
G1 X123.536 Y101.298 E3.78952
G1 X122.675 Y101.299 E3.81815
G1 X122.675 Y113.262 E4.21604
G1 X122.708 Y113.284 E4.21736
G1 X122.709 Y113.696 E4.23107
G1 X122.791 Y114.063 E4.24357
G1 X123.047 Y114.411 E4.25794
G1 X123.229 Y114.538 E4.26532
G1 X123.273 Y114.569 E4.26711
G1 X123.181 Y114.626 E4.26782
G1 X123.16 Y114.639
G1 X122.903 Y114.89 E4.27976
G1 X122.713 Y115.311 E4.29513
G1 X122.709 Y116.544 E4.33614
G1 X122.791 Y116.913 E4.34871
G1 X123.047 Y117.261 E4.36308
G1 X123.218 Y117.381 E4.37003
G1 X123.272 Y117.419 E4.37222
G1 X123.179 Y117.476 E4.37314
G1 X123.133 Y117.504
G1 X122.84 Y117.831 E4.38774
G1 X122.709 Y118.253 E4.40244
G1 X122.709 Y119.396 E4.44045
G1 X122.791 Y119.766 E4.45306
G1 X123.05 Y120.111 E4.46741
G1 X123.223 Y120.234 E4.47447
G1 X123.273 Y120.269 E4.4765
G1 X123.18 Y120.325 E4.47731
G1 X123.144 Y120.347 E4.47772
G1 X122.93 Y120.573 E4.48807
G1 X122.72 Y120.942 E4.50219
G1 X122.709 Y121.489 E4.52039
G1 X122.71 Y122.343 E4.5488
G1 X122.872 Y122.749 E4.56333
G1 X123.131 Y123.029 E4.57602
G1 X123.215 Y123.08 E4.57929
G1 X123.275 Y123.117 E4.58163
G1 X123.21 Y123.157 E4.58229
G1 X123.144 Y123.197 E4.58312
G1 X122.93 Y123.423 E4.59347
G1 X122.717 Y123.801 E4.6079
G1 X122.709 Y125.207 E4.65467
G1 X122.882 Y125.612 E4.66932
G1 X123.133 Y125.881 E4.68155
G1 X123.214 Y125.93 E4.6847
G1 X123.275 Y125.967 E4.68707
G1 X123.21 Y126.006 E4.68768
G1 X123.144 Y126.047 E4.6887
G1 X122.93 Y126.273 E4.69905
G1 X122.717 Y126.651 E4.71348
G1 X122.709 Y128.057 E4.76024
G1 X122.872 Y128.438 E4.77403
G1 X122.882 Y128.462 E4.77489
G1 X123.133 Y128.731 E4.78713
G1 X123.172 Y128.755 E4.78865
G1 X123.141 Y128.762
G1 X122.966 Y128.805 E4.79049
G1 X122.94 Y128.811 E4.79134
G1 X122.712 Y128.867 E4.79915
G1 X122.712 Y130.312 E4.84721
G1 X122.712 Y130.509 E4.85376
G1 X122.711 Y130.781 E4.86281
G1 X122.472 Y130.509 E4.86795
G1 X122.336 Y130.367 E4.87328
G1 X122.23 Y130.257 E4.87836
G1 X121.971 Y130.015 E4.89015
G1 X121.699 Y129.787 E4.90196
G1 X121.416 Y129.575 E4.91372
G1 X121.122 Y129.377 E4.92551
G1 X120.822 Y129.198 E4.93712
G1 X120.508 Y129.031 E4.94895
G1 X120.186 Y128.881 E4.96077
G1 X119.86 Y128.75 E4.97245
G1 X119.528 Y128.636 E4.98413
G1 X119.187 Y128.536 E4.99595
G1 X118.841 Y128.459 E5.00774
G1 X118.495 Y128.397 E5.01943
G1 X118.152 Y128.357 E5.03091
G1 X118.142 Y128.355 E5.03125
G1 X117.79 Y128.329 E5.04299
G1 X117.436 Y128.324 E5.05477
G1 X117.082 Y128.337 E5.06655
G1 X116.733 Y128.367 E5.0782
G1 X116.382 Y128.415 E5.08998
G1 X116.035 Y128.483 E5.10174
G1 X115.691 Y128.568 E5.11353
G1 X115.353 Y128.673 E5.1253
G1 X115.022 Y128.794 E5.13702
G1 X114.697 Y128.932 E5.14877
G1 X114.378 Y129.087 E5.16056
G1 X114.069 Y129.26 E5.17234
G1 X113.772 Y129.445 E5.18398
G1 X113.481 Y129.648 E5.19578
G1 X113.2 Y129.868 E5.20765
G1 X112.935 Y130.102 E5.21941
G1 X112.683 Y130.344 E5.23103
G1 X112.441 Y130.603 E5.24282
G1 X112.213 Y130.875 E5.25462
G1 X112.001 Y131.158 E5.26638
G1 X111.803 Y131.452 E5.27817
G1 X111.624 Y131.752 E5.28979
G1 X111.457 Y132.066 E5.30162
G1 X111.307 Y132.388 E5.31344
G1 X111.176 Y132.714 E5.32512
G1 X111.062 Y133.046 E5.3368
G1 X111.04 Y133.12 E5.33937
G1 X110.962 Y133.387 E5.3477
G1 X110.885 Y133.733 E5.35605
G1 X110.823 Y134.079 E5.36229
G1 X110.781 Y134.431 E5.36702
G1 X110.755 Y134.777 E5.37064
G1 X110.748 Y135.061 E5.37321
G1 X110.749 Y143.138 E5.44424
G1 X110.748 Y143.164
G1 X110.739 Y143.312 E5.44541
G1 X110.735 Y143.371
G0 F8400 X111.13 Y143.472
G1 F2400 X111.12 Y143.537 E5.44759
G1 X111.075 Y143.771 E5.45552
G1 X110.395 Y143.772 E5.47814
G1 X110.35 Y143.699 E5.48099
G1 X110.307 Y143.587 E5.48498
G1 X110.258 Y143.372 E5.49231
G1 X110.256 Y143.346 E5.49318
G1 X110.25 Y143.29 E5.49505
G1 X110.245 Y143.18 E5.49871
G1 X110.243 Y143.158 E5.49945
G1 X110.244 Y129.465 E5.95488
G1 X110.49 Y129.406 E5.96329
G1 X111.377 Y129.217 E5.99346
G1 X111.888 Y129.092 E6.01096
G1 X111.889 Y126.917 E6.0833
G1 X111.155 Y126.805 E6.10799
G1 X110.245 Y126.667 E6.1386
G1 X110.245 Y126.614 E6.14037
G1 X111.143 Y126.413 E6.15793
G1 X111.23 Y126.393 E6.1609
G1 X111.361 Y126.348 E6.1655
G1 X111.475 Y126.29 E6.16976
G1 X111.603 Y126.206 E6.17485
G1 X111.767 Y126.042 E6.18256
G1 X111.884 Y125.771 E6.19238
G1 X111.891 Y125.244 E6.20991
G1 X111.89 Y124.664 E6.2292
G1 X111.831 Y124.409 E6.23791
G1 X111.659 Y124.195 E6.24704
G1 X111.505 Y124.086 E6.25331
G1 X111.363 Y124.014 E6.25861
G1 X111.175 Y123.964 E6.26508
G1 X111.156 Y123.959 E6.26573
G1 X110.245 Y123.818 E6.29639
G1 X110.245 Y123.764 E6.29819
G1 X111.07 Y123.579 E6.31346
G1 X111.089 Y123.575 E6.3141
G1 X111.23 Y123.543 E6.31891
G1 X111.361 Y123.498 E6.32351
G1 X111.475 Y123.44 E6.32777
G1 X111.603 Y123.356 E6.33286
G1 X111.766 Y123.192 E6.34055
G1 X111.886 Y122.92 E6.35044
G1 X111.891 Y121.808 E6.38743
G1 X111.826 Y121.553 E6.39618
G1 X111.66 Y121.346 E6.405
G1 X111.505 Y121.236 E6.41132
G1 X111.363 Y121.164 E6.41662
G1 X111.175 Y121.114 E6.42309
G1 X111.156 Y121.109 E6.42374
G1 X110.245 Y120.968 E6.4544
G1 X110.245 Y120.914 E6.4562
G1 X111.07 Y120.729 E6.47147
G1 X111.089 Y120.725 E6.47211
G1 X111.23 Y120.693 E6.47692
G1 X111.361 Y120.648 E6.48152
G1 X111.476 Y120.59 E6.48581
G1 X111.596 Y120.51 E6.49061
G1 X111.756 Y120.36 E6.4979
G1 X111.885 Y120.078 E6.50821
G1 X111.89 Y119.551 E6.52574
G1 X111.889 Y118.957 E6.5455
G1 X111.829 Y118.732 E6.55324
G1 X111.683 Y118.511 E6.56205
G1 X111.504 Y118.386 E6.56932
G1 X111.363 Y118.314 E6.57458
G1 X111.173 Y118.263 E6.58112
G1 X111.156 Y118.259 E6.58171
G1 X110.572 Y118.17 E6.60135
G1 X110.474 Y118.154 E6.60466
G1 X110.245 Y118.118 E6.61237
G1 X110.245 Y118.069 E6.614
G1 X110.497 Y118.004 E6.61665
G1 X110.6 Y117.984 E6.61797
G1 X111.069 Y117.878 E6.62913
G1 X111.086 Y117.875 E6.6297
G1 X111.285 Y117.829 E6.63649
G1 X111.507 Y117.725 E6.64465
G1 X111.676 Y117.593 E6.65178
G1 X111.83 Y117.381 E6.6605
G1 X111.889 Y117.136 E6.66888
G1 X111.889 Y116.109 E6.70304
G1 X111.829 Y115.882 E6.71085
G1 X111.683 Y115.661 E6.71965
G1 X111.504 Y115.536 E6.72692
G1 X111.363 Y115.464 E6.73218
G1 X111.175 Y115.414 E6.73865
G1 X111.156 Y115.409 E6.73931
G1 X110.246 Y115.268 E6.76993
G1 X110.246 Y115.214 E6.77173
G1 X111.07 Y115.029 E6.78698
G1 X111.089 Y115.025 E6.78762
G1 X111.285 Y114.98 E6.79431
G1 X111.5 Y114.878 E6.80222
G1 X111.651 Y114.767 E6.80846
G1 X111.782 Y114.606 E6.81536
G1 X111.885 Y114.374 E6.8238
G1 X111.89 Y113.839 E6.8416
G1 X111.889 Y113.349 E6.8579
G1 X111.925 Y113.349 E6.85909
G1 X111.925 Y101.699 E7.24657
G1 X111.064 Y101.699 E7.27521
G1 X111.064 Y92.724 E7.57372
G1 X110.965 Y92.096 E7.59487
G1 X110.934 Y91.755 E7.60625
G1 X110.922 Y91.388 E7.61847
G1 X110.941 Y91.099 E7.6281
G1 X110.983 Y90.846 E7.63663
G1 X110.999 Y90.795 E7.63841
G1 X112.319 Y90.795 E7.68231
G1 X112.338 Y91.067 E7.69138
G1 X112.346 Y91.374 E7.70159
G1 X112.346 Y99.684 E7.97799
G1 X112.793 Y100.139 E7.9992
G1 X116.409 Y100.139 E8.11947
G1 X116.86 Y99.688 E8.14068
G1 X116.868 Y91.067 E8.42742
G1 X116.887 Y90.795 E8.43649
G1 X118.114 Y90.795 E8.4773
G1 X118.133 Y91.067 E8.48637
G1 X118.141 Y91.374 E8.49658
G1 X118.141 Y99.684 E8.77297
G1 X118.588 Y100.139 E8.79419
G1 X122.204 Y100.139 E8.91446
G1 X122.655 Y99.688 E8.93567
G1 X122.663 Y91.067 E9.2224
G1 X122.682 Y90.795 E9.23147
G1 X123.909 Y90.795 E9.27228
G1 X123.928 Y91.067 E9.28135
G1 X123.936 Y91.374 E9.29157
G1 X123.936 Y101.698 E9.63494
G1 X123.075 Y101.699 E9.66358
G1 X123.075 Y113.048 E10.04105
G1 X123.108 Y113.07 E10.04237
G1 X123.109 Y113.652 E10.06173
G1 X123.163 Y113.894 E10.06997
G1 X123.33 Y114.121 E10.07935
G1 X123.51 Y114.247 E10.08665
G1 X123.633 Y114.303 E10.09115
G1 X123.745 Y114.342 E10.09509
G1 X123.823 Y114.359 E10.09775
G1 X123.856 Y114.366 E10.09887
G1 X124.647 Y114.488 E10.12549
G1 X124.756 Y114.505 E10.12916
G1 X124.755 Y114.556 E10.13086
G1 X124.632 Y114.59 E10.13197
G1 X123.939 Y114.741 E10.14594
G1 X123.906 Y114.748 E10.14704
G1 X123.776 Y114.777 E10.15147
G1 X123.664 Y114.815 E10.15541
G1 X123.555 Y114.865 E10.1594
G1 X123.408 Y114.956 E10.16515
G1 X123.237 Y115.123 E10.1731
G1 X123.113 Y115.398 E10.18313
G1 X123.109 Y116.501 E10.21981
G1 X123.163 Y116.744 E10.22809
G1 X123.33 Y116.971 E10.23747
G1 X123.51 Y117.097 E10.24477
G1 X123.633 Y117.153 E10.24927
G1 X123.745 Y117.192 E10.25321
G1 X123.823 Y117.209 E10.25587
G1 X123.856 Y117.216 E10.25699
G1 X124.647 Y117.338 E10.28361
G1 X124.756 Y117.355 E10.28728
G1 X124.755 Y117.406 E10.28898
G1 X124.632 Y117.44 E10.29009
G1 X123.939 Y117.591 E10.30406
G1 X123.906 Y117.598 E10.30516
G1 X123.782 Y117.626 E10.30939
G1 X123.666 Y117.664 E10.31345
G1 X123.557 Y117.714 E10.31744
G1 X123.392 Y117.815 E10.32387
G1 X123.196 Y118.033 E10.33362
G1 X123.109 Y118.314 E10.34341
G1 X123.109 Y119.352 E10.37793
G1 X123.163 Y119.595 E10.38621
G1 X123.332 Y119.821 E10.3956
G1 X123.506 Y119.944 E10.40268
G1 X123.63 Y120.003 E10.40725
G1 X123.746 Y120.042 E10.41132
G1 X123.825 Y120.06 E10.41402
G1 X123.855 Y120.066 E10.41503
G1 X124.647 Y120.19 E10.4417
G1 X124.756 Y120.207 E10.44537
G1 X124.755 Y120.256 E10.447
G1 X124.632 Y120.29 E10.44809
G1 X123.938 Y120.442 E10.46205
G1 X123.908 Y120.448 E10.46305
G1 X123.782 Y120.476 E10.46735
G1 X123.666 Y120.514 E10.47141
G1 X123.557 Y120.564 E10.4754
G1 X123.398 Y120.661 E10.48159
G1 X123.254 Y120.813 E10.48855
G1 X123.118 Y121.052 E10.4977
G1 X123.109 Y121.493 E10.51237
G1 X123.11 Y122.266 E10.53808
G1 X123.216 Y122.532 E10.54761
G1 X123.387 Y122.717 E10.55598
G1 X123.554 Y122.819 E10.56249
G1 X123.704 Y122.881 E10.56789
G1 X123.82 Y122.91 E10.57187
G1 X123.827 Y122.911 E10.5721
G1 X124.647 Y123.039 E10.59971
G1 X124.756 Y123.057 E10.60338
G1 X124.755 Y123.106 E10.60501
G1 X124.632 Y123.14 E10.60611
G1 X123.912 Y123.297 E10.62095
G1 X123.905 Y123.298 E10.62119
G1 X123.782 Y123.326 E10.62538
G1 X123.666 Y123.364 E10.62944
G1 X123.557 Y123.414 E10.63343
G1 X123.398 Y123.511 E10.63962
G1 X123.254 Y123.663 E10.64659
G1 X123.116 Y123.907 E10.65591
G1 X123.109 Y125.126 E10.69646
G1 X123.222 Y125.39 E10.70601
G1 X123.388 Y125.568 E10.7141
G1 X123.554 Y125.669 E10.72057
G1 X123.704 Y125.731 E10.72596
G1 X123.82 Y125.76 E10.72994
G1 X123.827 Y125.761 E10.73018
G1 X124.647 Y125.889 E10.75778
G1 X124.756 Y125.907 E10.76146
G1 X124.755 Y125.956 E10.76309
G1 X124.632 Y125.99 E10.76419
G1 X123.912 Y126.147 E10.77902
G1 X123.905 Y126.148 E10.77926
G1 X123.782 Y126.176 E10.78346
G1 X123.666 Y126.214 E10.78752
G1 X123.557 Y126.264 E10.7915
G1 X123.398 Y126.361 E10.7977
G1 X123.254 Y126.513 E10.80466
G1 X123.116 Y126.757 E10.81399
G1 X123.109 Y127.976 E10.85453
G1 X123.222 Y128.24 E10.86408
G1 X123.388 Y128.418 E10.87218
G1 X123.554 Y128.519 E10.87864
G1 X123.704 Y128.581 E10.88404
G1 X123.813 Y128.608 E10.88777
G1 X123.827 Y128.611 E10.88825
G1 X124.537 Y128.722 E10.91215
G1 X124.756 Y128.757 E10.91953
G1 X124.755 Y128.806 E10.92116
G1 X124.515 Y128.866 E10.9236
G1 X123.909 Y128.995 E10.93704
G1 X123.895 Y128.998 E10.93751
G1 X123.623 Y129.056 E10.94676
G1 X123.112 Y129.181 E10.96426
G1 X123.111 Y131.324 E11.03554
G1 X123.111 Y131.354 E11.03654
G1 X123.13 Y131.357 E11.03718
G1 X124.756 Y131.607 E11.09189
G1 X124.753 Y143.27 E11.4798
G1 X124.746 Y143.35 E11.48248
G1 X124.707 Y143.546 E11.48912
G1 X124.652 Y143.695 E11.4944
G1 X124.6 Y143.775 E11.49758
G1 X123.925 Y143.769 E11.52003
G1 X123.87 Y143.471 E11.53011
G1 X123.854 Y143.16 E11.54047
G1 X123.852 Y143.138 E11.5412
G1 X123.85 Y135.009 E11.81157
G1 X123.838 Y134.681 E11.82249
G1 X123.809 Y134.352 E11.83347
G1 X123.764 Y134.022 E11.84455
G1 X123.7 Y133.696 E11.8556
G1 X123.62 Y133.372 E11.8667
G1 X123.522 Y133.055 E11.87774
G1 X123.408 Y132.743 E11.88879
G1 X123.278 Y132.437 E11.89984
G1 X123.132 Y132.137 E11.91094
G1 X122.969 Y131.846 E11.92203
G1 X122.805 Y131.583 E11.93234
G1 X122.795 Y131.566 E11.933
G1 X122.778 Y131.542 E11.93395
G1 X122.604 Y131.293 E11.94406
G1 X122.398 Y131.03 E11.95517
G1 X122.178 Y130.78 E11.96625
G1 X121.949 Y130.542 E11.97723
G1 X121.706 Y130.315 E11.98829
G1 X121.45 Y130.101 E11.99939
G1 X121.184 Y129.901 E12.01046
G1 X120.908 Y129.715 E12.02153
G1 X120.625 Y129.546 E12.03249
G1 X120.33 Y129.389 E12.04361
G1 X120.027 Y129.248 E12.05472
G1 X119.72 Y129.125 E12.06572
G1 X119.407 Y129.017 E12.07673
G1 X119.087 Y128.924 E12.08782
G1 X118.762 Y128.851 E12.0989
G1 X118.436 Y128.793 E12.10991
G1 X118.104 Y128.753 E12.12103
G1 X117.773 Y128.729 E12.13207
G1 X117.44 Y128.724 E12.14315
