;FLAVOR:Marlin
;TIME:3155
;Filament used: 1.91099m
;Layer height: 0.2
;MINX:101.701
;MINY:101.7
;MINZ:0.2
;MAXX:133.299
;MAXY:133.299
;MAXZ:18
;Generated with Cura_SteamEngine 4.5.0
M82 ;absolute extrusion mode
M201 X500 Y500 Z100 E5000 ;Setup machine max acceleration
M203 X500 Y500 Z10 E50 ;Setup machine max feedrate
M204 P500 T500 ;Setup Print/Travel acceleration
M205 X10 Y10 Z0.4 E5 ;Setup Jerk
;M207 F45 S1.0 Z0.2 ;Setup firmware-based retraction
;M208 F45 S0 ;Setup firmware-based retraction (recovery)
M209 S0 ;Disable Auto Retract
M104 S205.0 ;Start heating extruder
M140 S60 ;Start heating bed
G28 ;Home all axes
G29 J ;Adjust the existing mesh to the bed tilt
G0 X255 F5000 ;Move over purge bucket
M109 S205.0 ;Wait for extruder to reach temp before proceeding
G92 E0 ;Zero the extruded length
G1 E15 F50 ;Purge nozzle
G92 E0 ;Zero the extruded length again
G12 ;Clean the nozzle
M190 S60 ;Wait for bed to reach temp before proceeding
M109 S205.0 ; Wait for extruder to reach temp before proceeding
M220 S100 ;Reset Feedrate
M221 S100 ;Reset Flowrate
G92 E0
G92 E0
G10
;LAYER_COUNT:90
;LAYER:0
M107
;MESH:y_tensioner_knob.stl
G0 F8400 X117.496 Y130.599 Z0.2
;TYPE:WALL-INNER
G11
G1 F2299.7 X117.589 Y130.597 E0.00309
G1 X117.715 Y130.594 E0.00729
G1 X118.186 Y130.583 E0.02296
G1 X118.227 Y130.58 E0.02432
G1 X118.943 Y130.52 E0.04822
G1 X119.343 Y130.464 E0.06165
G1 X119.653 Y130.42 E0.07207
G1 X120.138 Y130.329 E0.08848
G1 X120.223 Y130.314 E0.09135
G1 X120.89 Y130.154 E0.11417
G1 X121.521 Y129.968 E0.13605
G1 X122.196 Y129.73 E0.15985
G1 X122.83 Y129.467 E0.18268
G1 X123.507 Y129.14 E0.20769
G1 X123.717 Y129.026 E0.21563
G1 X124.051 Y128.844 E0.22828
G1 X124.2 Y128.753 E0.23409
G1 X124.635 Y128.487 E0.25105
G1 X124.667 Y128.465 E0.25234
G1 X125.252 Y128.058 E0.27605
G1 X125.376 Y127.962 E0.28126
G1 X125.814 Y127.622 E0.2997
G1 X126.267 Y127.234 E0.31954
G1 X126.764 Y126.762 E0.34234
G1 X127.234 Y126.267 E0.36504
G1 X127.656 Y125.774 E0.38662
G1 X128.095 Y125.204 E0.41055
G1 X128.152 Y125.122 E0.41388
G1 X128.465 Y124.664 E0.43233
G1 X128.486 Y124.634 E0.43354
G1 X128.62 Y124.402 E0.44246
G1 X128.943 Y123.844 E0.4639
G1 X129.159 Y123.472 E0.47821
G1 X129.462 Y122.839 E0.50155
G1 X129.551 Y122.623 E0.50932
G1 X129.728 Y122.198 E0.52463
G1 X130.014 Y121.363 E0.55399
G1 X130.152 Y120.893 E0.57028
G1 X130.308 Y120.25 E0.59229
G1 X130.314 Y120.224 E0.59317
G1 X130.322 Y120.177 E0.59476
G1 X130.434 Y119.571 E0.61526
G1 X130.521 Y118.921 E0.63707
G1 X130.527 Y118.875 E0.63861
G1 X130.582 Y118.189 E0.6615
G1 X130.589 Y117.891 E0.67141
G1 X130.592 Y117.763 E0.67567
G1 X130.595 Y117.651 E0.6794
G1 X130.599 Y117.503 E0.68432
G1 X130.598 Y117.394 E0.68795
G1 X130.595 Y117.284 E0.69161
G1 X130.584 Y116.837 E0.70648
G1 X130.579 Y116.772 E0.70865
G1 X130.522 Y116.073 E0.73198
G1 X130.465 Y115.66 E0.74584
G1 X130.422 Y115.359 E0.75596
G1 X130.33 Y114.86 E0.77283
G1 X130.315 Y114.778 E0.7756
G1 X130.155 Y114.115 E0.79829
G1 X129.961 Y113.455 E0.82117
G1 X129.733 Y112.81 E0.84392
G1 X129.469 Y112.175 E0.8668
G1 X129.171 Y111.551 E0.8898
G1 X129.027 Y111.285 E0.89986
G1 X128.845 Y110.951 E0.91251
G1 X128.753 Y110.801 E0.91836
G1 X128.455 Y110.32 E0.93718
G1 X128.442 Y110.299 E0.938
G1 X128.103 Y109.806 E0.9579
G1 X127.773 Y109.376 E0.97593
G1 X127.682 Y109.258 E0.98088
G1 X127.238 Y108.738 E1.00363
G1 X126.766 Y108.239 E1.02647
G1 X126.269 Y107.768 E1.04925
G1 X125.774 Y107.346 E1.07088
G1 X125.206 Y106.906 E1.09478
G1 X125.121 Y106.848 E1.0982
G1 X124.665 Y106.534 E1.11661
G1 X124.639 Y106.516 E1.11767
G1 X124.401 Y106.371 E1.12694
G1 X124.059 Y106.162 E1.14027
G1 X123.97 Y106.113 E1.14365
G1 X123.864 Y106.055 E1.14766
G1 X123.452 Y105.83 E1.16328
G1 X123.409 Y105.81 E1.16486
G1 X122.828 Y105.532 E1.18628
G1 X122.337 Y105.329 E1.20395
G1 X122.199 Y105.271 E1.20893
G1 X121.624 Y105.068 E1.22921
G1 X121.551 Y105.042 E1.23179
G1 X121.472 Y105.019 E1.23452
G1 X120.883 Y104.844 E1.25496
G1 X119.614 Y104.575 E1.2981
G1 X119.558 Y104.563 E1.30001
G1 X119.444 Y104.549 E1.30383
G1 X118.812 Y104.466 E1.32503
G1 X118.302 Y104.426 E1.34205
G1 X118.232 Y104.421 E1.34438
G1 X117.965 Y104.414 E1.35326
G1 X117.508 Y104.401 E1.36847
G1 X117.411 Y104.403 E1.3717
G1 X117.268 Y104.406 E1.37645
G1 X117.175 Y104.408 E1.37955
G1 X116.992 Y104.412 E1.38564
G1 X116.819 Y104.416 E1.39139
G1 X116.711 Y104.425 E1.395
G1 X116.06 Y104.48 E1.41673
G1 X115.456 Y104.56 E1.43699
G1 X114.866 Y104.669 E1.45695
G1 X114.779 Y104.685 E1.45989
G1 X114.109 Y104.847 E1.48281
G1 X113.48 Y105.032 E1.50462
G1 X112.811 Y105.266 E1.52819
G1 X112.175 Y105.53 E1.5511
G1 X111.496 Y105.857 E1.57616
G1 X111.285 Y105.972 E1.58416
G1 X110.956 Y106.152 E1.59663
G1 X110.8 Y106.247 E1.6027
G1 X110.369 Y106.511 E1.61951
G1 X110.337 Y106.533 E1.62081
G1 X109.749 Y106.941 E1.64461
G1 X109.432 Y107.188 E1.65798
G1 X109.189 Y107.377 E1.66821
G1 X108.737 Y107.762 E1.68796
G1 X108.649 Y107.846 E1.69201
G1 X108.239 Y108.235 E1.71081
G1 X108.223 Y108.252 E1.71158
G1 X107.765 Y108.734 E1.7337
G1 X107.368 Y109.2 E1.75406
G1 X107.344 Y109.228 E1.75529
G1 X107.315 Y109.265 E1.75685
G1 X106.904 Y109.797 E1.77921
G1 X106.859 Y109.863 E1.78187
G1 X106.531 Y110.341 E1.80115
G1 X106.509 Y110.372 E1.80241
G1 X106.312 Y110.714 E1.81554
G1 X106.027 Y111.208 E1.83451
G1 X105.825 Y111.559 E1.84798
G1 X105.814 Y111.583 E1.84886
G1 X105.415 Y112.455 E1.88075
G1 X105.34 Y112.637 E1.8873
G1 X105.268 Y112.809 E1.8935
G1 X105.233 Y112.911 E1.89709
G1 X105.076 Y113.352 E1.91266
G1 X105.041 Y113.451 E1.91615
G1 X105.006 Y113.569 E1.92024
G1 X104.847 Y114.109 E1.93896
G1 X104.687 Y114.774 E1.96171
G1 X104.587 Y115.309 E1.97982
G1 X104.561 Y115.451 E1.98462
G1 X104.471 Y116.131 E2.00743
G1 X104.418 Y116.82 E2.03042
G1 X104.413 Y117.034 E2.03753
G1 X104.4 Y117.5 E2.05304
G1 X104.402 Y117.588 E2.05597
G1 X104.406 Y117.713 E2.06013
G1 X104.423 Y118.268 E2.0786
G1 X104.471 Y118.87 E2.09868
G1 X104.539 Y119.387 E2.11603
G1 X104.561 Y119.549 E2.12146
G1 X104.677 Y120.176 E2.14267
G1 X104.686 Y120.225 E2.14433
G1 X104.692 Y120.252 E2.14525
G1 X104.848 Y120.892 E2.16716
G1 X105.021 Y121.478 E2.18748
G1 X105.041 Y121.548 E2.1899
G1 X105.258 Y122.164 E2.21162
G1 X105.532 Y122.827 E2.23548
G1 X105.805 Y123.403 E2.25668
G1 X105.827 Y123.448 E2.25835
G1 X105.973 Y123.716 E2.2685
G1 X106.156 Y124.05 E2.28117
G1 X106.247 Y124.2 E2.287
G1 X106.514 Y124.636 E2.30401
G1 X106.533 Y124.664 E2.30513
G1 X106.904 Y125.202 E2.32687
G1 X107.165 Y125.537 E2.34099
G1 X107.384 Y125.819 E2.35287
G1 X107.75 Y126.249 E2.37165
G1 X107.841 Y126.345 E2.37605
G1 X108.242 Y126.769 E2.39546
G1 X109.278 Y127.698 E2.44174
G1 X109.367 Y127.766 E2.44547
G1 X109.799 Y128.098 E2.46359
G1 X109.87 Y128.147 E2.46646
G1 X110.347 Y128.475 E2.48571
G1 X110.716 Y128.7 E2.50009
G1 X110.995 Y128.87 E2.51095
G1 X111.196 Y128.979 E2.51856
G1 X111.552 Y129.173 E2.53204
G1 X111.589 Y129.19 E2.5334
G1 X112.172 Y129.468 E2.55488
G1 X112.408 Y129.566 E2.56338
G1 X112.79 Y129.724 E2.57713
G1 X113.453 Y129.959 E2.60052
G1 X114.202 Y130.176 E2.62646
G1 X114.721 Y130.301 E2.64422
G1 X114.775 Y130.314 E2.64606
G1 X115.409 Y130.432 E2.66751
G1 X115.548 Y130.45 E2.67217
G1 X116.13 Y130.529 E2.69171
G1 X116.697 Y130.574 E2.71063
G1 X116.77 Y130.579 E2.71306
G1 X117.035 Y130.586 E2.72188
G1 X117.496 Y130.599 E2.73722
G0 F8400 X117.497 Y130.199
;TYPE:WALL-OUTER
G1 F2299.7 X118.165 Y130.183 E2.75944
G1 X118.899 Y130.122 E2.78394
G1 X119.589 Y130.025 E2.80711
G1 X120.14 Y129.923 E2.82575
G1 X120.787 Y129.767 E2.84789
G1 X121.398 Y129.587 E2.86907
G1 X122.053 Y129.356 E2.89217
G1 X122.666 Y129.102 E2.91424
G1 X123.324 Y128.784 E2.93855
G1 X123.851 Y128.497 E2.95851
G1 X124.416 Y128.152 E2.98053
G1 X125.015 Y127.736 E3.00478
G1 X125.561 Y127.312 E3.02777
G1 X125.999 Y126.937 E3.04695
G1 X126.481 Y126.479 E3.06907
G1 X126.937 Y125.999 E3.09109
G1 X127.345 Y125.522 E3.11196
G1 X127.771 Y124.969 E3.13518
G1 X128.148 Y124.42 E3.15733
G1 X128.805 Y123.285 E3.20095
G1 X129.097 Y122.676 E3.22341
G1 X129.354 Y122.056 E3.24574
G1 X129.633 Y121.242 E3.27436
G1 X129.765 Y120.79 E3.29002
G1 X129.923 Y120.141 E3.31224
G1 X130.039 Y119.508 E3.33364
G1 X130.129 Y118.833 E3.35629
G1 X130.182 Y118.168 E3.37848
G1 X130.199 Y117.503 E3.4006
G1 X130.184 Y116.858 E3.42206
G1 X130.124 Y116.117 E3.44679
G1 X130.027 Y115.423 E3.47009
G1 X129.924 Y114.861 E3.4891
G1 X129.769 Y114.219 E3.51106
G1 X129.58 Y113.578 E3.53329
G1 X129.359 Y112.953 E3.55534
G1 X129.104 Y112.338 E3.57748
G1 X128.815 Y111.733 E3.59978
G1 X128.499 Y111.152 E3.62178
G1 X128.107 Y110.518 E3.64657
G1 X127.779 Y110.041 E3.66583
G1 X127.371 Y109.51 E3.6881
G1 X126.94 Y109.005 E3.71018
G1 X126.483 Y108.522 E3.7323
G1 X126.001 Y108.065 E3.75439
G1 X125.522 Y107.656 E3.77534
G1 X124.97 Y107.229 E3.79855
G1 X124.421 Y106.852 E3.8207
G1 X123.859 Y106.508 E3.84262
G1 X123.27 Y106.186 E3.86494
G1 X122.665 Y105.898 E3.88723
G1 X122.056 Y105.645 E3.90916
G1 X121.427 Y105.423 E3.93135
G1 X120.784 Y105.232 E3.95366
G1 X119.491 Y104.958 E3.99762
G1 X118.771 Y104.864 E4.02177
G1 X118.211 Y104.821 E4.04045
G1 X117.507 Y104.801 E4.06387
G1 X116.84 Y104.816 E4.08606
G1 X116.103 Y104.878 E4.11066
G1 X115.518 Y104.955 E4.13029
G1 X114.862 Y105.076 E4.15248
G1 X114.213 Y105.233 E4.17468
G1 X113.603 Y105.413 E4.19584
G1 X112.954 Y105.64 E4.21871
G1 X112.339 Y105.895 E4.24085
G1 X111.679 Y106.213 E4.26522
G1 X111.156 Y106.498 E4.28503
G1 X110.588 Y106.846 E4.30718
G1 X109.986 Y107.263 E4.33154
G1 X109.442 Y107.687 E4.35448
G1 X109.005 Y108.059 E4.37357
G1 X108.522 Y108.518 E4.39573
G1 X108.062 Y109.002 E4.41794
G1 X107.655 Y109.48 E4.43882
G1 X107.227 Y110.033 E4.46208
G1 X106.848 Y110.585 E4.48435
G1 X106.181 Y111.742 E4.52876
G1 X105.782 Y112.615 E4.56069
G1 X105.642 Y112.951 E4.5728
G1 X105.61 Y113.045 E4.5761
G1 X105.422 Y113.575 E4.5948
G1 X105.233 Y114.213 E4.61693
G1 X105.078 Y114.857 E4.63897
G1 X104.956 Y115.514 E4.66119
G1 X104.869 Y116.172 E4.68327
G1 X104.818 Y116.841 E4.70558
G1 X104.8 Y117.499 E4.72748
G1 X104.823 Y118.246 E4.75233
G1 X104.869 Y118.828 E4.77175
G1 X104.956 Y119.486 E4.79383
G1 X105.077 Y120.141 E4.81598
G1 X105.234 Y120.788 E4.83812
G1 X105.422 Y121.425 E4.86021
G1 X105.632 Y122.021 E4.88123
G1 X105.898 Y122.665 E4.90441
G1 X106.184 Y123.266 E4.92654
G1 X106.502 Y123.85 E4.94866
G1 X106.85 Y124.418 E4.97082
G1 X107.227 Y124.966 E4.99294
G1 X107.694 Y125.566 E5.01823
G1 X108.048 Y125.982 E5.0364
G1 X108.521 Y126.482 E5.05929
G1 X109.534 Y127.39 E5.10453
G1 X110.034 Y127.774 E5.1255
G1 X110.565 Y128.139 E5.14693
G1 X111.195 Y128.523 E5.17147
G1 X111.734 Y128.816 E5.19188
G1 X112.335 Y129.102 E5.21402
G1 X112.934 Y129.35 E5.23558
G1 X113.576 Y129.578 E5.25824
G1 X114.305 Y129.789 E5.28348
G1 X114.859 Y129.923 E5.30244
G1 X115.472 Y130.037 E5.32318
G1 X116.172 Y130.131 E5.34667
G1 X116.791 Y130.179 E5.36732
G1 X117.497 Y130.199 E5.39081
G0 F8400 X117.497 Y130.639
G0 X118.26 Y130.976
;TYPE:WALL-INNER
G1 F2299.7 X118.131 Y130.957 E5.39506
G1 X117.723 Y130.896 E5.40662
G1 X117.597 Y130.904 E5.40982
G1 X117.508 Y130.907 E5.41209
G1 X117.026 Y130.926 E5.42518
G1 X116.83 Y130.956 E5.43104
G1 X116.757 Y130.968 E5.43344
G1 X116.709 Y130.976 E5.43506
G1 X116.18 Y130.936 E5.45271
G1 X115.745 Y130.886 E5.46727
G1 X115.487 Y130.845 E5.47596
G1 X115.348 Y130.824 E5.48062
G1 X115.049 Y130.776 E5.49069
G1 X114.696 Y130.704 E5.50267
G1 X114.641 Y130.693 E5.50453
G1 X114.578 Y130.68 E5.50667
G1 X114.136 Y130.574 E5.52179
G1 X113.661 Y130.444 E5.53817
G1 X113.453 Y130.381 E5.5454
G1 X112.788 Y130.153 E5.56878
G1 X112.378 Y129.992 E5.58343
G1 X112.241 Y129.929 E5.58845
G1 X112.009 Y129.822 E5.59684
G1 X111.419 Y129.55 E5.61815
G1 X111.318 Y129.471 E5.62233
G1 X111.046 Y129.256 E5.63222
G1 X110.841 Y129.138 E5.6384
G1 X110.551 Y128.971 E5.64716
G1 X110.204 Y128.831 E5.65796
G1 X110.117 Y128.796 E5.66104
G1 X109.635 Y128.473 E5.68022
G1 X109.288 Y128.217 E5.69456
G1 X109.116 Y128.078 E5.70192
G1 X109.029 Y128.007 E5.70564
G1 X108.731 Y127.766 E5.71839
G1 X108.384 Y127.458 E5.73382
G1 X108.046 Y127.139 E5.74928
G1 X107.956 Y127.047 E5.75356
G1 X107.55 Y126.627 E5.77296
G1 X107.251 Y126.289 E5.78797
G1 X106.967 Y125.947 E5.80276
G1 X106.841 Y125.772 E5.80993
G1 X106.593 Y125.427 E5.82378
G1 X106.207 Y124.89 E5.84525
G1 X106.163 Y124.783 E5.84903
G1 X105.986 Y124.36 E5.86203
G1 X105.895 Y124.211 E5.86648
G1 X105.688 Y123.873 E5.87696
G1 X105.536 Y123.685 E5.88389
G1 X105.446 Y123.574 E5.88854
G1 X105.175 Y122.996 E5.90958
G1 X105.097 Y122.831 E5.91565
G1 X105.024 Y122.662 E5.92178
G1 X104.888 Y122.307 E5.93442
G1 X104.771 Y122.004 E5.94522
G1 X104.663 Y121.671 E5.95687
G1 X104.641 Y121.602 E5.95927
G1 X104.559 Y121.35 E5.96809
G1 X104.433 Y120.893 E5.98385
G1 X104.322 Y120.432 E5.99962
G1 X104.301 Y120.333 E6.00299
G1 X104.296 Y120.306 E6.0039
G1 X104.286 Y120.257 E6.00556
G1 X104.228 Y119.975 E6.01514
G1 X104.155 Y119.547 E6.02958
G1 X104.142 Y119.429 E6.03353
G1 X104.088 Y118.911 E6.05055
G1 X104.021 Y118.276 E6.07178
G1 X104.031 Y118.21 E6.074
G1 X104.104 Y117.723 E6.08821
G1 X104.096 Y117.597 E6.09141
G1 X104.093 Y117.512 E6.09357
G1 X104.074 Y117.026 E6.10673
G1 X104.051 Y116.878 E6.11104
G1 X104.024 Y116.709 E6.11674
G1 X104.064 Y116.18 E6.13438
G1 X104.075 Y116.085 E6.13756
G1 X104.114 Y115.751 E6.14875
G1 X104.17 Y115.39 E6.1609
G1 X104.192 Y115.247 E6.16569
G1 X104.224 Y115.048 E6.17239
G1 X104.317 Y114.591 E6.1879
G1 X104.426 Y114.136 E6.20346
G1 X104.549 Y113.685 E6.21901
G1 X104.625 Y113.448 E6.22729
G1 X104.663 Y113.33 E6.2314
G1 X104.695 Y113.23 E6.23487
G1 X104.767 Y113.009 E6.24261
G1 X104.926 Y112.582 E6.25776
G1 X104.975 Y112.474 E6.2617
G1 X105.056 Y112.294 E6.26822
G1 X105.451 Y111.418 E6.2999
G1 X105.525 Y111.324 E6.30382
G1 X105.744 Y111.046 E6.31416
G1 X106.029 Y110.551 E6.32968
G1 X106.158 Y110.231 E6.33971
G1 X106.204 Y110.117 E6.34372
G1 X106.527 Y109.635 E6.36295
G1 X106.779 Y109.294 E6.37705
G1 X107.004 Y109.015 E6.38897
G1 X107.034 Y108.978 E6.39055
G1 X107.057 Y108.949 E6.39178
G1 X107.24 Y108.723 E6.40145
G1 X107.542 Y108.384 E6.41655
G1 X107.861 Y108.046 E6.43201
G1 X107.944 Y107.965 E6.43587
G1 X107.961 Y107.949 E6.43665
G1 X108.367 Y107.556 E6.45542
G1 X108.715 Y107.246 E6.47092
G1 X109.052 Y106.969 E6.48543
G1 X109.198 Y106.864 E6.49141
G1 X109.524 Y106.629 E6.50452
G1 X110.11 Y106.207 E6.52803
G1 X110.222 Y106.161 E6.53199
G1 X110.639 Y105.986 E6.54478
G1 X110.796 Y105.891 E6.54947
G1 X111.129 Y105.687 E6.55978
G1 X111.266 Y105.576 E6.56468
G1 X111.425 Y105.446 E6.57151
G1 X112.007 Y105.173 E6.5929
G1 X112.162 Y105.1 E6.59859
G1 X112.317 Y105.033 E6.60421
G1 X112.669 Y104.898 E6.61675
G1 X113.003 Y104.769 E6.62866
G1 X113.357 Y104.655 E6.64103
G1 X113.645 Y104.561 E6.6511
G1 X114.002 Y104.463 E6.66342
G1 X114.108 Y104.433 E6.66708
G1 X114.558 Y104.324 E6.68248
G1 X114.698 Y104.296 E6.68723
G1 X114.785 Y104.278 E6.69018
G1 X115.025 Y104.228 E6.69833
G1 X115.464 Y104.153 E6.71314
G1 X115.981 Y104.086 E6.73048
G1 X116.219 Y104.061 E6.73844
G1 X116.725 Y104.023 E6.75532
G1 X116.775 Y104.032 E6.75701
G1 X116.882 Y104.05 E6.76044
G1 X116.984 Y104.068 E6.76341
G1 X117.168 Y104.085 E6.76855
G1 X117.261 Y104.104 E6.77105
G1 X117.404 Y104.096 E6.77469
G1 X117.496 Y104.093 E6.77703
G1 X117.974 Y104.074 E6.79002
G1 X118.172 Y104.043 E6.79594
G1 X118.242 Y104.032 E6.79825
G1 X118.291 Y104.024 E6.7999
G1 X118.82 Y104.064 E6.81755
G1 X119.255 Y104.114 E6.83211
G1 X119.506 Y104.154 E6.84056
G1 X119.619 Y104.171 E6.84435
G1 X119.676 Y104.18 E6.84626
G1 X119.952 Y104.224 E6.85556
G1 X120.422 Y104.32 E6.87151
G1 X120.865 Y104.426 E6.88667
G1 X121.329 Y104.553 E6.90267
G1 X121.594 Y104.639 E6.91193
G1 X121.673 Y104.664 E6.91468
G1 X121.747 Y104.688 E6.91726
G1 X121.999 Y104.77 E6.92608
G1 X122.408 Y104.922 E6.94059
G1 X122.5 Y104.964 E6.94395
G1 X122.985 Y105.182 E6.96128
G1 X123.58 Y105.45 E6.98253
G1 X123.686 Y105.534 E6.98694
G1 X124.008 Y105.79 E6.99843
G1 X124.117 Y105.844 E7.00151
G1 X124.203 Y105.89 E7.00398
G1 X124.573 Y106.087 E7.0152
G1 X124.774 Y106.164 E7.02145
G1 X124.888 Y106.208 E7.02543
G1 X125.349 Y106.516 E7.04376
