;FLAVOR:Marlin
;TIME:478
;Filament used: 0.284763m
;Layer height: 0.2
;MINX:88.788
;MINY:88.271
;MINZ:0.2
;MAXX:146.216
;MAXY:146.716
;MAXZ:1
;Generated with Cura_SteamEngine 4.5.0
M82 ;absolute extrusion mode
M201 X500 Y500 Z100 E5000 ;Setup machine max acceleration
M203 X500 Y500 Z10 E50 ;Setup machine max feedrate
M204 P500 T500 ;Setup Print/Travel acceleration
M205 X10 Y10 Z0.4 E5 ;Setup Jerk
;M207 F45 S2 Z0.2 ;Setup firmware-based retraction
;M208 F45 S0 ;Setup firmware-based retraction (recovery)
M209 S0 ;Disable Auto Retract
M104 S205.0 ;Start heating extruder
M140 S60 ;Start heating bed
G28 ;Home all axes
G29 J ;Adjust the existing mesh to the bed tilt
G0 X255 F5000 ;Move over purge bucket
M109 S205.0 ;Wait for extruder to reach temp before proceeding
G92 E0 ;Zero the extruded length
G1 E15 F50 ;Purge nozzle
G92 E0 ;Zero the extruded length again
G12 ;Clean the nozzle
M190 S60 ;Wait for bed to reach temp before proceeding
M109 S205.0 ; Wait for extruder to reach temp before proceeding
M220 S100 ;Reset Feedrate
M221 S100 ;Reset Flowrate
G92 E0
G92 E0
G1 F2700 E-2
;LAYER_COUNT:5
;LAYER:0
M107
G0 F6000 X91.831 Y91.693 Z0.2
;TYPE:SKIRT
G1 F2700 E0
G1 F1200 X92.507 Y91.043 E0.03119
G1 X93.235 Y90.453 E0.06236
G1 X94.012 Y89.927 E0.09357
G1 X94.83 Y89.469 E0.12475
G1 X95.685 Y89.082 E0.15596
G1 X96.569 Y88.769 E0.18715
G1 X97.477 Y88.534 E0.21835
G1 X98.401 Y88.376 E0.24953
G1 X99.584 Y88.29 E0.28898
G1 X100.705 Y88.271 E0.32627
G1 X107.248 Y88.272 E0.54389
G1 X107.946 Y88.282 E0.56711
G1 X108.577 Y88.309 E0.58811
G1 X109.032 Y88.343 E0.60329
G1 X111.092 Y88.517 E0.67205
G1 X113.629 Y88.659 E0.75656
G1 X116.154 Y88.73 E0.84058
G1 X118.679 Y88.73 E0.92456
G1 X121.164 Y88.659 E1.00724
G1 X123.688 Y88.515 E1.09133
G1 X126.047 Y88.318 E1.17006
G1 X126.818 Y88.281 E1.19573
G1 X127.65 Y88.271 E1.22341
G1 X134.68 Y88.272 E1.45723
G1 X135.376 Y88.282 E1.48038
G1 X136.312 Y88.336 E1.51156
G1 X137.241 Y88.469 E1.54278
G1 X138.154 Y88.68 E1.57394
G1 X139.047 Y88.969 E1.60516
G1 X139.911 Y89.332 E1.63633
G1 X140.742 Y89.768 E1.66754
G1 X141.532 Y90.274 E1.69875
G1 X142.276 Y90.844 E1.72992
G1 X142.969 Y91.476 E1.76111
G1 X143.606 Y92.165 E1.79232
G1 X144.182 Y92.905 E1.82351
G1 X144.692 Y93.692 E1.85471
G1 X145.134 Y94.519 E1.88589
G1 X145.503 Y95.381 E1.91708
G1 X145.798 Y96.271 E1.94827
G1 X146.016 Y97.184 E1.97949
G1 X146.156 Y98.111 E2.01067
G1 X146.216 Y99.047 E2.04186
G1 X146.195 Y99.985 E2.07307
G1 X146.132 Y100.651 E2.09532
G1 X145.834 Y103.025 E2.1749
G1 X145.583 Y105.58 E2.26029
G1 X145.408 Y108.095 E2.34414
G1 X145.305 Y110.617 E2.42809
G1 X145.272 Y113.11 E2.51101
G1 X145.312 Y115.637 E2.59507
G1 X145.421 Y118.156 E2.67893
G1 X145.602 Y120.671 E2.7628
G1 X145.853 Y123.161 E2.84604
G1 X146.075 Y124.894 E2.90415
G1 X146.134 Y125.41 E2.92142
G1 X146.2 Y126.328 E2.95203
G1 X146.21 Y126.659 E2.96305
G1 X146.215 Y126.991 E2.97409
G1 X146.214 Y127.661 E2.99638
G1 X146.19 Y129.278 E3.05016
G1 X146.157 Y130.445 E3.08899
G1 X146.159 Y132.585 E3.16017
G1 X146.152 Y133.166 E3.1795
G1 X146.096 Y134.149 E3.21224
G1 X146.055 Y134.551 E3.22568
G1 X145.878 Y135.692 E3.26409
G1 X145.826 Y135.94 E3.27252
G1 X145.575 Y136.912 E3.3059
G1 X145.497 Y137.166 E3.31474
G1 X145.184 Y138.05 E3.34593
G1 X144.865 Y138.766 E3.372
G1 X144.672 Y139.161 E3.38663
G1 X144.225 Y139.985 E3.4178
G1 X143.629 Y140.878 E3.45351
G1 X143.298 Y141.325 E3.47201
G1 X142.708 Y142.054 E3.50321
G1 X142.063 Y142.726 E3.53419
G1 X141.854 Y142.926 E3.54381
G1 X141.002 Y143.662 E3.58125
G1 X140.813 Y143.809 E3.58922
G1 X140.049 Y144.353 E3.62041
G1 X139.593 Y144.633 E3.63821
G1 X139.172 Y144.878 E3.65441
G1 X138.225 Y145.37 E3.68991
G1 X137.959 Y145.492 E3.69964
G1 X136.651 Y145.993 E3.74623
G1 X136.273 Y146.111 E3.7594
G1 X135.376 Y146.35 E3.79027
G1 X135.173 Y146.395 E3.79719
G1 X134.437 Y146.532 E3.82209
G1 X134.199 Y146.568 E3.83009
G1 X133.629 Y146.639 E3.8492
G1 X133.405 Y146.661 E3.85668
G1 X132.573 Y146.711 E3.88441
G1 X132.347 Y146.716 E3.89192
G1 X131.486 Y146.702 E3.92057
G1 X130.589 Y146.652 E3.95045
G1 X127.958 Y146.527 E4.03805
G1 X125.471 Y146.479 E4.12079
G1 X122.872 Y146.503 E4.20723
G1 X121.876 Y146.533 E4.24037
G1 X121.071 Y146.542 E4.26715
G1 X114.035 Y146.541 E4.50117
G1 X113.337 Y146.531 E4.52439
G1 X112.401 Y146.477 E4.55557
G1 X111.473 Y146.345 E4.58675
G1 X110.559 Y146.133 E4.61795
G1 X109.667 Y145.844 E4.64914
G1 X108.802 Y145.481 E4.68034
G1 X107.972 Y145.045 E4.71152
G1 X107.181 Y144.54 E4.74274
G1 X106.437 Y143.969 E4.77393
G1 X105.744 Y143.337 E4.80512
G1 X105.107 Y142.649 E4.83631
G1 X104.532 Y141.908 E4.86751
G1 X104.021 Y141.122 E4.89869
G1 X103.579 Y140.294 E4.9299
G1 X103.299 Y139.66 E4.95296
G1 X103.006 Y138.928 E4.97918
G1 X89.658 Y103.623 E6.23455
G1 X89.442 Y103.025 E6.2557
G1 X89.161 Y102.13 E6.2869
G1 X88.958 Y101.215 E6.31807
G1 X88.833 Y100.285 E6.34928
G1 X88.788 Y99.348 E6.38048
G1 X88.823 Y98.411 E6.41167
G1 X88.938 Y97.48 E6.44287
G1 X89.131 Y96.562 E6.47407
G1 X89.402 Y95.665 E6.50524
G1 X89.748 Y94.793 E6.53644
G1 X90.168 Y93.954 E6.56765
G1 X90.657 Y93.154 E6.59883
G1 X91.213 Y92.399 E6.63002
G1 X91.831 Y91.693 E6.66122
G0 F6000 X92.273 Y91.812
G1 F1200 X92.951 Y91.188 E6.69187
G1 X93.679 Y90.625 E6.72248
G1 X94.454 Y90.128 E6.7531
G1 X95.269 Y89.7 E6.78372
G1 X96.118 Y89.344 E6.81434
G1 X96.995 Y89.063 E6.84497
G1 X97.892 Y88.859 E6.87557
G1 X98.805 Y88.734 E6.90622
G1 X99.592 Y88.69 E6.93243
G1 X100.705 Y88.671 E6.96946
G1 X107.242 Y88.672 E7.18688
G1 X107.94 Y88.682 E7.2101
G1 X108.548 Y88.708 E7.23034
G1 X108.998 Y88.741 E7.24534
G1 X111.106 Y88.919 E7.31571
G1 X113.596 Y89.059 E7.39865
G1 X116.143 Y89.13 E7.4834
G1 X118.655 Y89.13 E7.56695
G1 X121.199 Y89.057 E7.6516
G1 X123.743 Y88.912 E7.73635
G1 X126.08 Y88.717 E7.81435
G1 X126.823 Y88.681 E7.83909
G1 X127.65 Y88.671 E7.8666
G1 X134.674 Y88.672 E8.10022
G1 X135.37 Y88.682 E8.12337
G1 X136.289 Y88.735 E8.15399
G1 X137.2 Y88.868 E8.18461
G1 X138.097 Y89.079 E8.21526
G1 X138.971 Y89.368 E8.24587
G1 X139.817 Y89.731 E8.27649
G1 X140.628 Y90.166 E8.3071
G1 X141.399 Y90.67 E8.33774
G1 X142.123 Y91.238 E8.36834
G1 X142.795 Y91.868 E8.39898
G1 X143.409 Y92.553 E8.42958
G1 X143.962 Y93.289 E8.4602
G1 X144.449 Y94.071 E8.49084
G1 X144.866 Y94.891 E8.52143
G1 X145.211 Y95.745 E8.55207
G1 X145.48 Y96.626 E8.58271
G1 X145.672 Y97.526 E8.61331
G1 X145.785 Y98.44 E8.64395
G1 X145.818 Y99.36 E8.67456
G1 X145.735 Y100.601 E8.71593
G1 X145.431 Y103.022 E8.79709
G1 X145.187 Y105.512 E8.8803
G1 X145.008 Y108.087 E8.96615
G1 X144.905 Y110.595 E9.04964
G1 X144.872 Y113.111 E9.13333
G1 X144.912 Y115.66 E9.21812
G1 X145.021 Y118.169 E9.30165
G1 X145.203 Y120.704 E9.38618
G1 X145.456 Y123.215 E9.47012
G1 X145.677 Y124.94 E9.52796
G1 X145.736 Y125.456 E9.54524
G1 X145.8 Y126.34 E9.57472
G1 X145.815 Y126.991 E9.59637
G1 X145.814 Y127.655 E9.61846
G1 X145.79 Y129.266 E9.67205
G1 X145.757 Y130.434 E9.71091
G1 X145.759 Y132.58 E9.78229
G1 X145.752 Y133.161 E9.80161
G1 X145.698 Y134.109 E9.83319
G1 X145.657 Y134.511 E9.84663
G1 X145.486 Y135.61 E9.88363
G1 X145.434 Y135.858 E9.89205
G1 X145.193 Y136.795 E9.92423
G1 X145.115 Y137.049 E9.93307
G1 X144.807 Y137.916 E9.96367
G1 X144.506 Y138.59 E9.98822
G1 X144.313 Y138.985 E10.00285
G1 X143.873 Y139.794 E10.03348
G1 X143.308 Y140.64 E10.06731
G1 X142.977 Y141.087 E10.08581
G1 X142.397 Y141.802 E10.11643
G1 X141.787 Y142.437 E10.14572
G1 X141.578 Y142.637 E10.15534
G1 X140.757 Y143.346 E10.19142
G1 X140.568 Y143.493 E10.19938
G1 X139.817 Y144.026 E10.23001
G1 X139.392 Y144.288 E10.24662
G1 X138.971 Y144.533 E10.26282
G1 X138.058 Y145.006 E10.29702
G1 X137.792 Y145.128 E10.30675
G1 X136.532 Y145.611 E10.35163
G1 X136.154 Y145.729 E10.36481
G1 X135.289 Y145.96 E10.39458
G1 X135.086 Y146.005 E10.4015
G1 X134.377 Y146.137 E10.42549
G1 X134.139 Y146.173 E10.43349
G1 X133.59 Y146.241 E10.45189
G1 X133.366 Y146.263 E10.45938
G1 X132.564 Y146.311 E10.4861
G1 X132.338 Y146.316 E10.49362
G1 X131.509 Y146.302 E10.52119
G1 X130.634 Y146.253 E10.55034
G1 X127.985 Y146.127 E10.63855
G1 X125.475 Y146.079 E10.72205
G1 X122.899 Y146.103 E10.80773
G1 X121.872 Y146.133 E10.8419
G1 X121.071 Y146.142 E10.86854
G1 X114.041 Y146.141 E11.10236
G1 X113.343 Y146.131 E11.12558
G1 X112.424 Y146.078 E11.1562
G1 X111.513 Y145.945 E11.18682
G1 X110.617 Y145.734 E11.21744
G1 X109.743 Y145.446 E11.24804
G1 X108.896 Y145.083 E11.27869
G1 X108.085 Y144.648 E11.3093
G1 X107.315 Y144.144 E11.33991
G1 X106.591 Y143.575 E11.37054
G1 X105.919 Y142.945 E11.40117
G1 X105.304 Y142.26 E11.43179
G1 X104.751 Y141.524 E11.46241
G1 X104.264 Y140.743 E11.49302
G1 X103.67 Y139.51 E11.53854
G1 X103.38 Y138.787 E11.56445
G1 X90.034 Y103.487 E12.81965
G1 X89.818 Y102.889 E12.84079
G1 X89.544 Y102.01 E12.87142
G1 X89.346 Y101.111 E12.90203
G1 X89.227 Y100.198 E12.93266
G1 X89.188 Y99.278 E12.96328
G1 X89.229 Y98.359 E12.99388
G1 X89.349 Y97.446 E13.02451
G1 X89.548 Y96.547 E13.05513
G1 X89.825 Y95.669 E13.08575
G1 X90.177 Y94.818 E13.11638
G1 X90.601 Y94.001 E13.147
G1 X91.094 Y93.224 E13.17761
G1 X91.653 Y92.492 E13.20824
G1 X92.273 Y91.812 E13.23885
G0 F6000 X92.717 Y91.937
G1 F1200 X93.395 Y91.34 E13.26889
G1 X94.123 Y90.806 E13.29892
G1 X94.895 Y90.338 E13.32895
G1 X95.706 Y89.94 E13.359
G1 X96.549 Y89.616 E13.38903
G1 X97.417 Y89.367 E13.41907
G1 X98.304 Y89.197 E13.44911
G1 X99.599 Y89.09 E13.49232
G1 X100.705 Y89.071 E13.52912
G1 X107.236 Y89.072 E13.74634
G1 X107.934 Y89.082 E13.76956
G1 X108.519 Y89.107 E13.78903
G1 X108.964 Y89.14 E13.80387
G1 X111.05 Y89.316 E13.8735
G1 X113.597 Y89.459 E13.95835
G1 X116.132 Y89.53 E14.04269
G1 X118.667 Y89.53 E14.12701
G1 X121.231 Y89.457 E14.21232
G1 X123.727 Y89.314 E14.29547
G1 X126.114 Y89.115 E14.37514
G1 X126.829 Y89.081 E14.39895
G1 X127.65 Y89.071 E14.42626
G1 X134.669 Y89.072 E14.65971
G1 X135.365 Y89.082 E14.68286
G1 X136.266 Y89.135 E14.71288
G1 X137.159 Y89.267 E14.74291
G1 X138.038 Y89.478 E14.77297
G1 X138.894 Y89.766 E14.80301
G1 X139.721 Y90.129 E14.83305
G1 X140.513 Y90.563 E14.86309
G1 X141.263 Y91.065 E14.89311
G1 X141.966 Y91.632 E14.92314
G1 X142.616 Y92.259 E14.95318
G1 X143.208 Y92.941 E14.98322
G1 X143.738 Y93.673 E15.01328
G1 X144.2 Y94.448 E15.04329
G1 X144.593 Y95.262 E15.07335
G1 X144.911 Y96.107 E15.10338
G1 X145.154 Y96.977 E15.13342
G1 X145.319 Y97.864 E15.16343
G1 X145.405 Y98.763 E15.19347
G1 X145.411 Y99.667 E15.22354
G1 X145.339 Y100.551 E15.25304
G1 X145.031 Y103.006 E15.33533
G1 X144.785 Y105.516 E15.41921
G1 X144.609 Y108.043 E15.50347
G1 X144.505 Y110.573 E15.58768
G1 X144.472 Y113.111 E15.67211
G1 X144.512 Y115.685 E15.75773
G1 X144.621 Y118.179 E15.84076
G1 X144.805 Y120.737 E15.92606
G1 X145.06 Y123.27 E16.01073
G1 X145.28 Y124.985 E16.06824
G1 X145.339 Y125.501 E16.08551
G1 X145.4 Y126.352 E16.11389
G1 X145.415 Y126.991 E16.13515
G1 X145.414 Y127.649 E16.15703
G1 X145.39 Y129.255 E16.21046
G1 X145.357 Y130.423 E16.24932
G1 X145.359 Y132.575 E16.3209
G1 X145.352 Y133.156 E16.34022
G1 X145.3 Y134.068 E16.3706
G1 X145.259 Y134.47 E16.38404
G1 X145.095 Y135.528 E16.41965
G1 X145.043 Y135.776 E16.42808
G1 X144.811 Y136.677 E16.45903
G1 X144.733 Y136.931 E16.46786
G1 X144.43 Y137.782 E16.49791
G1 X144.147 Y138.415 E16.52097
G1 X143.954 Y138.81 E16.53559
G1 X143.522 Y139.603 E16.56563
G1 X142.986 Y140.402 E16.59763
G1 X142.655 Y140.849 E16.61613
G1 X142.086 Y141.55 E16.64616
G1 X141.51 Y142.148 E16.67377
G1 X141.301 Y142.348 E16.68339
G1 X140.511 Y143.03 E16.71811
G1 X140.322 Y143.177 E16.72607
G1 X139.585 Y143.7 E16.75613
G1 X139.19 Y143.942 E16.77153
G1 X138.769 Y144.187 E16.78774
G1 X137.891 Y144.642 E16.82063
G1 X137.625 Y144.764 E16.83036
G1 X136.412 Y145.23 E16.87358
G1 X136.034 Y145.348 E16.88675
G1 X135.202 Y145.569 E16.91538
G1 X134.999 Y145.614 E16.9223
G1 X134.318 Y145.741 E16.94534
G1 X134.08 Y145.777 E16.95334
G1 X133.551 Y145.843 E16.97108
G1 X133.327 Y145.865 E16.97856
G1 X132.556 Y145.912 E17.00425
G1 X132.33 Y145.917 E17.01177
G1 X131.531 Y145.903 E17.03835
G1 X130.672 Y145.855 E17.06696
G1 X127.977 Y145.727 E17.1567
G1 X125.479 Y145.679 E17.2398
G1 X122.882 Y145.703 E17.32618
G1 X121.867 Y145.733 E17.35996
G1 X121.071 Y145.742 E17.38643
G1 X114.047 Y145.741 E17.62005
G1 X113.349 Y145.731 E17.64327
G1 X112.447 Y145.678 E17.67332
G1 X111.554 Y145.546 E17.70335
G1 X110.676 Y145.335 E17.73338
G1 X109.82 Y145.047 E17.76342
G1 X108.993 Y144.685 E17.79344
G1 X108.201 Y144.25 E17.8235
G1 X107.45 Y143.748 E17.85354
G1 X106.747 Y143.181 E17.88358
G1 X106.097 Y142.554 E17.91362
G1 X105.505 Y141.872 E17.94366
G1 X104.975 Y141.141 E17.97369
G1 X104.513 Y140.365 E18.00373
G1 X104.04 Y139.36 E18.04067
G1 X103.754 Y138.645 E18.06628
G1 X90.411 Y103.351 E19.32125
G1 X90.195 Y102.753 E19.3424
G1 X89.926 Y101.891 E19.37243
G1 X89.734 Y101.008 E19.40249
G1 X89.621 Y100.112 E19.43253
G1 X89.588 Y99.21 E19.46255
G1 X89.635 Y98.308 E19.49259
G1 X89.762 Y97.414 E19.52262
G1 X89.967 Y96.534 E19.55267
G1 X90.249 Y95.676 E19.58271
G1 X90.606 Y94.847 E19.61273
G1 X91.034 Y94.052 E19.64276
G1 X91.532 Y93.298 E19.67282
G1 X92.094 Y92.591 E19.70286
G1 X92.717 Y91.937 E19.7329
G1 F2700 E17.7329
;MESH:AA-Label.stl
G0 F6000 X116.931 Y123.158
G0 X115.204 Y123.772
G0 X117.144 Y127.034
G0 X118.266 Y127.602
;TYPE:WALL-INNER
G1 F2700 E19.7329
G1 F1200 X123.433 Y112.555 E20.26205
G1 X123.523 Y112.292 E20.27129
G1 X123.246 Y112.292 E20.27676
G1 X123.244 Y112.292 E20.27682
G1 X111.592 Y112.292 E20.66437
G1 X111.591 Y112.292 E20.6644
G1 X111.31 Y112.292 E20.67375
G1 X111.404 Y112.557 E20.67928
G1 X116.744 Y127.602 E21.21027
G1 X118.266 Y127.602 E21.26089
G0 F6000 X117.98 Y127.202
G1 F1200 X122.873 Y112.955 E21.76191
G1 X122.963 Y112.692 E21.77116
G1 X122.686 Y112.692 E21.77662
G1 X122.684 Y112.692 E21.77669
G1 X112.158 Y112.692 E22.12679
G1 X112.157 Y112.692 E22.12682
G1 X111.876 Y112.692 E22.13616
G1 X111.97 Y112.957 E22.1417
G1 X117.026 Y127.202 E22.64445
G1 X117.98 Y127.202 E22.67618
G0 F6000 X117.694 Y126.802
;TYPE:WALL-OUTER
G1 F1200 X122.403 Y113.092 E23.15832
G1 X112.442 Y113.092 E23.48963
G1 X117.308 Y126.802 E23.97349
G1 X117.694 Y126.802 E23.98633
G1 F2700 E21.98633
G0 F6000 X117.694 Y127.102
G0 X117.828 Y127.048
G0 X119.616 Y124.197
G0 X117.879 Y123.601
G0 X124.43 Y130.049
G0 X122.673 Y129.393
G0 X120.972 Y134.542
;TYPE:WALL-INNER
G1 F2700 E23.98633
G1 F1200 X114.177 Y134.542 E24.21233
G1 X101.319 Y100.54 E25.4214
G1 X101.218 Y100.271 E25.43096
G1 X101.505 Y100.271 E25.43658
G1 X101.506 Y100.271 E25.43661
G1 X107.089 Y100.271 E25.62231
G1 X109.934 Y108.348 E25.90713
G1 X124.923 Y108.348 E26.40566
G1 X127.666 Y100.271 E26.68937
G1 X133.5 Y100.271 E26.88341
G1 X133.501 Y100.271 E26.88345
G1 X133.787 Y100.271 E26.89296
G1 X133.687 Y100.539 E26.89857
G1 X120.972 Y134.542 E28.106
G0 F6000 X121.25 Y134.942
G1 F1200 X113.901 Y134.942 E28.35043
G1 X100.74 Y100.14 E29.58795
G1 X100.639 Y99.871 E29.59751
G1 X100.926 Y99.871 E29.60313
G1 X100.927 Y99.871 E29.60316
G1 X107.372 Y99.871 E29.81752
G1 X110.217 Y107.948 E30.10234
G1 X124.636 Y107.948 E30.58192
G1 X127.379 Y99.871 E30.86563
G1 X134.077 Y99.871 E31.08841
G1 X134.078 Y99.871 E31.08844
G1 X134.364 Y99.871 E31.09796
G1 X134.264 Y100.139 E31.10357
G1 X121.25 Y134.942 E32.3394
G0 F6000 X121.528 Y135.342
;TYPE:WALL-OUTER
G1 F1200 X113.625 Y135.342 E32.60226
G1 X100.06 Y99.471 E33.87779
G1 X107.655 Y99.471 E34.1304
G1 X110.5 Y107.548 E34.41522
G1 X124.349 Y107.548 E34.87584
G1 X127.092 Y99.471 E35.15955
G1 X134.941 Y99.471 E35.42061
G1 X121.528 Y135.342 E36.69436
G0 F6000 X121.334 Y135.06
G0 X120.962 Y134.25
G0 X120.702 Y134.152
;TYPE:SKIN
G1 F1200 X114.446 Y134.152 E36.90244
G1 X101.782 Y100.661 E38.09333
G1 X106.813 Y100.661 E38.26066
G1 X109.657 Y108.738 E38.54547
G1 X125.202 Y108.738 E39.0625
G1 X127.945 Y100.661 E39.34621
G1 X133.225 Y100.661 E39.52182
G1 X120.702 Y134.152 E40.71107
G1 F2700 E38.71107
G0 F6000 X120.962 Y134.251
G0 X122.695 Y129.334
G0 X124.452 Y129.99
G0 X117.879 Y123.601
G0 X119.616 Y124.197
G0 X118.358 Y127.712
G0 X118.545 Y127.992
G1 F2700 E40.71107
G1 F1200 X124.069 Y111.902 E41.27688
G1 X110.758 Y111.902 E41.71961
