;FLAVOR:Marlin
;TIME:22680
;Filament used: 13.8091m
;Layer height: 0.2
;MINX:63.564
;MINY:66.812
;MINZ:0.2
;MAXX:171.445
;MAXY:168.187
;MAXZ:50.8
;Generated with Cura_SteamEngine 4.5.0
M82 ;absolute extrusion mode
M201 X500 Y500 Z100 E5000 ;Setup machine max acceleration
M203 X500 Y500 Z10 E50 ;Setup machine max feedrate
M204 P500 T500 ;Setup Print/Travel acceleration
M205 X10 Y10 Z0.4 E5 ;Setup Jerk
;M207 F45 S2 Z0.2 ;Setup firmware-based retraction
;M208 F45 S0 ;Setup firmware-based retraction (recovery)
M209 S0 ;Disable Auto Retract
M104 S205.0 ;Start heating extruder
M140 S60 ;Start heating bed
G28 ;Home all axes
G29 J ;Adjust the existing mesh to the bed tilt
G0 X255 F5000 ;Move over purge bucket
M109 S205.0 ;Wait for extruder to reach temp before proceeding
G92 E0 ;Zero the extruded length
G1 E15 F50 ;Purge nozzle
G92 E0 ;Zero the extruded length again
G12 ;Clean the nozzle
M190 S60 ;Wait for bed to reach temp before proceeding
M109 S205.0 ; Wait for extruder to reach temp before proceeding
M220 S100 ;Reset Feedrate
M221 S100 ;Reset Flowrate
G92 E0
G92 E0
G1 F2700 E-2
;LAYER_COUNT:254
;LAYER:0
M107
G0 F6000 X69.413 Y133.12 Z0.2
;TYPE:SKIRT
G1 F2700 E0
G1 F1200 X70.252 Y132.701 E0.03119
G1 X71.124 Y132.356 E0.06238
G1 X72.274 Y132.026 E0.10217
G1 X72.813 Y131.903 E0.12056
G1 X74.615 Y131.513 E0.18189
G1 X77.023 Y130.919 E0.26438
G1 X79.475 Y130.24 E0.349
G1 X81.855 Y129.509 E0.43181
G1 X84.258 Y128.696 E0.51618
G1 X86.624 Y127.819 E0.60011
G1 X88.939 Y126.886 E0.68312
G1 X91.282 Y125.864 E0.76814
G1 X93.534 Y124.804 E0.85093
G1 X95.786 Y123.667 E0.93483
G1 X97.989 Y122.474 E1.01816
G1 X100.159 Y121.219 E1.10154
G1 X102.313 Y119.89 E1.18572
G1 X104.428 Y118.5 E1.26989
G1 X106.488 Y117.063 E1.35343
G1 X108.512 Y115.564 E1.4372
G1 X110.493 Y114.008 E1.52099
G1 X112.412 Y112.41 E1.60405
G1 X114.314 Y110.733 E1.68838
G1 X116.154 Y109.017 E1.77207
G1 X117.926 Y107.267 E1.8549
G1 X119.684 Y105.43 E1.93947
G1 X121.387 Y103.548 E2.02389
G1 X123.004 Y101.654 E2.10672
G1 X124.581 Y99.701 E2.19021
G1 X126.11 Y97.689 E2.27426
G1 X127.578 Y95.641 E2.35807
G1 X128.989 Y93.552 E2.44191
G1 X130.32 Y91.454 E2.52455
G1 X131.636 Y89.245 E2.61007
G1 X132.839 Y87.09 E2.69216
G1 X134.012 Y84.839 E2.77658
G1 X135.119 Y82.561 E2.86082
G1 X136.141 Y80.296 E2.94347
G1 X137.203 Y77.75 E3.03522
G1 X137.534 Y76.921 E3.06491
G1 X137.918 Y76.066 E3.09608
G1 X138.374 Y75.246 E3.12729
G1 X138.898 Y74.468 E3.15849
G1 X139.486 Y73.738 E3.18967
G1 X139.824 Y73.37 E3.20628
G1 X140.38 Y72.796 E3.23286
G1 X142.777 Y70.401 E3.34556
G1 X143.258 Y69.934 E3.36786
G1 X143.958 Y69.31 E3.39905
G1 X144.708 Y68.748 E3.43022
G1 X145.504 Y68.252 E3.46142
G1 X146.34 Y67.825 E3.49264
G1 X147.208 Y67.471 E3.52382
G1 X148.104 Y67.193 E3.55502
G1 X149.02 Y66.991 E3.58622
G1 X149.95 Y66.869 E3.61742
G1 X150.646 Y66.829 E3.6406
G1 X151.482 Y66.812 E3.66842
G1 X159.896 Y66.813 E3.94827
G1 X160.594 Y66.823 E3.97148
G1 X161.53 Y66.877 E4.00267
G1 X162.458 Y67.009 E4.03384
G1 X163.372 Y67.221 E4.06505
G1 X164.264 Y67.51 E4.09624
G1 X165.129 Y67.873 E4.12744
G1 X165.959 Y68.309 E4.15862
G1 X166.75 Y68.814 E4.18983
G1 X167.494 Y69.385 E4.22103
G1 X168.187 Y70.017 E4.25222
G1 X168.824 Y70.705 E4.28341
G1 X169.399 Y71.446 E4.3146
G1 X169.91 Y72.232 E4.34578
G1 X170.352 Y73.06 E4.377
G1 X170.721 Y73.922 E4.40819
G1 X171.016 Y74.812 E4.43937
G1 X171.234 Y75.724 E4.47056
G1 X171.374 Y76.652 E4.50178
G1 X171.432 Y77.513 E4.53048
G1 X171.445 Y78.142 E4.5514
G1 X171.445 Y153.276 E7.05037
G1 X171.444 Y153.427 E7.05539
G1 X171.434 Y154.154 E7.07957
G1 X171.381 Y155.091 E7.11079
G1 X171.249 Y156.019 E7.14197
G1 X171.038 Y156.933 E7.17316
G1 X170.749 Y157.825 E7.20435
G1 X170.386 Y158.69 E7.23555
G1 X169.951 Y159.521 E7.26675
G1 X169.446 Y160.311 E7.29793
G1 X168.876 Y161.056 E7.32913
G1 X168.245 Y161.75 E7.36033
G1 X167.556 Y162.387 E7.39154
G1 X166.816 Y162.963 E7.42273
G1 X166.03 Y163.474 E7.45391
G1 X165.203 Y163.916 E7.4851
G1 X164.341 Y164.286 E7.5163
G1 X163.451 Y164.581 E7.54748
G1 X162.62 Y164.784 E7.57594
G1 X161.569 Y164.996 E7.6116
G1 X160.617 Y165.174 E7.64381
G1 X158.146 Y165.712 E7.72792
G1 X155.748 Y166.304 E7.81007
G1 X153.313 Y166.979 E7.89412
G1 X152.071 Y167.365 E7.93737
G1 X150.904 Y167.714 E7.97789
G1 X149.995 Y167.944 E8.00907
G1 X149.069 Y168.096 E8.04028
G1 X147.984 Y168.173 E8.07646
G1 X147.183 Y168.187 E8.10311
G1 X138.774 Y168.186 E8.38279
G1 X138.077 Y168.176 E8.40598
G1 X136.852 Y168.09 E8.44682
G1 X135.48 Y167.916 E8.49282
G1 X132.775 Y167.605 E8.58338
G1 X130.28 Y167.395 E8.66666
G1 X127.761 Y167.254 E8.75057
G1 X125.231 Y167.183 E8.83475
G1 X122.707 Y167.185 E8.9187
G1 X120.228 Y167.256 E9.00119
G1 X117.693 Y167.401 E9.08564
G1 X115.189 Y167.616 E9.16923
G1 X112.626 Y167.908 E9.25503
G1 X111.367 Y168.078 E9.29728
G1 X110.433 Y168.164 E9.32848
G1 X109.324 Y168.162 E9.36536
G1 X108.009 Y168.093 E9.40916
G1 X105.329 Y167.991 E9.49836
G1 X102.786 Y167.967 E9.58295
G1 X100.291 Y168.015 E9.66594
G1 X97.987 Y168.12 E9.74266
G1 X97.42 Y168.153 E9.76155
G1 X96.747 Y168.172 E9.78394
G1 X95.582 Y168.167 E9.82269
G1 X93.28 Y168.12 E9.89927
G1 X92.619 Y168.097 E9.92127
G1 X92.126 Y168.069 E9.93769
G1 X91.375 Y168.007 E9.96275
G1 X87.779 Y167.648 E10.08295
G1 X87.244 Y167.587 E10.10086
G1 X86.56 Y167.487 E10.12385
G1 X85.177 Y167.239 E10.17059
G1 X83.219 Y166.849 E10.23699
G1 X82.487 Y166.693 E10.26188
G1 X81.662 Y166.484 E10.29019
G1 X80.962 Y166.276 E10.31448
G1 X79.599 Y165.849 E10.36198
G1 X78.954 Y165.638 E10.38455
G1 X78.245 Y165.379 E10.40966
G1 X77.236 Y164.957 E10.44604
G1 X76.559 Y164.656 E10.47068
G1 X76 Y164.389 E10.49128
G1 X75.432 Y164.092 E10.5126
G1 X75.006 Y163.855 E10.52881
G1 X74.366 Y163.49 E10.55332
G1 X73.815 Y163.155 E10.57477
G1 X73.606 Y163.019 E10.58306
G1 X73.249 Y162.776 E10.59742
G1 X73.016 Y162.611 E10.60692
G1 X72.66 Y162.348 E10.62164
G1 X72.007 Y161.845 E10.64906
G1 X71.255 Y161.21 E10.68179
G1 X70.763 Y160.749 E10.70422
G1 X70.43 Y160.422 E10.71974
G1 X69.908 Y159.873 E10.74494
G1 X69.418 Y159.315 E10.76964
G1 X69.075 Y158.91 E10.78729
G1 X68.644 Y158.389 E10.80978
G1 X68.272 Y157.912 E10.8299
G1 X68.094 Y157.671 E10.83986
G1 X67.887 Y157.382 E10.85169
G1 X67.539 Y156.875 E10.87214
G1 X67.158 Y156.305 E10.89494
G1 X66.822 Y155.769 E10.91598
G1 X66.526 Y155.258 E10.93562
G1 X66.303 Y154.852 E10.95103
G1 X65.951 Y154.188 E10.97603
G1 X65.677 Y153.633 E10.99661
G1 X65.562 Y153.383 E11.00577
G1 X65.392 Y152.994 E11.01989
G1 X65.115 Y152.325 E11.04397
G1 X64.845 Y151.603 E11.06961
G1 X64.549 Y150.717 E11.10068
G1 X64.294 Y149.83 E11.13137
G1 X64.071 Y148.913 E11.16276
G1 X63.871 Y147.88 E11.19776
G1 X63.717 Y146.809 E11.23374
G1 X63.657 Y146.316 E11.25026
G1 X63.627 Y146.01 E11.26049
G1 X63.585 Y145.411 E11.28046
G1 X63.574 Y145.156 E11.28895
G1 X63.564 Y144.66 E11.30545
G1 X63.565 Y144.165 E11.32191
G1 X63.587 Y143.487 E11.34448
G1 X63.633 Y142.766 E11.36851
G1 X63.712 Y141.98 E11.39478
G1 X63.772 Y141.54 E11.40955
G1 X63.869 Y140.947 E11.42954
G1 X63.91 Y140.734 E11.43675
G1 X64.218 Y139.513 E11.47863
G1 X64.532 Y138.629 E11.50983
G1 X64.92 Y137.775 E11.54103
G1 X65.379 Y136.958 E11.5722
G1 X65.907 Y136.182 E11.60342
G1 X66.498 Y135.454 E11.63461
G1 X67.149 Y134.779 E11.6658
G1 X67.856 Y134.162 E11.69701
G1 X68.612 Y133.608 E11.72818
G1 X69.413 Y133.12 E11.75938
G0 F6000 X69.74 Y133.397
G1 F1200 X70.57 Y132.999 E11.78999
G1 X71.432 Y132.675 E11.82062
G1 X72.363 Y132.416 E11.85276
G1 X72.898 Y132.294 E11.87101
G1 X74.69 Y131.906 E11.932
G1 X77.144 Y131.301 E12.01606
G1 X79.561 Y130.632 E12.09947
G1 X82.005 Y129.881 E12.18451
G1 X84.377 Y129.078 E12.2678
G1 X86.763 Y128.194 E12.35243
G1 X89.112 Y127.247 E12.43667
G1 X91.433 Y126.235 E12.52089
G1 X93.705 Y125.166 E12.6044
G1 X95.95 Y124.032 E12.68806
G1 X98.2 Y122.814 E12.77315
G1 X100.39 Y121.547 E12.8573
G1 X102.537 Y120.222 E12.94122
G1 X104.63 Y118.847 E13.02451
G1 X106.709 Y117.396 E13.10883
G1 X108.774 Y115.867 E13.19429
G1 X110.729 Y114.332 E13.27696
G1 X112.687 Y112.701 E13.36172
G1 X114.588 Y111.025 E13.44601
G1 X116.425 Y109.312 E13.52955
G1 X118.214 Y107.546 E13.61316
G1 X119.987 Y105.693 E13.69846
G1 X121.671 Y103.831 E13.78196
G1 X123.304 Y101.92 E13.86557
G1 X124.908 Y99.932 E13.95053
G1 X126.425 Y97.936 E14.03391
G1 X127.919 Y95.852 E14.1192
G1 X129.299 Y93.809 E14.2012
G1 X130.684 Y91.625 E14.28722
G1 X131.971 Y89.465 E14.37084
G1 X133.2 Y87.263 E14.45472
G1 X134.369 Y85.02 E14.53884
G1 X135.48 Y82.735 E14.62335
G1 X136.509 Y80.453 E14.70661
G1 X137.554 Y77.948 E14.79688
G1 X137.905 Y77.069 E14.82836
G1 X138.283 Y76.23 E14.85897
G1 X138.733 Y75.426 E14.88962
G1 X139.25 Y74.665 E14.92022
G1 X140.113 Y73.648 E14.96458
G1 X140.663 Y73.079 E14.9909
G1 X143.055 Y70.688 E15.10339
G1 X143.536 Y70.221 E15.12569
G1 X144.224 Y69.609 E15.15631
G1 X144.962 Y69.059 E15.18693
G1 X145.745 Y68.575 E15.21754
G1 X146.568 Y68.161 E15.24818
G1 X147.423 Y67.82 E15.2788
G1 X148.304 Y67.554 E15.30941
G1 X149.205 Y67.366 E15.34002
G1 X150.12 Y67.256 E15.37067
G1 X150.656 Y67.229 E15.38852
G1 X151.482 Y67.212 E15.416
G1 X159.89 Y67.213 E15.69565
G1 X160.588 Y67.223 E15.71887
G1 X161.507 Y67.276 E15.74949
G1 X162.418 Y67.409 E15.78011
G1 X163.314 Y67.62 E15.81072
G1 X164.188 Y67.908 E15.84133
G1 X165.035 Y68.271 E15.87198
G1 X165.846 Y68.706 E15.90259
G1 X166.616 Y69.21 E15.9332
G1 X167.34 Y69.779 E15.96383
G1 X168.012 Y70.409 E15.99446
G1 X168.627 Y71.094 E16.02508
G1 X169.18 Y71.83 E16.0557
G1 X169.667 Y72.611 E16.08631
G1 X170.084 Y73.432 E16.11694
G1 X170.429 Y74.286 E16.14757
G1 X170.698 Y75.166 E16.17818
G1 X170.89 Y76.067 E16.20882
G1 X171.003 Y76.98 E16.23942
G1 X171.032 Y77.524 E16.25754
G1 X171.045 Y78.142 E16.2781
G1 X171.045 Y153.276 E18.77706
G1 X171.044 Y153.422 E18.78192
G1 X171.034 Y154.149 E18.8061
G1 X170.981 Y155.068 E18.83672
G1 X170.849 Y155.979 E18.86734
G1 X170.638 Y156.875 E18.89795
G1 X170.351 Y157.75 E18.92858
G1 X169.988 Y158.596 E18.9592
G1 X169.554 Y159.408 E18.98982
G1 X169.05 Y160.179 E19.02046
G1 X168.482 Y160.903 E19.05107
G1 X167.853 Y161.575 E19.08168
G1 X167.168 Y162.19 E19.1123
G1 X166.432 Y162.743 E19.14292
G1 X165.651 Y163.231 E19.17355
G1 X164.831 Y163.649 E19.20416
G1 X163.977 Y163.994 E19.23479
G1 X163.097 Y164.263 E19.2654
G1 X162.541 Y164.392 E19.28438
G1 X161.495 Y164.603 E19.31987
G1 X160.53 Y164.784 E19.35253
G1 X158.079 Y165.317 E19.43596
G1 X155.643 Y165.918 E19.51941
G1 X153.214 Y166.592 E19.60325
G1 X151.956 Y166.982 E19.64705
G1 X150.789 Y167.331 E19.68757
G1 X149.896 Y167.556 E19.7182
G1 X148.988 Y167.703 E19.74879
G1 X147.976 Y167.773 E19.78253
G1 X147.183 Y167.787 E19.80891
G1 X138.78 Y167.786 E20.08839
G1 X138.083 Y167.776 E20.11158
G1 X136.903 Y167.693 E20.15092
G1 X135.589 Y167.527 E20.19497
G1 X132.787 Y167.205 E20.28878
G1 X130.298 Y166.994 E20.37186
G1 X127.796 Y166.854 E20.45521
G1 X125.242 Y166.783 E20.54019
G1 X122.731 Y166.785 E20.62371
G1 X120.193 Y166.858 E20.70816
G1 X117.637 Y167.004 E20.79331
G1 X115.181 Y167.214 E20.87529
G1 X112.57 Y167.512 E20.9627
G1 X111.313 Y167.682 E21.00489
G1 X110.396 Y167.765 E21.03551
G1 X109.345 Y167.763 E21.07047
G1 X107.974 Y167.692 E21.11613
G1 X105.347 Y167.591 E21.20357
G1 X102.782 Y167.567 E21.28888
G1 X100.266 Y167.615 E21.37258
G1 X98.023 Y167.718 E21.44726
G1 X97.396 Y167.754 E21.46815
G1 X96.749 Y167.772 E21.48968
G1 X95.59 Y167.767 E21.52823
G1 X93.294 Y167.721 E21.60461
G1 X92.633 Y167.698 E21.62661
G1 X92.157 Y167.67 E21.64246
G1 X91.415 Y167.609 E21.66723
G1 X87.824 Y167.251 E21.78726
G1 X87.289 Y167.19 E21.80517
G1 X86.631 Y167.094 E21.82728
G1 X85.255 Y166.846 E21.87379
G1 X83.303 Y166.458 E21.93998
G1 X82.571 Y166.302 E21.96487
G1 X81.776 Y166.1 E21.99215
G1 X81.082 Y165.894 E22.01623
G1 X79.723 Y165.469 E22.06359
G1 X79.078 Y165.258 E22.08616
G1 X78.395 Y165.008 E22.11035
G1 X77.399 Y164.592 E22.14625
G1 X76.722 Y164.291 E22.1709
G1 X76.183 Y164.033 E22.19077
G1 X75.625 Y163.741 E22.21172
G1 X75.204 Y163.508 E22.22772
G1 X74.564 Y163.143 E22.25223
G1 X74.034 Y162.82 E22.27287
G1 X73.825 Y162.684 E22.28116
G1 X73.48 Y162.45 E22.29503
G1 X73.247 Y162.285 E22.30453
G1 X72.904 Y162.032 E22.3187
G1 X72.251 Y161.529 E22.34612
G1 X71.526 Y160.916 E22.3777
G1 X71.043 Y160.463 E22.39972
G1 X70.71 Y160.136 E22.41524
G1 X70.207 Y159.607 E22.43952
G1 X69.723 Y159.057 E22.46389
G1 X69.383 Y158.655 E22.4814
G1 X68.952 Y158.134 E22.50389
G1 X68.594 Y157.675 E22.52325
G1 X68.416 Y157.434 E22.53322
G1 X68.217 Y157.155 E22.54461
G1 X67.871 Y156.653 E22.56489
G1 X67.49 Y156.083 E22.5877
G1 X67.166 Y155.566 E22.60799
G1 X66.876 Y155.065 E22.62724
G1 X66.657 Y154.665 E22.64241
G1 X66.305 Y154.001 E22.66741
G1 X66.04 Y153.466 E22.68726
G1 X65.925 Y153.216 E22.69642
G1 X65.761 Y152.841 E22.71003
G1 X65.484 Y152.172 E22.73411
G1 X65.224 Y151.476 E22.75882
G1 X64.928 Y150.59 E22.78989
G1 X64.682 Y149.736 E22.81945
G1 X64.459 Y148.819 E22.85084
G1 X64.267 Y147.823 E22.88458
G1 X64.113 Y146.752 E22.92057
G1 X64.056 Y146.277 E22.93648
G1 X64.026 Y145.971 E22.9467
G1 X63.985 Y145.394 E22.96594
G1 X63.974 Y145.139 E22.97443
G1 X63.964 Y144.661 E22.99033
G1 X63.965 Y144.166 E23.0068
G1 X63.987 Y143.512 E23.02856
G1 X64.033 Y142.791 E23.05259
G1 X64.108 Y142.034 E23.07789
G1 X64.168 Y141.594 E23.09266
G1 X64.262 Y141.022 E23.11194
G1 X64.303 Y140.809 E23.11916
G1 X64.601 Y139.631 E23.15957
G1 X64.909 Y138.763 E23.19021
G1 X65.292 Y137.926 E23.22082
G1 X65.746 Y137.125 E23.25144
G1 X66.268 Y136.367 E23.28205
G1 X66.854 Y135.656 E23.3127
G1 X67.499 Y134.999 E23.34332
G1 X68.198 Y134.401 E23.37392
G1 X68.947 Y133.866 E23.40453
G1 X69.74 Y133.397 E23.43517
G0 F6000 X70.066 Y133.678
G1 F1200 X70.886 Y133.301 E23.46519
G1 X71.737 Y132.998 E23.49524
G1 X72.453 Y132.806 E23.51989
G1 X72.982 Y132.685 E23.53794
G1 X74.798 Y132.292 E23.59974
G1 X77.217 Y131.695 E23.68261
G1 X79.713 Y131.005 E23.76874
G1 X82.104 Y130.27 E23.85194
G1 X84.508 Y129.456 E23.93636
G1 X86.916 Y128.564 E24.02176
G1 X89.273 Y127.614 E24.10629
G1 X91.598 Y126.6 E24.19065
G1 X93.863 Y125.534 E24.27391
G1 X96.157 Y124.376 E24.35938
G1 X98.397 Y123.163 E24.44411
G1 X100.568 Y121.906 E24.52754
G1 X102.762 Y120.553 E24.61328
G1 X104.857 Y119.177 E24.69664
G1 X106.971 Y117.702 E24.78238
G1 X108.974 Y116.217 E24.86531
G1 X111.008 Y114.621 E24.9513
G1 X112.924 Y113.025 E25.03424
G1 X114.841 Y111.334 E25.11926
G1 X116.731 Y109.571 E25.20523
G1 X118.483 Y107.842 E25.2871
G1 X120.272 Y105.973 E25.37315
G1 X121.973 Y104.093 E25.45747
G1 X123.617 Y102.167 E25.54169
G1 X125.239 Y100.158 E25.62757
G1 X126.736 Y98.188 E25.70987
G1 X128.231 Y96.103 E25.7952
G1 X129.662 Y93.985 E25.88021
G1 X131.023 Y91.839 E25.96474
G1 X132.306 Y89.685 E26.04812
G1 X133.561 Y87.437 E26.13375
G1 X134.726 Y85.201 E26.21761
G1 X135.833 Y82.924 E26.30182
G1 X136.879 Y80.606 E26.38641
G1 X137.946 Y78.047 E26.47862
G1 X138.277 Y77.218 E26.50831
G1 X138.648 Y76.394 E26.53837
G1 X139.091 Y75.607 E26.5684
G1 X139.602 Y74.862 E26.59845
G1 X140.401 Y73.925 E26.63941
G1 X140.946 Y73.362 E26.66547
G1 X143.334 Y70.975 E26.77777
G1 X143.815 Y70.508 E26.80007
G1 X144.49 Y69.908 E26.83011
G1 X145.216 Y69.37 E26.86016
G1 X145.986 Y68.899 E26.89018
G1 X146.795 Y68.497 E26.92023
G1 X147.636 Y68.169 E26.95025
G1 X148.503 Y67.916 E26.98029
G1 X149.389 Y67.742 E27.01032
G1 X150.666 Y67.629 E27.05296
G1 X151.482 Y67.612 E27.08011
G1 X159.884 Y67.613 E27.35956
G1 X160.582 Y67.623 E27.38278
G1 X161.484 Y67.676 E27.41283
G1 X162.377 Y67.808 E27.44285
G1 X163.255 Y68.019 E27.47289
G1 X164.111 Y68.307 E27.50293
G1 X164.938 Y68.669 E27.53295
G1 X165.73 Y69.104 E27.56301
G1 X166.481 Y69.606 E27.59305
G1 X167.184 Y70.173 E27.62309
G1 X167.834 Y70.8 E27.65313
G1 X168.426 Y71.482 E27.68317
G1 X168.956 Y72.213 E27.7132
G1 X169.418 Y72.989 E27.74323
G1 X169.811 Y73.802 E27.77327
G1 X170.129 Y74.647 E27.8033
G1 X170.372 Y75.517 E27.83334
G1 X170.537 Y76.405 E27.86338
G1 X170.632 Y77.535 E27.9011
G1 X170.645 Y78.142 E27.92129
G1 X170.645 Y153.276 E30.42026
G1 X170.634 Y154.143 E30.4491
G1 X170.582 Y155.045 E30.47915
G1 X170.45 Y155.938 E30.50917
G1 X170.239 Y156.817 E30.53924
