;FLAVOR:Marlin
;TIME:20130
;Filament used: 13.4903m
;Layer height: 0.2
;MINX:77.805
;MINY:66.813
;MINZ:0.2
;MAXX:157.195
;MAXY:165.013
;MAXZ:63.4
;Generated with Cura_SteamEngine 4.5.0
M82 ;absolute extrusion mode
M201 X500 Y500 Z100 E5000 ;Setup machine max acceleration
M203 X500 Y500 Z10 E50 ;Setup machine max feedrate
M204 P500 T500 ;Setup Print/Travel acceleration
M205 X10 Y10 Z0.4 E5 ;Setup Jerk
;M207 F45 S2 Z0.2 ;Setup firmware-based retraction
;M208 F45 S0 ;Setup firmware-based retraction (recovery)
M209 S0 ;Disable Auto Retract
M104 S205.0 ;Start heating extruder
M140 S60 ;Start heating bed
G28 ;Home all axes
G29 J ;Adjust the existing mesh to the bed tilt
G0 X255 F5000 ;Move over purge bucket
M109 S205.0 ;Wait for extruder to reach temp before proceeding
G92 E0 ;Zero the extruded length
G1 E15 F50 ;Purge nozzle
G92 E0 ;Zero the extruded length again
G12 ;Clean the nozzle
M190 S60 ;Wait for bed to reach temp before proceeding
M109 S205.0 ; Wait for extruder to reach temp before proceeding
M220 S100 ;Reset Feedrate
M221 S100 ;Reset Flowrate
G92 E0
G92 E0
G1 F2700 E-2
;LAYER_COUNT:317
;LAYER:0
M107
G0 F6000 X80.371 Y70.771 Z0.2
;TYPE:SKIRT
G1 F2700 E0
G1 F1200 X81.003 Y70.077 E0.03122
G1 X81.691 Y69.44 E0.0624
G1 X82.431 Y68.864 E0.09359
G1 X83.217 Y68.352 E0.12479
G1 X84.044 Y67.91 E0.15598
G1 X84.906 Y67.54 E0.18718
G1 X85.796 Y67.244 E0.21838
G1 X86.708 Y67.026 E0.24957
G1 X87.635 Y66.885 E0.28075
G1 X88.506 Y66.826 E0.30979
G1 X89.135 Y66.813 E0.33071
G1 X145.463 Y66.813 E2.20419
G1 X145.622 Y66.814 E2.20948
G1 X146.314 Y66.824 E2.2325
G1 X147.25 Y66.878 E2.26368
G1 X148.179 Y67.011 E2.29489
G1 X149.092 Y67.222 E2.32606
G1 X149.985 Y67.511 E2.35728
G1 X150.849 Y67.875 E2.38846
G1 X151.679 Y68.311 E2.41964
G1 X152.47 Y68.816 E2.45086
G1 X153.214 Y69.387 E2.48205
G1 X153.907 Y70.019 E2.51325
G1 X154.544 Y70.707 E2.54443
G1 X155.119 Y71.448 E2.57563
G1 X155.63 Y72.235 E2.60684
G1 X156.071 Y73.062 E2.63801
G1 X156.441 Y73.924 E2.66921
G1 X156.736 Y74.814 E2.70039
G1 X156.953 Y75.727 E2.73161
G1 X157.093 Y76.654 E2.76279
G1 X157.151 Y77.541 E2.79235
G1 X157.177 Y78.595 E2.82742
G1 X157.195 Y80.875 E2.90326
G1 X157.195 Y153.277 E5.31136
G1 X157.185 Y154.14 E5.34006
G1 X157.134 Y155.077 E5.37127
G1 X157.002 Y156.005 E5.40245
G1 X156.793 Y156.919 E5.43363
G1 X156.506 Y157.812 E5.46483
G1 X156.144 Y158.678 E5.49605
G1 X155.71 Y159.509 E5.52723
G1 X155.206 Y160.3 E5.55843
G1 X154.637 Y161.045 E5.5896
G1 X154.006 Y161.74 E5.62083
G1 X153.319 Y162.378 E5.65201
G1 X152.58 Y162.955 E5.68319
G1 X151.794 Y163.467 E5.71439
G1 X150.968 Y163.91 E5.74557
G1 X150.106 Y164.282 E5.77679
G1 X149.217 Y164.578 E5.80796
G1 X148.305 Y164.798 E5.83916
G1 X147.378 Y164.939 E5.87035
G1 X146.494 Y165 E5.89982
G1 X145.865 Y165.013 E5.92075
G1 X89.512 Y165.013 E7.79505
G1 X88.672 Y165.003 E7.82299
G1 X87.736 Y164.951 E7.85417
G1 X86.807 Y164.819 E7.88538
G1 X85.893 Y164.609 E7.91657
G1 X85 Y164.322 E7.94777
G1 X84.135 Y163.959 E7.97897
G1 X83.304 Y163.525 E8.01015
G1 X82.513 Y163.021 E8.04135
G1 X81.768 Y162.451 E8.07255
G1 X81.074 Y161.82 E8.10375
G1 X80.437 Y161.133 E8.13491
G1 X79.86 Y160.393 E8.16612
G1 X79.348 Y159.607 E8.19732
G1 X78.905 Y158.78 E8.22852
G1 X78.534 Y157.919 E8.2597
G1 X78.238 Y157.029 E8.2909
G1 X78.019 Y156.117 E8.32209
G1 X77.878 Y155.19 E8.35328
G1 X77.818 Y154.301 E8.38292
G1 X77.805 Y153.671 E8.40388
G1 X77.805 Y78.487 E10.90451
G1 X77.815 Y77.673 E10.93158
G1 X77.868 Y76.737 E10.96276
G1 X78 Y75.808 E10.99397
G1 X78.211 Y74.894 E11.02517
G1 X78.499 Y74.002 E11.05635
G1 X78.862 Y73.137 E11.08755
G1 X79.297 Y72.306 E11.11874
G1 X79.801 Y71.516 E11.14991
G1 X80.371 Y70.771 E11.18111
G0 F6000 X80.766 Y70.924
G1 F1200 X81.394 Y70.252 E11.2117
G1 X82.079 Y69.636 E11.24234
G1 X82.815 Y69.083 E11.27296
G1 X83.596 Y68.595 E11.30359
G1 X84.416 Y68.177 E11.3342
G1 X85.27 Y67.832 E11.36484
G1 X86.15 Y67.562 E11.39545
G1 X87.05 Y67.37 E11.42606
G1 X87.964 Y67.256 E11.4567
G1 X88.517 Y67.226 E11.47512
G1 X89.135 Y67.213 E11.49568
G1 X145.463 Y67.213 E13.36915
G1 X145.616 Y67.214 E13.37424
G1 X146.308 Y67.224 E13.39726
G1 X147.227 Y67.277 E13.42788
G1 X148.138 Y67.41 E13.4585
G1 X149.034 Y67.622 E13.48912
G1 X149.909 Y67.91 E13.51976
G1 X150.755 Y68.273 E13.55038
G1 X151.566 Y68.708 E13.58099
G1 X152.337 Y69.212 E13.61163
G1 X153.06 Y69.781 E13.64223
G1 X153.732 Y70.41 E13.67284
G1 X154.347 Y71.096 E13.70348
G1 X154.9 Y71.832 E13.7341
G1 X155.387 Y72.613 E13.76472
G1 X155.804 Y73.434 E13.79534
G1 X156.148 Y74.288 E13.82597
G1 X156.417 Y75.168 E13.85657
G1 X156.609 Y76.069 E13.88721
G1 X156.722 Y76.983 E13.91784
G1 X156.752 Y77.552 E13.93679
G1 X156.777 Y78.598 E13.97159
G1 X156.795 Y80.878 E14.04743
G1 X156.795 Y153.277 E16.45543
G1 X156.785 Y154.135 E16.48397
G1 X156.734 Y155.054 E16.51458
G1 X156.603 Y155.966 E16.54523
G1 X156.393 Y156.862 E16.57584
G1 X156.107 Y157.737 E16.60645
G1 X155.746 Y158.584 E16.63708
G1 X155.312 Y159.396 E16.6677
G1 X154.81 Y160.168 E16.69833
G1 X154.242 Y160.893 E16.72896
G1 X153.614 Y161.566 E16.75958
G1 X152.93 Y162.182 E16.79019
G1 X152.195 Y162.736 E16.8208
G1 X151.415 Y163.225 E16.85142
G1 X150.595 Y163.644 E16.88205
G1 X149.742 Y163.99 E16.91267
G1 X148.862 Y164.261 E16.94329
G1 X147.962 Y164.454 E16.97391
G1 X147.048 Y164.569 E17.00455
G1 X146.483 Y164.6 E17.02337
G1 X145.865 Y164.613 E17.04393
G1 X89.512 Y164.613 E18.91823
G1 X88.677 Y164.603 E18.94601
G1 X87.758 Y164.551 E18.97662
G1 X86.847 Y164.42 E19.00724
G1 X85.951 Y164.21 E19.03784
G1 X85.076 Y163.923 E19.06847
G1 X84.229 Y163.561 E19.09911
G1 X83.417 Y163.127 E19.12973
G1 X82.646 Y162.625 E19.16033
G1 X81.921 Y162.057 E19.19096
G1 X81.248 Y161.428 E19.2216
G1 X80.633 Y160.744 E19.2522
G1 X80.079 Y160.009 E19.28281
G1 X79.591 Y159.228 E19.31344
G1 X79.172 Y158.408 E19.34407
G1 X78.826 Y157.555 E19.37468
G1 X78.556 Y156.675 E19.4053
G1 X78.363 Y155.774 E19.43595
G1 X78.249 Y154.861 E19.46655
G1 X78.218 Y154.29 E19.48557
G1 X78.205 Y153.671 E19.50616
G1 X78.205 Y78.487 E22.00679
G1 X78.215 Y77.679 E22.03367
G1 X78.267 Y76.759 E22.06431
G1 X78.399 Y75.848 E22.09493
G1 X78.61 Y74.952 E22.12555
G1 X78.897 Y74.077 E22.15618
G1 X79.26 Y73.231 E22.18679
G1 X79.694 Y72.419 E22.21742
G1 X80.197 Y71.648 E22.24804
G1 X80.766 Y70.924 E22.27866
G0 F6000 X81.16 Y71.08
G1 F1200 X81.786 Y70.43 E22.30868
G1 X82.467 Y69.837 E22.33871
G1 X83.199 Y69.307 E22.36877
G1 X83.974 Y68.844 E22.3988
G1 X84.787 Y68.451 E22.42883
G1 X85.632 Y68.131 E22.45888
G1 X86.501 Y67.888 E22.48889
G1 X87.389 Y67.722 E22.51894
G1 X88.528 Y67.626 E22.55696
G1 X89.135 Y67.613 E22.57715
G1 X145.463 Y67.613 E24.45063
G1 X145.61 Y67.614 E24.45552
G1 X146.302 Y67.624 E24.47854
G1 X147.204 Y67.677 E24.50859
G1 X148.097 Y67.81 E24.53862
G1 X148.975 Y68.021 E24.56865
G1 X149.831 Y68.309 E24.59869
G1 X150.659 Y68.671 E24.62875
G1 X151.45 Y69.105 E24.65876
G1 X152.201 Y69.608 E24.68882
G1 X152.904 Y70.175 E24.71886
G1 X153.554 Y70.802 E24.7489
G1 X154.146 Y71.484 E24.77893
G1 X154.675 Y72.215 E24.80895
G1 X155.138 Y72.991 E24.839
G1 X155.53 Y73.804 E24.86902
G1 X155.849 Y74.649 E24.89906
G1 X156.091 Y75.519 E24.9291
G1 X156.256 Y76.407 E24.95914
G1 X156.352 Y77.562 E24.99768
G1 X156.377 Y78.601 E25.03225
G1 X156.395 Y80.881 E25.10809
G1 X156.395 Y153.277 E27.51599
G1 X156.385 Y154.13 E27.54436
G1 X156.334 Y155.032 E27.57441
G1 X156.203 Y155.926 E27.60446
G1 X155.994 Y156.804 E27.63448
G1 X155.708 Y157.661 E27.66453
G1 X155.347 Y158.489 E27.69457
G1 X154.915 Y159.281 E27.72458
G1 X154.414 Y160.033 E27.75463
G1 X153.848 Y160.737 E27.78468
G1 X153.223 Y161.388 E27.81469
G1 X152.542 Y161.982 E27.84475
G1 X151.811 Y162.513 E27.8748
G1 X151.037 Y162.977 E27.90481
G1 X150.224 Y163.371 E27.93486
G1 X149.38 Y163.691 E27.96488
G1 X148.51 Y163.936 E27.99494
G1 X147.623 Y164.102 E28.02496
G1 X146.472 Y164.2 E28.06338
G1 X145.865 Y164.213 E28.08357
G1 X89.512 Y164.213 E29.95788
G1 X88.682 Y164.203 E29.98549
G1 X87.781 Y164.152 E30.0155
G1 X86.887 Y164.02 E30.04556
G1 X86.009 Y163.811 E30.07558
G1 X85.152 Y163.524 E30.10564
G1 X84.325 Y163.163 E30.13565
G1 X83.532 Y162.73 E30.1657
G1 X82.781 Y162.229 E30.19573
G1 X82.077 Y161.663 E30.22577
G1 X81.426 Y161.037 E30.25581
G1 X80.833 Y160.356 E30.28585
G1 X80.303 Y159.625 E30.31588
G1 X79.839 Y158.85 E30.34592
G1 X79.445 Y158.037 E30.37597
G1 X79.125 Y157.193 E30.40599
G1 X78.881 Y156.323 E30.43604
G1 X78.715 Y155.435 E30.46609
G1 X78.618 Y154.28 E30.50464
G1 X78.605 Y153.671 E30.5249
G1 X78.605 Y78.487 E33.02553
G1 X78.615 Y77.684 E33.05224
G1 X78.667 Y76.782 E33.08229
G1 X78.799 Y75.889 E33.11232
G1 X79.009 Y75.011 E33.14234
G1 X79.296 Y74.154 E33.1724
G1 X79.658 Y73.327 E33.20243
G1 X80.091 Y72.535 E33.23245
G1 X80.593 Y71.784 E33.26249
G1 X81.16 Y71.08 E33.29256
G1 F2700 E31.29256
;MESH:AA-Cover.stl
G0 F6000 X92.645 Y99.514
G0 X90.81 Y99.514
G0 X90.98 Y103.578
;TYPE:WALL-INNER
G1 F2700 E33.29256
G1 F1200 X144.02 Y103.578 E35.05668
G1 X144.02 Y79.988 E35.84128
G1 X90.98 Y79.988 E37.6054
G1 X90.98 Y103.578 E38.39001
G0 F6000 X91.38 Y103.178
G1 F1200 X143.62 Y103.178 E40.12752
G1 X143.62 Y80.388 E40.88552
G1 X91.38 Y80.388 E42.62303
G1 X91.38 Y103.178 E43.38102
G0 F6000 X91.78 Y102.778
;TYPE:WALL-OUTER
G1 F1200 X143.22 Y102.778 E45.09193
G1 X143.22 Y80.788 E45.82332
G1 X91.78 Y80.788 E47.53422
G1 X91.78 Y102.778 E48.26561
G1 F2700 E46.26561
G0 F6000 X91.48 Y102.778
G0 X91.544 Y102.983
G0 X104.665 Y103.768
G0 X104.665 Y101.913
G0 X104.665 Y110.959
G0 X101.576 Y111.021
G0 X104.665 Y119.385
G0 X104.665 Y138.428
G0 X104.665 Y136.573
G0 X107.623 Y137.336
G0 X107.551 Y138.621
G0 X107.243 Y139.568
G0 X106.696 Y140.415
G0 X104.846 Y142.809
G0 X107.412 Y142.809
G0 X107.395 Y143.941
G0 X107.147 Y145.009
G0 X106.725 Y145.823
G0 X106.248 Y146.35
G0 X104.665 Y147.753
;TYPE:WALL-INNER
G1 F2700 E48.26561
G1 F1200 X105.053 Y147.662 E48.27886
G1 X105.307 Y147.58 E48.28774
G1 X105.579 Y147.473 E48.29746
G1 X105.923 Y147.301 E48.31025
G1 X106.222 Y147.114 E48.32198
G1 X106.497 Y146.905 E48.33347
G1 X106.731 Y146.69 E48.34404
G1 X106.962 Y146.438 E48.35541
G1 X107.188 Y146.141 E48.36782
G1 X107.385 Y145.824 E48.38024
G1 X107.563 Y145.471 E48.39339
G1 X107.674 Y145.203 E48.40303
G1 X107.779 Y144.875 E48.41449
G1 X107.885 Y144.449 E48.42909
G1 X107.953 Y144.003 E48.44409
G1 X107.981 Y143.579 E48.45823
G1 X107.987 Y142.437 E48.49621
G1 X107.987 Y142.237 E48.50286
G1 X107.787 Y142.237 E48.50717
G1 X106.018 Y142.237 E48.56601
G1 X106.017 Y142.237 E48.56604
G1 X105.398 Y142.237 E48.58663
G1 X105.901 Y141.876 E48.59742
G1 X106.131 Y141.711 E48.60684
G1 X106.561 Y141.356 E48.62539
G1 X106.872 Y141.053 E48.63983
G1 X107.127 Y140.777 E48.65233
G1 X107.365 Y140.464 E48.6654
G1 X107.578 Y140.135 E48.67844
G1 X107.749 Y139.812 E48.69059
G1 X107.898 Y139.47 E48.703
G1 X108.008 Y139.143 E48.71448
G1 X108.103 Y138.724 E48.72877
G1 X108.157 Y138.346 E48.74147
G1 X108.179 Y138.056 E48.75114
G1 X108.206 Y136.967 E48.78737
G1 X108.207 Y136.966 E48.78742
G1 X108.21 Y136.763 E48.79417
G1 X108.007 Y136.763 E48.79852
G1 X108.006 Y136.763 E48.79855
G1 X99.657 Y136.763 E49.07624
G1 X99.657 Y140.313 E49.19432
G1 X101.472 Y140.313 E49.25468
G1 X101.672 Y140.313 E49.26133
G1 X102.07 Y140.313 E49.27457
G1 X101.672 Y140.579 E49.28118
G1 X101.512 Y140.698 E49.28676
G1 X101.315 Y140.845 E49.29493
G1 X101.039 Y141.083 E49.30705
G1 X100.765 Y141.352 E49.31983
G1 X100.535 Y141.619 E49.33155
G1 X100.328 Y141.906 E49.34332
G1 X100.158 Y142.189 E49.3543
G1 X100.009 Y142.488 E49.36541
G1 X99.906 Y142.75 E49.37477
G1 X99.824 Y143.037 E49.3847
G1 X99.818 Y143.055 E49.38533
G1 X99.753 Y143.397 E49.39691
G1 X99.719 Y143.718 E49.40764
G1 X99.708 Y144.055 E49.41886
G1 X99.723 Y144.417 E49.43091
G1 X99.771 Y144.773 E49.44286
G1 X99.844 Y145.097 E49.4539
G1 X99.938 Y145.379 E49.46379
G1 X100.051 Y145.646 E49.47343
G1 X100.21 Y145.947 E49.48476
G1 X100.394 Y146.231 E49.49601
G1 X100.602 Y146.489 E49.50703
G1 X100.772 Y146.671 E49.51532
G1 X100.977 Y146.86 E49.52459
G1 X101.256 Y147.076 E49.53633
G1 X101.558 Y147.268 E49.54823
G1 X101.868 Y147.426 E49.5598
G1 X102.067 Y147.512 E49.56701
G1 X102.276 Y147.591 E49.57444
G1 X102.645 Y147.699 E49.58723
G1 X103.027 Y147.775 E49.60019
G1 X103.042 Y147.776 E49.60069
G1 X103.373 Y147.815 E49.61177
G1 X103.39 Y147.818 E49.61235
G1 X103.761 Y147.831 E49.62469
G1 X104.25 Y147.81 E49.64097
G1 X104.665 Y147.753 E49.6549
G0 F6000 X104.592 Y147.359
G1 F1200 X104.946 Y147.276 E49.667
G1 X105.172 Y147.203 E49.6749
G1 X105.416 Y147.107 E49.68362
G1 X105.727 Y146.952 E49.69518
G1 X105.994 Y146.785 E49.70565
G1 X106.24 Y146.598 E49.71593
G1 X106.448 Y146.407 E49.72532
G1 X106.655 Y146.181 E49.73551
G1 X106.858 Y145.914 E49.74667
G1 X107.036 Y145.628 E49.75787
G1 X107.199 Y145.304 E49.76994
G1 X107.298 Y145.065 E49.77854
G1 X107.394 Y144.766 E49.78898
G1 X107.492 Y144.37 E49.80255
G1 X107.555 Y143.959 E49.81638
G1 X107.581 Y143.565 E49.82952
G1 X107.585 Y142.837 E49.85373
G1 X107.585 Y142.637 E49.86038
G1 X107.385 Y142.637 E49.86469
G1 X104.682 Y142.637 E49.95459
G1 X104.679 Y142.718 E49.95729
G1 X104.64 Y143.527 E49.98423
G1 X104.624 Y143.665 E49.98885
G1 X104.596 Y143.839 E49.99471
G1 X104.559 Y143.993 E49.99998
G1 X104.513 Y144.132 E50.00485
G1 X104.47 Y144.234 E50.00853
G1 X104.425 Y144.324 E50.01187
G1 X104.388 Y144.384 E50.01422
G1 X104.34 Y144.448 E50.01688
G1 X104.281 Y144.514 E50.01982
G1 X104.243 Y144.549 E50.02154
G1 X104.184 Y144.593 E50.02399
G1 X104.076 Y144.648 E50.02802
G1 X104.031 Y144.66 E50.02957
G1 X103.901 Y144.679 E50.03394
G1 X103.848 Y144.681 E50.0357
G1 X103.733 Y144.676 E50.03953
G1 X103.653 Y144.664 E50.04222
G1 X103.573 Y144.645 E50.04496
G1 X103.521 Y144.627 E50.04679
G1 X103.449 Y144.594 E50.04942
G1 X103.403 Y144.567 E50.0512
G1 X103.349 Y144.529 E50.05339
G1 X103.326 Y144.506 E50.05447
G1 X103.3 Y144.481 E50.05567
G1 X103.27 Y144.453 E50.05704
G1 X103.217 Y144.38 E50.06004
G1 X103.188 Y144.326 E50.06208
G1 X103.166 Y144.271 E50.06405
G1 X103.142 Y144.189 E50.06689
G1 X103.127 Y144.117 E50.06934
G1 X103.115 Y144.008 E50.07298
G1 X103.111 Y143.906 E50.07638
G1 X103.117 Y143.802 E50.07984
G1 X103.127 Y143.729 E50.08229
G1 X103.166 Y143.589 E50.08713
G1 X103.212 Y143.494 E50.09064
G1 X103.306 Y143.346 E50.09647
G1 X103.409 Y143.213 E50.10206
G1 X103.471 Y143.144 E50.10515
G1 X103.598 Y143.024 E50.11096
G1 X103.799 Y142.853 E50.11974
G1 X103.931 Y142.756 E50.12519
G1 X104.439 Y142.418 E50.14548
G1 X104.506 Y142.374 E50.1479
G1 X104.719 Y142.232 E50.15641
G1 X105.887 Y141.394 E50.20423
G1 X106.294 Y141.058 E50.22178
G1 X106.585 Y140.774 E50.2353
G1 X106.82 Y140.519 E50.24684
G1 X107.038 Y140.234 E50.25877
G1 X107.232 Y139.933 E50.27068
G1 X107.388 Y139.638 E50.28178
G1 X107.524 Y139.326 E50.2931
G1 X107.622 Y139.035 E50.30331
G1 X107.709 Y138.651 E50.31641
G1 X107.759 Y138.303 E50.3281
G1 X107.779 Y138.036 E50.33701
G1 X107.796 Y137.367 E50.35927
G1 X107.797 Y137.366 E50.35931
G1 X107.8 Y137.163 E50.36607
G1 X107.597 Y137.163 E50.37042
G1 X107.596 Y137.163 E50.37045
G1 X100.057 Y137.163 E50.6212
G1 X100.057 Y139.913 E50.71266
G1 X102.743 Y139.913 E50.802
G1 X103.243 Y139.913 E50.81863
G1 X103.365 Y139.913 E50.82269
G1 X103.243 Y140.004 E50.82391
G1 X102.829 Y140.285 E50.83441
G1 X102.741 Y140.345 E50.83796
G1 X101.903 Y140.906 E50.8715
G1 X101.565 Y141.157 E50.8855
G1 X101.31 Y141.377 E50.8967
G1 X101.057 Y141.626 E50.90851
G1 X100.849 Y141.867 E50.9191
G1 X100.662 Y142.126 E50.92972
G1 X100.509 Y142.381 E50.93961
G1 X100.375 Y142.651 E50.94964
G1 X100.285 Y142.879 E50.95779
G1 X100.207 Y143.148 E50.96711
G1 X100.149 Y143.455 E50.9775
G1 X100.118 Y143.746 E50.98723
G1 X100.108 Y144.053 E50.99745
G1 X100.122 Y144.382 E51.0084
G1 X100.165 Y144.702 E51.01914
G1 X100.23 Y144.989 E51.02893
G1 X100.313 Y145.238 E51.03766
G1 X100.413 Y145.475 E51.04621
G1 X100.555 Y145.744 E51.05633
G1 X100.719 Y145.996 E51.06633
G1 X100.904 Y146.227 E51.07617
G1 X101.054 Y146.387 E51.08347
G1 X101.235 Y146.554 E51.09166
G1 X101.486 Y146.748 E51.10221
G1 X101.757 Y146.92 E51.11289
G1 X102.039 Y147.064 E51.12342
G1 X102.217 Y147.141 E51.12987
