;FLAVOR:Marlin
;TIME:615
;Filament used: 0.3475m
;Layer height: 0.2
;MINX:93.41
;MINY:93.83
;MINZ:0.2
;MAXX:136.59
;MAXY:136.17
;MAXZ:7.6
;POSTPROCESSED
;Generated with Cura_SteamEngine master
M140 S60
M105
M190 S60
M104 S200
M105
M109 S200
M82 ;absolute extrusion mode
M201 X500.00 Y500.00 Z100.00 E5000.00 ;Setup machine max acceleration
M203 X500.00 Y500.00 Z10.00 E50.00 ;Setup machine max feedrate
M204 P500.00 R1000.00 T500.00 ;Setup Print/Retract/Travel acceleration
M205 X8.00 Y8.00 Z0.40 E5.00 ;Setup Jerk
M220 S100 ;Reset Feedrate
M221 S100 ;Reset Flowrate
; Home all axes
G28 X0 Y0
G28 Z0
; Set K-Factor
M900 K0.1
M141 S28
G92 E0
G92 E0
G1 F2700 E-2
;LAYER_COUNT:38
;LAYER:0
M107
G0 F6000 X96.618 Y97.404 Z0.2
;TYPE:SKIRT
G1 F2700 E0
G1 F1200 X97.31 Y96.738 E0.03261
G1 X98.055 Y96.132 E0.06521
G1 X98.848 Y95.59 E0.09783
G1 X99.683 Y95.115 E0.13044
G1 X100.555 Y94.712 E0.16306
G1 X101.458 Y94.383 E0.19569
G1 X102.384 Y94.13 E0.22828
G1 X103.329 Y93.955 E0.26091
G1 X104.636 Y93.844 E0.30544
G1 X104.957 Y93.835 E0.31635
G1 X105.28 Y93.83 E0.32731
G1 X109.733 Y93.83 E0.4785
G1 X109.895 Y93.831 E0.484
G1 X110.609 Y93.841 E0.50825
G1 X110.785 Y93.845 E0.51422
G1 X113.723 Y93.931 E0.61402
G1 X116.196 Y93.931 E0.69798
G1 X117.074 Y93.901 E0.72781
G1 X117.231 Y93.896 E0.73314
G1 X120.349 Y93.832 E0.83903
G1 X120.586 Y93.83 E0.84707
G1 X124.343 Y93.83 E0.97463
G1 X124.508 Y93.831 E0.98023
G1 X125.206 Y93.841 E1.00393
G1 X126.165 Y93.895 E1.03654
G1 X127.117 Y94.028 E1.06918
G1 X128.054 Y94.24 E1.1018
G1 X128.97 Y94.529 E1.13441
G1 X129.859 Y94.894 E1.16704
G1 X130.714 Y95.331 E1.19964
G1 X131.53 Y95.837 E1.23224
G1 X132.301 Y96.41 E1.26485
G1 X133.022 Y97.045 E1.29747
G1 X133.688 Y97.738 E1.3301
G1 X134.294 Y98.483 E1.36271
G1 X134.835 Y99.277 E1.39533
G1 X135.309 Y100.113 E1.42796
G1 X135.711 Y100.985 E1.46056
G1 X136.04 Y101.888 E1.49319
G1 X136.292 Y102.814 E1.52577
G1 X136.467 Y103.759 E1.5584
G1 X136.576 Y105.056 E1.60259
G1 X136.585 Y105.376 E1.61346
G1 X136.59 Y105.7 E1.62446
G1 X136.59 Y123.894 E2.24219
G1 X136.589 Y124.037 E2.24704
G1 X136.58 Y124.764 E2.27173
G1 X136.528 Y125.723 E2.30433
G1 X136.397 Y126.675 E2.33696
G1 X136.187 Y127.612 E2.36956
G1 X135.899 Y128.529 E2.4022
G1 X135.537 Y129.418 E2.43479
G1 X135.101 Y130.275 E2.46743
G1 X134.596 Y131.092 E2.50004
G1 X134.025 Y131.864 E2.53264
G1 X133.391 Y132.586 E2.56527
G1 X132.7 Y133.253 E2.59787
G1 X131.956 Y133.86 E2.63047
G1 X131.163 Y134.403 E2.66311
G1 X130.328 Y134.878 E2.69572
G1 X129.457 Y135.283 E2.72833
G1 X128.555 Y135.613 E2.76094
G1 X127.629 Y135.867 E2.79354
G1 X126.684 Y136.043 E2.82618
G1 X125.364 Y136.156 E2.87116
G1 X125.043 Y136.165 E2.88206
G1 X124.72 Y136.17 E2.89303
G1 X105.657 Y136.17 E3.54026
G1 X105.508 Y136.169 E3.54532
G1 X104.81 Y136.16 E3.56902
G1 X103.851 Y136.108 E3.60162
G1 X102.899 Y135.976 E3.63426
G1 X101.962 Y135.765 E3.66687
G1 X101.046 Y135.477 E3.69947
G1 X100.156 Y135.114 E3.7321
G1 X99.3 Y134.678 E3.76472
G1 X98.483 Y134.173 E3.79733
G1 X97.711 Y133.601 E3.82995
G1 X96.99 Y132.967 E3.86255
G1 X96.323 Y132.276 E3.89515
G1 X95.716 Y131.531 E3.92778
G1 X95.174 Y130.738 E3.96039
G1 X94.699 Y129.903 E3.99301
G1 X94.295 Y129.031 E4.02564
G1 X93.965 Y128.129 E4.05825
G1 X93.711 Y127.203 E4.09085
G1 X93.536 Y126.258 E4.12348
G1 X93.423 Y124.933 E4.16863
G1 X93.414 Y124.6 E4.17994
G1 X93.41 Y124.288 E4.19053
G1 X93.41 Y106.044 E4.80995
G1 X93.411 Y105.888 E4.81525
G1 X93.42 Y105.223 E4.83783
G1 X93.473 Y104.264 E4.87044
G1 X93.606 Y103.312 E4.90307
G1 X93.817 Y102.375 E4.93568
G1 X94.105 Y101.459 E4.96828
G1 X94.469 Y100.57 E5.0009
G1 X94.905 Y99.714 E5.03351
G1 X95.411 Y98.897 E5.06614
G1 X95.983 Y98.126 E5.09874
G1 X96.618 Y97.404 E5.13138
G0 F6000 X97.05 Y97.591
G1 F1200 X97.738 Y96.949 E5.16333
G1 X98.479 Y96.367 E5.19532
G1 X99.267 Y95.85 E5.22732
G1 X100.096 Y95.401 E5.25933
G1 X100.959 Y95.025 E5.29129
G1 X101.852 Y94.723 E5.3233
G1 X102.766 Y94.498 E5.35526
G1 X103.697 Y94.351 E5.38726
G1 X104.648 Y94.283 E5.41963
G1 X104.969 Y94.274 E5.43053
G1 X105.28 Y94.27 E5.44109
G1 X109.733 Y94.27 E5.59228
G1 X109.888 Y94.271 E5.59754
G1 X110.602 Y94.281 E5.62178
G1 X110.772 Y94.285 E5.62756
G1 X113.71 Y94.371 E5.72735
G1 X116.182 Y94.371 E5.81128
G1 X117.089 Y94.34 E5.84209
G1 X117.24 Y94.336 E5.84722
G1 X120.358 Y94.272 E5.95311
G1 X120.586 Y94.27 E5.96085
G1 X124.343 Y94.27 E6.0884
G1 X124.502 Y94.271 E6.0938
G1 X125.2 Y94.281 E6.1175
G1 X126.141 Y94.335 E6.14951
G1 X127.073 Y94.468 E6.18147
G1 X127.991 Y94.679 E6.21345
G1 X128.888 Y94.968 E6.24545
G1 X129.757 Y95.332 E6.27743
G1 X130.592 Y95.768 E6.30942
G1 X131.387 Y96.273 E6.34139
G1 X132.137 Y96.844 E6.3734
G1 X132.835 Y97.477 E6.40539
G1 X133.477 Y98.166 E6.43736
G1 X134.059 Y98.907 E6.46935
G1 X134.575 Y99.695 E6.50133
G1 X135.023 Y100.524 E6.53333
G1 X135.398 Y101.388 E6.56531
G1 X135.7 Y102.281 E6.59731
G1 X135.924 Y103.196 E6.62929
G1 X136.07 Y104.127 E6.66129
G1 X136.137 Y105.068 E6.69332
G1 X136.146 Y105.388 E6.70419
G1 X136.15 Y105.7 E6.71478
G1 X136.15 Y123.894 E7.3325
G1 X136.149 Y124.031 E7.33716
G1 X136.14 Y124.758 E7.36184
G1 X136.089 Y125.699 E7.39384
G1 X135.957 Y126.632 E7.42583
G1 X135.747 Y127.551 E7.45784
G1 X135.46 Y128.448 E7.48981
G1 X135.098 Y129.318 E7.5218
G1 X134.664 Y130.154 E7.55379
G1 X134.16 Y130.95 E7.58577
G1 X133.591 Y131.7 E7.61774
G1 X132.959 Y132.4 E7.64976
G1 X132.271 Y133.043 E7.68173
G1 X131.531 Y133.626 E7.71371
G1 X130.744 Y134.144 E7.7457
G1 X129.916 Y134.593 E7.77768
G1 X129.053 Y134.971 E7.80967
G1 X128.161 Y135.274 E7.84165
G1 X127.246 Y135.5 E7.87365
G1 X126.316 Y135.648 E7.90563
G1 X125.352 Y135.717 E7.93844
G1 X125.031 Y135.726 E7.94934
G1 X124.72 Y135.73 E7.9599
G1 X105.657 Y135.73 E8.60713
G1 X105.514 Y135.729 E8.61198
G1 X104.816 Y135.72 E8.63568
G1 X103.875 Y135.668 E8.66768
G1 X102.942 Y135.536 E8.69967
G1 X102.024 Y135.326 E8.73165
G1 X101.127 Y135.038 E8.76363
G1 X100.257 Y134.676 E8.79563
G1 X99.421 Y134.241 E8.82762
G1 X98.626 Y133.737 E8.85958
G1 X97.875 Y133.167 E8.89159
G1 X97.176 Y132.535 E8.92359
G1 X96.533 Y131.847 E8.95556
G1 X95.951 Y131.106 E8.98755
G1 X95.433 Y130.319 E9.01954
G1 X94.984 Y129.491 E9.05152
G1 X94.607 Y128.627 E9.08352
G1 X94.305 Y127.735 E9.1155
G1 X94.079 Y126.821 E9.14746
G1 X93.932 Y125.89 E9.17946
G1 X93.863 Y124.921 E9.21245
G1 X93.854 Y124.588 E9.22376
G1 X93.85 Y124.288 E9.23394
G1 X93.85 Y106.044 E9.85336
G1 X93.851 Y105.894 E9.85846
G1 X93.86 Y105.229 E9.88104
G1 X93.913 Y104.288 E9.91304
G1 X94.045 Y103.355 E9.94503
G1 X94.256 Y102.437 E9.97701
G1 X94.544 Y101.54 E10.009
G1 X94.907 Y100.671 E10.04097
G1 X95.342 Y99.835 E10.07297
G1 X95.847 Y99.04 E10.10494
G1 X96.418 Y98.29 E10.13695
G1 X97.05 Y97.591 E10.16894
G0 F6000 X97.481 Y97.782
G1 F1200 X98.166 Y97.164 E10.20027
G1 X98.902 Y96.607 E10.2316
G1 X99.684 Y96.116 E10.26295
G1 X100.506 Y95.694 E10.29432
G1 X101.36 Y95.345 E10.32565
G1 X102.242 Y95.071 E10.357
G1 X103.144 Y94.875 E10.38834
G1 X104.06 Y94.757 E10.4197
G1 X104.66 Y94.723 E10.4401
G1 X104.981 Y94.714 E10.45101
G1 X105.28 Y94.71 E10.46116
G1 X109.733 Y94.71 E10.61235
G1 X109.882 Y94.711 E10.61741
G1 X110.596 Y94.721 E10.64165
G1 X110.759 Y94.725 E10.64719
G1 X113.697 Y94.811 E10.74698
G1 X116.197 Y94.811 E10.83186
G1 X117.104 Y94.78 E10.86267
G1 X117.249 Y94.776 E10.8676
G1 X120.367 Y94.712 E10.97348
G1 X120.586 Y94.71 E10.98092
G1 X124.343 Y94.71 E11.10848
G1 X124.496 Y94.711 E11.11367
G1 X125.194 Y94.721 E11.13737
G1 X126.115 Y94.774 E11.16869
G1 X127.029 Y94.907 E11.20005
G1 X127.928 Y95.118 E11.2314
G1 X128.805 Y95.407 E11.26275
G1 X129.654 Y95.77 E11.2941
G1 X130.468 Y96.205 E11.32544
G1 X131.242 Y96.709 E11.3568
G1 X131.969 Y97.278 E11.38814
G1 X132.644 Y97.908 E11.41949
G1 X133.262 Y98.594 E11.45084
G1 X133.818 Y99.33 E11.48216
G1 X134.309 Y100.113 E11.51354
G1 X134.73 Y100.934 E11.54486
G1 X135.078 Y101.789 E11.5762
G1 X135.351 Y102.671 E11.60755
G1 X135.547 Y103.573 E11.63889
G1 X135.664 Y104.489 E11.67024
G1 X135.697 Y105.08 E11.69034
G1 X135.706 Y105.4 E11.70121
G1 X135.71 Y105.7 E11.7114
G1 X135.71 Y123.894 E12.32912
G1 X135.709 Y124.026 E12.3336
G1 X135.7 Y124.753 E12.35828
G1 X135.649 Y125.675 E12.38964
G1 X135.518 Y126.589 E12.42098
G1 X135.308 Y127.488 E12.45233
G1 X135.022 Y128.366 E12.48368
G1 X134.66 Y129.215 E12.51502
G1 X134.227 Y130.03 E12.54635
G1 X133.724 Y130.805 E12.57772
G1 X133.157 Y131.533 E12.60905
G1 X132.528 Y132.209 E12.6404
G1 X131.843 Y132.829 E12.67177
G1 X131.108 Y133.386 E12.70308
G1 X130.326 Y133.878 E12.73445
G1 X129.506 Y134.301 E12.76577
G1 X128.651 Y134.651 E12.79714
G1 X127.77 Y134.926 E12.82848
G1 X126.868 Y135.123 E12.85982
G1 X125.952 Y135.242 E12.89118
G1 X125.34 Y135.277 E12.912
G1 X125.019 Y135.286 E12.9229
G1 X124.72 Y135.29 E12.93305
G1 X105.657 Y135.29 E13.58028
G1 X105.52 Y135.289 E13.58493
G1 X104.822 Y135.28 E13.60863
G1 X103.9 Y135.228 E13.63998
G1 X102.986 Y135.097 E13.67133
G1 X102.087 Y134.887 E13.70268
G1 X101.209 Y134.6 E13.73404
G1 X100.36 Y134.238 E13.76537
G1 X99.545 Y133.804 E13.79672
G1 X98.771 Y133.301 E13.82806
G1 X98.043 Y132.733 E13.85941
G1 X97.367 Y132.104 E13.89076
G1 X96.748 Y131.419 E13.92211
G1 X96.191 Y130.683 E13.95345
G1 X95.699 Y129.902 E13.98479
G1 X95.277 Y129.081 E14.01613
G1 X94.927 Y128.226 E14.0475
G1 X94.653 Y127.345 E14.07882
G1 X94.456 Y126.443 E14.11017
G1 X94.338 Y125.527 E14.14152
G1 X94.303 Y124.909 E14.16254
G1 X94.294 Y124.576 E14.17385
G1 X94.29 Y124.288 E14.18363
G1 X94.29 Y106.044 E14.80305
G1 X94.291 Y105.9 E14.80794
G1 X94.3 Y105.235 E14.83052
G1 X94.352 Y104.313 E14.86187
G1 X94.484 Y103.399 E14.89323
G1 X94.695 Y102.5 E14.92458
G1 X94.983 Y101.623 E14.95592
G1 X95.345 Y100.774 E14.98725
G1 X95.78 Y99.959 E15.01862
G1 X96.283 Y99.185 E15.04996
G1 X96.851 Y98.458 E15.08128
G1 X97.481 Y97.782 E15.11266
G0 F6000 X97.285 Y98.629
G1 F1200 X97.911 Y97.978 E15.14332
G1 X98.593 Y97.384 E15.17403
G1 X99.324 Y96.853 E15.2047
G1 X100.1 Y96.388 E15.23542
G1 X100.913 Y95.994 E15.26609
G1 X101.759 Y95.673 E15.29681
G1 X102.629 Y95.428 E15.3275
G1 X103.517 Y95.261 E15.35818
G1 X104.673 Y95.163 E15.39757
G1 X104.994 Y95.154 E15.40847
G1 X105.28 Y95.15 E15.41818
G1 X109.733 Y95.15 E15.56937
G1 X109.876 Y95.151 E15.57422
G1 X110.59 Y95.161 E15.59847
G1 X110.746 Y95.164 E15.60377
G1 X113.718 Y95.251 E15.70471
G1 X116.212 Y95.251 E15.78939
G1 X117.119 Y95.22 E15.8202
G1 X117.258 Y95.216 E15.82492
G1 X120.376 Y95.152 E15.93081
G1 X120.586 Y95.15 E15.93794
G1 X124.343 Y95.15 E16.0655
G1 X124.489 Y95.151 E16.07045
G1 X125.187 Y95.161 E16.09415
G1 X126.09 Y95.214 E16.12487
G1 X126.984 Y95.346 E16.15555
G1 X127.863 Y95.557 E16.18624
G1 X128.72 Y95.845 E16.21694
G1 X129.548 Y96.208 E16.24763
G1 X130.341 Y96.642 E16.27832
G1 X131.093 Y97.144 E16.30902
G1 X131.797 Y97.711 E16.33971
G1 X132.448 Y98.338 E16.3704
G1 X133.041 Y99.02 E16.40108
G1 X133.572 Y99.752 E16.43179
G1 X134.036 Y100.528 E16.46248
G1 X134.429 Y101.342 E16.49317
G1 X134.749 Y102.187 E16.52385
G1 X134.994 Y103.058 E16.55457
G1 X135.16 Y103.946 E16.58524
G1 X135.257 Y105.093 E16.62432
G1 X135.266 Y105.413 E16.63519
G1 X135.27 Y105.7 E16.64494
G1 X135.27 Y123.894 E17.26266
G1 X135.269 Y124.021 E17.26697
G1 X135.26 Y124.748 E17.29166
G1 X135.209 Y125.65 E17.32233
G1 X135.078 Y126.545 E17.35304
G1 X134.869 Y127.424 E17.38372
G1 X134.583 Y128.281 E17.41439
G1 X134.222 Y129.11 E17.44509
G1 X133.79 Y129.904 E17.47578
G1 X133.288 Y130.657 E17.50651
G1 X132.723 Y131.362 E17.53718
G1 X132.097 Y132.014 E17.56787
G1 X131.416 Y132.609 E17.59857
G1 X130.685 Y133.141 E17.62927
G1 X129.911 Y133.606 E17.65992
G1 X129.097 Y134.001 E17.69064
G1 X128.253 Y134.323 E17.72131
G1 X127.383 Y134.569 E17.75201
G1 X126.495 Y134.737 E17.78269
G1 X125.327 Y134.837 E17.82249
G1 X125.006 Y134.846 E17.8334
G1 X124.72 Y134.85 E17.84311
G1 X105.657 Y134.85 E18.49033
G1 X105.525 Y134.849 E18.49482
G1 X104.827 Y134.84 E18.51852
G1 X103.925 Y134.789 E18.54919
G1 X103.03 Y134.657 E18.57991
G1 X102.151 Y134.448 E18.61058
G1 X101.294 Y134.161 E18.64127
G1 X100.465 Y133.8 E18.67197
G1 X99.671 Y133.367 E18.70267
G1 X98.919 Y132.865 E18.73337
G1 X98.214 Y132.299 E18.76407
G1 X97.562 Y131.673 E18.79475
G1 X96.968 Y130.992 E18.82543
G1 X96.436 Y130.261 E18.85613
G1 X95.971 Y129.486 E18.88682
G1 X95.576 Y128.673 E18.9175
G1 X95.255 Y127.828 E18.94819
G1 X95.01 Y126.958 E18.97888
G1 X94.842 Y126.069 E19.0096
G1 X94.743 Y124.897 E19.04953
G1 X94.734 Y124.564 E19.06084
G1 X94.73 Y124.288 E19.07021
G1 X94.73 Y106.044 E19.68963
G1 X94.731 Y105.906 E19.69432
G1 X94.74 Y105.241 E19.7169
G1 X94.792 Y104.338 E19.74761
G1 X94.924 Y103.444 E19.77829
G1 X95.134 Y102.565 E19.80897
G1 X95.421 Y101.707 E19.83969
G1 X95.783 Y100.879 E19.87037
G1 X96.217 Y100.086 E19.90107
G1 X96.718 Y99.334 E19.93174
G1 X97.285 Y98.629 E19.96246
G1 F2700 E17.96246
;MESH:Front-cap_Low1.STL
G0 F6000 X106.05 Y123.53
;TYPE:WALL-INNER
G1 F2700 E19.96246
G1 F1200 X106.05 Y106.47 E20.54168
G1 X109.486 Y106.47 E20.65834
G1 X109.786 Y108.545 E20.72952
G1 X120.211 Y108.545 E21.08347
G1 X120.511 Y106.47 E21.15466
G1 X123.95 Y106.47 E21.27142
G1 X123.95 Y123.53 E21.85064
G1 X106.05 Y123.53 E22.45838
G0 F6000 X105.61 Y123.97
G1 F1200 X105.61 Y106.03 E23.06747
G1 X109.867 Y106.03 E23.21201
G1 X110.167 Y108.105 E23.28319
G1 X119.83 Y108.105 E23.61127
G1 X120.13 Y106.03 E23.68245
G1 X124.39 Y106.03 E23.82709
G1 X124.39 Y123.97 E24.43618
G1 X105.61 Y123.97 E25.0738
G0 F6000 X105.17 Y124.41
;TYPE:WALL-OUTER
G1 F1200 X105.17 Y105.59 E25.71278
G1 X110.249 Y105.59 E25.88522
G1 X110.548 Y107.665 E25.9564
G1 X119.449 Y107.665 E26.2586
G1 X119.748 Y105.59 E26.32978
G1 X124.83 Y105.59 E26.50232
G1 X124.83 Y124.41 E27.1413
G1 X105.17 Y124.41 E27.8088
G1 F2700 E25.8088
G0 F6000 X106.48 Y123.1
;TYPE:SKIN
G1 F2700 E27.8088
G1 F1200 X106.48 Y106.9 E28.35882
G1 X109.113 Y106.9 E28.44821
G1 X109.414 Y108.975 E28.5194
G1 X120.583 Y108.975 E28.89861
G1 X120.884 Y106.9 E28.9698
G1 X123.52 Y106.9 E29.05929
G1 X123.52 Y123.1 E29.60932
G1 X106.48 Y123.1 E30.18786
G0 F6000 X106.744 Y122.923
G1 F1200 X106.655 Y122.834 E30.19213
G0 F6000 X106.655 Y122.212
G1 F1200 X107.367 Y122.923 E30.22629
G0 F6000 X107.989 Y122.923
G1 F1200 X106.655 Y121.589 E30.29035
G0 F6000 X106.655 Y120.967
G1 F1200 X108.611 Y122.923 E30.38426
G0 F6000 X109.233 Y122.923
G1 F1200 X106.655 Y120.345 E30.50805
G0 F6000 X106.655 Y119.723
G1 F1200 X109.856 Y122.923 E30.66172
G0 F6000 X110.478 Y122.923
G1 F1200 X106.655 Y119.1 E30.84528
G0 F6000 X106.655 Y118.478
G1 F1200 X111.1 Y122.923 E31.05871
G0 F6000 X111.722 Y122.923
G1 F1200 X106.655 Y117.856 E31.302
G0 F6000 X106.655 Y117.234
G1 F1200 X112.345 Y122.923 E31.57519
G0 F6000 X112.967 Y122.923
G1 F1200 X106.655 Y116.611 E31.87826
G0 F6000 X106.655 Y115.989
G1 F1200 X113.589 Y122.923 E32.2112
G0 F6000 X114.211 Y122.923
G1 F1200 X106.655 Y115.367 E32.574
G0 F6000 X106.655 Y114.745
G1 F1200 X114.834 Y122.923 E32.96669
G0 F6000 X115.456 Y122.923
G1 F1200 X106.655 Y114.122 E33.38928
G0 F6000 X106.655 Y113.5
G1 F1200 X116.078 Y122.923 E33.84173
G0 F6000 X116.7 Y122.923
G1 F1200 X106.655 Y112.878 E34.32404
G0 F6000 X106.655 Y112.256
G1 F1200 X117.323 Y122.923 E34.83624
G0 F6000 X117.945 Y122.923
G1 F1200 X106.655 Y111.633 E35.37834
G0 F6000 X106.655 Y111.011
G1 F1200 X118.567 Y122.923 E35.95029
G0 F6000 X119.189 Y122.923
G1 F1200 X106.655 Y110.389 E36.55212
G0 F6000 X106.655 Y109.767
G1 F1200 X119.812 Y122.923 E37.18383
G0 F6000 X120.434 Y122.923
G1 F1200 X106.655 Y109.144 E37.84543
G0 F6000 X106.655 Y108.522
G1 F1200 X121.056 Y122.923 E38.5369
G0 F6000 X121.678 Y122.923
G1 F1200 X106.655 Y107.9 E39.25824
G0 F6000 X106.655 Y107.277
G1 F1200 X122.301 Y122.923 E40.00948
G0 F6000 X122.923 Y122.923
G1 F1200 X107.075 Y107.075 E40.77043
G0 F6000 X107.698 Y107.075
G1 F1200 X109.174 Y108.552 E40.84132
G0 F6000 X109.068 Y107.823
G1 F1200 X108.32 Y107.075 E40.87724
G1 F2700 E38.87724
G0 F6000 X109.773 Y109.151
G1 F2700 E40.87724
G1 F1200 X123.343 Y122.721 E41.52881
G0 F6000 X123.343 Y122.098
G1 F1200 X110.395 Y109.151 E42.15049
G0 F6000 X111.017 Y109.151
G1 F1200 X123.343 Y121.476 E42.7423
G0 F6000 X123.343 Y120.854
