;FLAVOR:Marlin
;TIME:522
;Filament used: 0.313904m
;Layer height: 0.2
;MINX:93.41
;MINY:93.41
;MINZ:0.2
;MAXX:136.59
;MAXY:136.59
;MAXZ:4.8
;POSTPROCESSED
;Generated with Cura_SteamEngine master
M140 S60
M105
M190 S60
M104 S200
M105
M109 S200
M82 ;absolute extrusion mode
M201 X500.00 Y500.00 Z100.00 E5000.00 ;Setup machine max acceleration
M203 X500.00 Y500.00 Z10.00 E50.00 ;Setup machine max feedrate
M204 P500.00 R1000.00 T500.00 ;Setup Print/Retract/Travel acceleration
M205 X8.00 Y8.00 Z0.40 E5.00 ;Setup Jerk
M220 S100 ;Reset Feedrate
M221 S100 ;Reset Flowrate
; Home all axes
G28 X0 Y0
G28 Z0
; Set K-Factor
M900 K0.1
M141 S28
G92 E0
G92 E0
G1 F2700 E-2
;LAYER_COUNT:24
;LAYER:0
M107
G0 F6000 X96.631 Y96.972 Z0.2
;TYPE:SKIRT
G1 F2700 E0
G1 F1200 X97.324 Y96.307 E0.03261
G1 X98.07 Y95.702 E0.06522
G1 X98.864 Y95.161 E0.09784
G1 X99.7 Y94.688 E0.13045
G1 X100.572 Y94.286 E0.16305
G1 X101.475 Y93.958 E0.19567
G1 X102.402 Y93.706 E0.22829
G1 X103.347 Y93.532 E0.26091
G1 X104.636 Y93.424 E0.30483
G1 X104.956 Y93.415 E0.3157
G1 X105.28 Y93.41 E0.3267
G1 X109.736 Y93.41 E0.47799
G1 X109.895 Y93.411 E0.48339
G1 X110.619 Y93.421 E0.50797
G1 X110.803 Y93.425 E0.51422
G1 X113.763 Y93.513 E0.61476
G1 X116.248 Y93.513 E0.69913
G1 X118.618 Y93.448 E0.77963
G1 X119.169 Y93.426 E0.79835
G1 X119.485 Y93.418 E0.80908
G1 X120.028 Y93.411 E0.82752
G1 X120.177 Y93.41 E0.83258
G1 X124.343 Y93.41 E0.97402
G1 X124.508 Y93.411 E0.97963
G1 X125.206 Y93.421 E1.00333
G1 X126.165 Y93.475 E1.03594
G1 X127.117 Y93.608 E1.06857
G1 X128.054 Y93.82 E1.10119
G1 X128.97 Y94.109 E1.1338
G1 X129.859 Y94.474 E1.16643
G1 X130.714 Y94.911 E1.19903
G1 X131.53 Y95.417 E1.23163
G1 X132.301 Y95.99 E1.26425
G1 X133.022 Y96.625 E1.29687
G1 X133.688 Y97.318 E1.3295
G1 X134.294 Y98.063 E1.3621
G1 X134.835 Y98.857 E1.39472
G1 X135.309 Y99.693 E1.42735
G1 X135.711 Y100.565 E1.45995
G1 X136.04 Y101.468 E1.49258
G1 X136.292 Y102.394 E1.52517
G1 X136.467 Y103.339 E1.5578
G1 X136.576 Y104.636 E1.60199
G1 X136.585 Y104.956 E1.61286
G1 X136.59 Y105.28 E1.62386
G1 X136.59 Y124.314 E2.2701
G1 X136.589 Y124.457 E2.27496
G1 X136.58 Y125.184 E2.29964
G1 X136.528 Y126.143 E2.33225
G1 X136.397 Y127.095 E2.36487
G1 X136.187 Y128.032 E2.39748
G1 X135.899 Y128.949 E2.43011
G1 X135.537 Y129.838 E2.4627
G1 X135.101 Y130.695 E2.49535
G1 X134.596 Y131.512 E2.52796
G1 X134.025 Y132.284 E2.56056
G1 X133.391 Y133.006 E2.59318
G1 X132.7 Y133.673 E2.62579
G1 X131.956 Y134.28 E2.65839
G1 X131.163 Y134.823 E2.69102
G1 X130.328 Y135.298 E2.72364
G1 X129.457 Y135.703 E2.75625
G1 X128.555 Y136.033 E2.78886
G1 X127.629 Y136.287 E2.82146
G1 X126.684 Y136.463 E2.85409
G1 X125.364 Y136.576 E2.89908
G1 X125.043 Y136.585 E2.90998
G1 X124.72 Y136.59 E2.92095
G1 X120.267 Y136.59 E3.07213
G1 X120.107 Y136.589 E3.07757
G1 X119.384 Y136.579 E3.10212
G1 X119.048 Y136.569 E3.11353
G1 X118.827 Y136.559 E3.12104
G1 X116.266 Y136.487 E3.20803
G1 X113.756 Y136.487 E3.29324
G1 X111.387 Y136.552 E3.37371
G1 X110.835 Y136.574 E3.39246
G1 X110.518 Y136.582 E3.40323
G1 X109.975 Y136.589 E3.42167
G1 X109.826 Y136.59 E3.42673
G1 X105.657 Y136.59 E3.56827
G1 X105.508 Y136.589 E3.57333
G1 X104.81 Y136.58 E3.59703
G1 X103.851 Y136.528 E3.62964
G1 X102.899 Y136.396 E3.66227
G1 X101.962 Y136.185 E3.69488
G1 X101.046 Y135.897 E3.72748
G1 X100.156 Y135.534 E3.76011
G1 X99.3 Y135.098 E3.79273
G1 X98.483 Y134.593 E3.82534
G1 X97.711 Y134.021 E3.85796
G1 X96.99 Y133.387 E3.89056
G1 X96.323 Y132.696 E3.92317
G1 X95.716 Y131.951 E3.95579
G1 X95.174 Y131.158 E3.98841
G1 X94.699 Y130.323 E4.02102
G1 X94.295 Y129.451 E4.05365
G1 X93.965 Y128.549 E4.08626
G1 X93.711 Y127.623 E4.11886
G1 X93.536 Y126.678 E4.15149
G1 X93.423 Y125.353 E4.19664
G1 X93.414 Y125.02 E4.20795
G1 X93.41 Y124.708 E4.21855
G1 X93.41 Y105.624 E4.86648
G1 X93.411 Y105.45 E4.87239
G1 X93.421 Y104.785 E4.89497
G1 X93.476 Y103.826 E4.92759
G1 X93.61 Y102.875 E4.96019
G1 X93.822 Y101.938 E4.99281
G1 X94.112 Y101.023 E5.0254
G1 X94.477 Y100.134 E5.05803
G1 X94.915 Y99.279 E5.09064
G1 X95.422 Y98.463 E5.12326
G1 X95.995 Y97.692 E5.15588
G1 X96.631 Y96.972 E5.18849
G0 F6000 X97.062 Y97.159
G1 F1200 X97.752 Y96.518 E5.22047
G1 X98.494 Y95.937 E5.25246
G1 X99.282 Y95.421 E5.28444
G1 X100.112 Y94.974 E5.31645
G1 X100.976 Y94.599 E5.34843
G1 X101.869 Y94.298 E5.38042
G1 X102.784 Y94.074 E5.41241
G1 X103.715 Y93.929 E5.4444
G1 X104.648 Y93.863 E5.47615
G1 X104.968 Y93.854 E5.48702
G1 X105.28 Y93.85 E5.49762
G1 X109.736 Y93.85 E5.64891
G1 X109.889 Y93.851 E5.6541
G1 X110.613 Y93.861 E5.67869
G1 X110.79 Y93.865 E5.6847
G1 X113.75 Y93.953 E5.78524
G1 X116.26 Y93.953 E5.87046
G1 X118.649 Y93.888 E5.9516
G1 X119.187 Y93.866 E5.96988
G1 X119.491 Y93.858 E5.98021
G1 X120.034 Y93.851 E5.99864
G1 X120.177 Y93.85 E6.0035
G1 X124.343 Y93.85 E6.14494
G1 X124.502 Y93.851 E6.15034
G1 X125.2 Y93.861 E6.17404
G1 X126.141 Y93.915 E6.20604
G1 X127.073 Y94.048 E6.23801
G1 X127.991 Y94.259 E6.26999
G1 X128.888 Y94.548 E6.30198
G1 X129.757 Y94.912 E6.33397
G1 X130.592 Y95.348 E6.36595
G1 X131.387 Y95.853 E6.39793
G1 X132.137 Y96.424 E6.42993
G1 X132.835 Y97.057 E6.46193
G1 X133.477 Y97.746 E6.4939
G1 X134.059 Y98.487 E6.52589
G1 X134.575 Y99.275 E6.55787
G1 X135.023 Y100.104 E6.58986
G1 X135.398 Y100.968 E6.62184
G1 X135.7 Y101.861 E6.65385
G1 X135.924 Y102.776 E6.68583
G1 X136.07 Y103.707 E6.71783
G1 X136.137 Y104.648 E6.74986
G1 X136.146 Y104.968 E6.76073
G1 X136.15 Y105.28 E6.77132
G1 X136.15 Y124.314 E7.41756
G1 X136.149 Y124.451 E7.42221
G1 X136.14 Y125.178 E7.4469
G1 X136.089 Y126.119 E7.47889
G1 X135.957 Y127.052 E7.51089
G1 X135.747 Y127.971 E7.54289
G1 X135.46 Y128.868 E7.57487
G1 X135.098 Y129.738 E7.60686
G1 X134.664 Y130.574 E7.63884
G1 X134.16 Y131.37 E7.67083
G1 X133.591 Y132.12 E7.70279
G1 X132.959 Y132.82 E7.73481
G1 X132.271 Y133.463 E7.76679
G1 X131.531 Y134.046 E7.79877
G1 X130.744 Y134.564 E7.83076
G1 X129.916 Y135.013 E7.86274
G1 X129.053 Y135.391 E7.89473
G1 X128.161 Y135.694 E7.92671
G1 X127.246 Y135.92 E7.95871
G1 X126.316 Y136.068 E7.99068
G1 X125.352 Y136.137 E8.0235
G1 X125.031 Y136.146 E8.0344
G1 X124.72 Y136.15 E8.04496
G1 X120.267 Y136.15 E8.19615
G1 X120.113 Y136.149 E8.20138
G1 X119.39 Y136.139 E8.22593
G1 X119.067 Y136.13 E8.2369
G1 X118.859 Y136.121 E8.24396
G1 X116.242 Y136.047 E8.33285
G1 X113.744 Y136.047 E8.41766
G1 X111.357 Y136.112 E8.49874
G1 X110.817 Y136.134 E8.51709
G1 X110.512 Y136.142 E8.52745
G1 X109.969 Y136.149 E8.54588
G1 X109.826 Y136.15 E8.55074
G1 X105.657 Y136.15 E8.69228
G1 X105.514 Y136.149 E8.69714
G1 X104.816 Y136.14 E8.72084
G1 X103.875 Y136.088 E8.75284
G1 X102.942 Y135.956 E8.78483
G1 X102.024 Y135.746 E8.8168
G1 X101.127 Y135.458 E8.84879
G1 X100.257 Y135.096 E8.88078
G1 X99.421 Y134.661 E8.91278
G1 X98.626 Y134.157 E8.94474
G1 X97.875 Y133.587 E8.97675
G1 X97.176 Y132.955 E9.00874
G1 X96.533 Y132.267 E9.04072
G1 X95.951 Y131.526 E9.07271
G1 X95.433 Y130.739 E9.10469
G1 X94.984 Y129.911 E9.13667
G1 X94.607 Y129.047 E9.16868
G1 X94.305 Y128.155 E9.20065
G1 X94.079 Y127.241 E9.23262
G1 X93.932 Y126.31 E9.26462
G1 X93.863 Y125.341 E9.2976
G1 X93.854 Y125.008 E9.30891
G1 X93.85 Y124.708 E9.3191
G1 X93.85 Y105.624 E9.96704
G1 X93.851 Y105.457 E9.97271
G1 X93.861 Y104.792 E9.99529
G1 X93.915 Y103.852 E10.02726
G1 X94.049 Y102.919 E10.05926
G1 X94.261 Y102.001 E10.09125
G1 X94.551 Y101.104 E10.12325
G1 X94.915 Y100.236 E10.15521
G1 X95.352 Y99.401 E10.18721
G1 X95.858 Y98.606 E10.2192
G1 X96.429 Y97.857 E10.25118
G1 X97.062 Y97.159 E10.28317
G0 F6000 X97.493 Y97.351
G1 F1200 X98.179 Y96.733 E10.31452
G1 X98.917 Y96.178 E10.34587
G1 X99.699 Y95.688 E10.37721
G1 X100.521 Y95.267 E10.40856
G1 X101.376 Y94.919 E10.4399
G1 X102.259 Y94.647 E10.47127
G1 X103.161 Y94.452 E10.5026
G1 X104.077 Y94.336 E10.53395
G1 X104.66 Y94.303 E10.55378
G1 X104.98 Y94.294 E10.56465
G1 X105.28 Y94.29 E10.57483
G1 X109.736 Y94.29 E10.72612
G1 X109.883 Y94.291 E10.73111
G1 X110.607 Y94.301 E10.7557
G1 X110.777 Y94.305 E10.76147
G1 X113.737 Y94.393 E10.86201
G1 X116.272 Y94.393 E10.94808
G1 X118.68 Y94.327 E11.02987
G1 X119.205 Y94.306 E11.04771
G1 X119.497 Y94.298 E11.05763
G1 X120.04 Y94.291 E11.07606
G1 X120.177 Y94.29 E11.08071
G1 X124.343 Y94.29 E11.22216
G1 X124.496 Y94.291 E11.22735
G1 X125.194 Y94.301 E11.25105
G1 X126.115 Y94.354 E11.28238
G1 X127.029 Y94.487 E11.31373
G1 X127.928 Y94.698 E11.34509
G1 X128.805 Y94.987 E11.37644
G1 X129.654 Y95.35 E11.40779
G1 X130.468 Y95.785 E11.43912
G1 X131.242 Y96.289 E11.47048
G1 X131.969 Y96.858 E11.50183
G1 X132.644 Y97.488 E11.53317
G1 X133.262 Y98.174 E11.56452
G1 X133.818 Y98.91 E11.59584
G1 X134.309 Y99.693 E11.62722
G1 X134.73 Y100.514 E11.65855
G1 X135.078 Y101.369 E11.68989
G1 X135.351 Y102.251 E11.72123
G1 X135.547 Y103.153 E11.75257
G1 X135.664 Y104.069 E11.78393
G1 X135.697 Y104.66 E11.80402
G1 X135.706 Y104.98 E11.81489
G1 X135.71 Y105.28 E11.82508
G1 X135.71 Y124.314 E12.47132
G1 X135.709 Y124.446 E12.4758
G1 X135.7 Y125.173 E12.50049
G1 X135.649 Y126.095 E12.53184
G1 X135.518 Y127.009 E12.56319
G1 X135.308 Y127.908 E12.59453
G1 X135.022 Y128.786 E12.62588
G1 X134.66 Y129.635 E12.65722
G1 X134.227 Y130.45 E12.68855
G1 X133.724 Y131.225 E12.71992
G1 X133.157 Y131.953 E12.75125
G1 X132.528 Y132.629 E12.7826
G1 X131.843 Y133.249 E12.81397
G1 X131.108 Y133.806 E12.84528
G1 X130.326 Y134.298 E12.87665
G1 X129.506 Y134.721 E12.90798
G1 X128.651 Y135.071 E12.93934
G1 X127.77 Y135.346 E12.97068
G1 X126.868 Y135.543 E13.00202
G1 X125.952 Y135.662 E13.03339
G1 X125.34 Y135.697 E13.0542
G1 X125.019 Y135.706 E13.0651
G1 X124.72 Y135.71 E13.07525
G1 X120.267 Y135.71 E13.22644
G1 X120.12 Y135.709 E13.23143
G1 X119.397 Y135.699 E13.25598
G1 X119.086 Y135.69 E13.26655
G1 X118.892 Y135.682 E13.27314
G1 X116.254 Y135.607 E13.36274
G1 X113.732 Y135.607 E13.44837
G1 X111.326 Y135.673 E13.53009
G1 X110.799 Y135.694 E13.54799
G1 X110.506 Y135.702 E13.55794
G1 X109.963 Y135.709 E13.57638
G1 X109.826 Y135.71 E13.58103
G1 X105.657 Y135.71 E13.72258
G1 X105.52 Y135.709 E13.72723
G1 X104.822 Y135.7 E13.75093
G1 X103.9 Y135.648 E13.78228
G1 X102.986 Y135.517 E13.81363
G1 X102.087 Y135.307 E13.84498
G1 X101.209 Y135.02 E13.87634
G1 X100.36 Y134.658 E13.90768
G1 X99.545 Y134.224 E13.93903
G1 X98.771 Y133.721 E13.97037
G1 X98.043 Y133.153 E14.00172
G1 X97.367 Y132.524 E14.03307
G1 X96.748 Y131.839 E14.06441
G1 X96.191 Y131.103 E14.09575
G1 X95.699 Y130.322 E14.12709
G1 X95.277 Y129.501 E14.15843
G1 X94.927 Y128.646 E14.1898
G1 X94.653 Y127.765 E14.22112
G1 X94.456 Y126.863 E14.25247
G1 X94.338 Y125.947 E14.28383
G1 X94.303 Y125.329 E14.30484
G1 X94.294 Y124.996 E14.31615
G1 X94.29 Y124.708 E14.32593
G1 X94.29 Y105.624 E14.97387
G1 X94.291 Y105.464 E14.9793
G1 X94.301 Y104.799 E15.00188
G1 X94.355 Y103.877 E15.03324
G1 X94.488 Y102.963 E15.0646
G1 X94.7 Y102.065 E15.09593
G1 X94.989 Y101.188 E15.12728
G1 X95.353 Y100.339 E15.15864
G1 X95.789 Y99.525 E15.18999
G1 X96.293 Y98.752 E15.22132
G1 X96.863 Y98.026 E15.25266
G1 X97.493 Y97.351 E15.28401
G0 F6000 X97.296 Y98.198
G1 F1200 X97.924 Y97.547 E15.31472
G1 X98.606 Y96.954 E15.3454
G1 X99.338 Y96.424 E15.37609
G1 X100.114 Y95.961 E15.40677
G1 X100.928 Y95.568 E15.43746
G1 X101.774 Y95.248 E15.46817
G1 X102.645 Y95.005 E15.49887
G1 X103.533 Y94.839 E15.52954
G1 X104.673 Y94.743 E15.56838
G1 X104.993 Y94.734 E15.57925
G1 X105.28 Y94.73 E15.589
G1 X109.736 Y94.73 E15.74029
G1 X109.877 Y94.731 E15.74507
G1 X110.601 Y94.741 E15.76966
G1 X110.764 Y94.745 E15.77519
G1 X113.724 Y94.833 E15.87573
G1 X116.284 Y94.833 E15.96265
G1 X118.63 Y94.769 E16.04233
G1 X119.222 Y94.745 E16.06245
G1 X119.502 Y94.738 E16.07196
G1 X120.045 Y94.731 E16.0904
G1 X120.177 Y94.73 E16.09488
G1 X124.343 Y94.73 E16.23632
G1 X124.489 Y94.731 E16.24128
G1 X125.187 Y94.741 E16.26498
G1 X126.09 Y94.794 E16.29569
G1 X126.984 Y94.926 E16.32637
G1 X127.863 Y95.137 E16.35706
G1 X128.72 Y95.425 E16.38776
G1 X129.548 Y95.788 E16.41846
G1 X130.341 Y96.222 E16.44915
G1 X131.093 Y96.724 E16.47985
G1 X131.797 Y97.291 E16.51054
G1 X132.448 Y97.918 E16.54122
G1 X133.041 Y98.6 E16.57191
G1 X133.572 Y99.332 E16.60261
G1 X134.036 Y100.108 E16.63331
G1 X134.429 Y100.922 E16.664
G1 X134.749 Y101.767 E16.69468
G1 X134.994 Y102.638 E16.7254
G1 X135.16 Y103.526 E16.75607
G1 X135.257 Y104.673 E16.79515
G1 X135.266 Y104.993 E16.80602
G1 X135.27 Y105.28 E16.81576
G1 X135.27 Y124.314 E17.462
G1 X135.269 Y124.441 E17.46632
G1 X135.26 Y125.168 E17.491
G1 X135.209 Y126.07 E17.52167
G1 X135.078 Y126.965 E17.55239
G1 X134.869 Y127.844 E17.58306
G1 X134.583 Y128.701 E17.61374
G1 X134.222 Y129.53 E17.64443
G1 X133.79 Y130.324 E17.67512
G1 X133.288 Y131.077 E17.70585
G1 X132.723 Y131.782 E17.73652
G1 X132.097 Y132.434 E17.76721
G1 X131.416 Y133.029 E17.79792
G1 X130.685 Y133.561 E17.82861
G1 X129.911 Y134.026 E17.85927
G1 X129.097 Y134.421 E17.88999
G1 X128.253 Y134.743 E17.92066
G1 X127.383 Y134.989 E17.95135
G1 X126.495 Y135.157 E17.98204
G1 X125.327 Y135.257 E18.02184
G1 X125.006 Y135.266 E18.03274
G1 X124.72 Y135.27 E18.04245
G1 X120.267 Y135.27 E18.19364
G1 X120.126 Y135.269 E18.19843
G1 X119.403 Y135.259 E18.22298
G1 X119.104 Y135.251 E18.23313
G1 X118.851 Y135.24 E18.24173
G1 X116.267 Y135.167 E18.3295
G1 X113.72 Y135.167 E18.41597
G1 X111.372 Y135.231 E18.49572
G1 X110.781 Y135.255 E18.5158
G1 X110.501 Y135.262 E18.52531
G1 X109.958 Y135.269 E18.54375
G1 X109.826 Y135.27 E18.54823
G1 X105.657 Y135.27 E18.68978
G1 X105.525 Y135.269 E18.69426
G1 X104.827 Y135.26 E18.71796
G1 X103.925 Y135.209 E18.74863
G1 X103.03 Y135.077 E18.77935
G1 X102.151 Y134.868 E18.81003
G1 X101.294 Y134.581 E18.84071
G1 X100.465 Y134.22 E18.87141
G1 X99.671 Y133.787 E18.90212
G1 X98.919 Y133.285 E18.93281
G1 X98.214 Y132.719 E18.96351
G1 X97.562 Y132.093 E18.9942
G1 X96.968 Y131.412 E19.02488
G1 X96.436 Y130.681 E19.05557
G1 X95.971 Y129.906 E19.08626
G1 X95.576 Y129.093 E19.11695
G1 X95.255 Y128.248 E19.14764
G1 X95.01 Y127.378 E19.17833
G1 X94.842 Y126.489 E19.20904
G1 X94.743 Y125.317 E19.24898
G1 X94.734 Y124.984 E19.26029
G1 X94.73 Y124.708 E19.26966
G1 X94.73 Y105.624 E19.9176
G1 X94.731 Y105.47 E19.92283
G1 X94.741 Y104.805 E19.94541
G1 X94.795 Y103.903 E19.97609
G1 X94.928 Y103.009 E20.00677
G1 X95.139 Y102.13 E20.03746
G1 X95.428 Y101.273 E20.06817
G1 X95.791 Y100.445 E20.09887
G1 X96.226 Y99.653 E20.12955
G1 X96.729 Y98.902 E20.16023
G1 X97.296 Y98.198 E20.19092
G1 F2700 E18.19092
;MESH:Front-cap_Top1.STL
G0 F6000 X109.45 Y123.95
;TYPE:WALL-INNER
G1 F2700 E20.19092
G1 F1200 X106.05 Y123.95 E20.30636
G1 X106.05 Y106.05 E20.9141
G1 X109.45 Y106.05 E21.02954
G1 X109.749 Y108.964 E21.12899
G1 X120.254 Y108.964 E21.48566
G1 X120.553 Y106.05 E21.58511
G1 X123.95 Y106.05 E21.70045
G1 X123.95 Y123.95 E22.30819
G1 X120.553 Y123.95 E22.42352
G1 X120.254 Y121.036 E22.52298
G1 X109.749 Y121.036 E22.87964
G1 X109.45 Y123.95 E22.9791
G0 F6000 X109.847 Y124.39
G1 F1200 X105.61 Y124.39 E23.12295
G1 X105.61 Y105.61 E23.76057
G1 X109.847 Y105.61 E23.90443
G1 X110.146 Y108.524 E24.00388
G1 X119.857 Y108.524 E24.33359
G1 X120.156 Y105.61 E24.43304
G1 X124.39 Y105.61 E24.5768
G1 X124.39 Y124.39 E25.21441
G1 X120.156 Y124.39 E25.35817
G1 X119.857 Y121.476 E25.45762
G1 X110.146 Y121.476 E25.78733
G1 X109.847 Y124.39 E25.88678
G0 F6000 X110.244 Y124.83
;TYPE:WALL-OUTER
G1 F1200 X105.17 Y124.83 E26.05906
G1 X105.17 Y105.17 E26.72655
G1 X110.244 Y105.17 E26.89882
G1 X110.543 Y108.084 E26.99828
G1 X119.46 Y108.084 E27.30103
G1 X119.759 Y105.17 E27.40048
G1 X124.83 Y105.17 E27.57265
G1 X124.83 Y124.83 E28.24015
G1 X119.759 Y124.83 E28.41232
G1 X119.46 Y121.916 E28.51178
G1 X110.543 Y121.916 E28.81453
G1 X110.244 Y124.83 E28.91398
G1 F2700 E26.91398
G0 F6000 X109.061 Y123.52
;TYPE:SKIN
G1 F2700 E28.91398
G1 F1200 X106.48 Y123.52 E29.00161
G1 X106.48 Y106.48 E29.58015
G1 X109.061 Y106.48 E29.66778
G1 X109.36 Y109.394 E29.76724
G1 X120.643 Y109.394 E30.15032
G1 X120.942 Y106.48 E30.24977
G1 X123.52 Y106.48 E30.3373
G1 X123.52 Y123.52 E30.91584
G1 X120.942 Y123.52 E31.00337
G1 X120.643 Y120.606 E31.10283
G1 X109.36 Y120.606 E31.48591
G1 X109.061 Y123.52 E31.58536
