;FLAVOR:Marlin
;TIME:733
;Filament used: 0.397433m
;Layer height: 0.2
;MINX:93.41
;MINY:93.41
;MINZ:0.2
;MAXX:136.59
;MAXY:136.59
;MAXZ:9.8
;POSTPROCESSED
;Generated with Cura_SteamEngine master
M140 S60
M105
M190 S60
M104 S200
M105
M109 S200
M82 ;absolute extrusion mode
M201 X500.00 Y500.00 Z100.00 E5000.00 ;Setup machine max acceleration
M203 X500.00 Y500.00 Z10.00 E50.00 ;Setup machine max feedrate
M204 P500.00 R1000.00 T500.00 ;Setup Print/Retract/Travel acceleration
M205 X8.00 Y8.00 Z0.40 E5.00 ;Setup Jerk
M220 S100 ;Reset Feedrate
M221 S100 ;Reset Flowrate
; Home all axes
G28 X0 Y0
G28 Z0
; Set K-Factor
M900 K0.1
M141 S28
G92 E0
G92 E0
G1 F2700 E-2
;LAYER_COUNT:49
;LAYER:0
M107
G0 F6000 X96.618 Y96.984 Z0.2
;TYPE:SKIRT
G1 F2700 E0
G1 F1200 X97.31 Y96.318 E0.03261
G1 X98.055 Y95.712 E0.06521
G1 X98.848 Y95.17 E0.09783
G1 X99.683 Y94.695 E0.13044
G1 X100.555 Y94.292 E0.16306
G1 X101.458 Y93.963 E0.19569
G1 X102.384 Y93.71 E0.22828
G1 X103.329 Y93.535 E0.26091
G1 X104.636 Y93.424 E0.30544
G1 X104.957 Y93.415 E0.31635
G1 X105.28 Y93.41 E0.32731
G1 X124.343 Y93.41 E0.97454
G1 X124.508 Y93.411 E0.98014
G1 X125.206 Y93.421 E1.00384
G1 X126.165 Y93.475 E1.03645
G1 X127.117 Y93.608 E1.06909
G1 X128.054 Y93.82 E1.10171
G1 X128.97 Y94.109 E1.13432
G1 X129.859 Y94.474 E1.16695
G1 X130.714 Y94.911 E1.19955
G1 X131.53 Y95.417 E1.23215
G1 X132.301 Y95.99 E1.26476
G1 X133.022 Y96.625 E1.29738
G1 X133.688 Y97.318 E1.33001
G1 X134.294 Y98.063 E1.36262
G1 X134.835 Y98.857 E1.39524
G1 X135.309 Y99.693 E1.42787
G1 X135.711 Y100.565 E1.46047
G1 X136.04 Y101.468 E1.4931
G1 X136.292 Y102.394 E1.52568
G1 X136.467 Y103.339 E1.55831
G1 X136.576 Y104.636 E1.6025
G1 X136.585 Y104.956 E1.61337
G1 X136.59 Y105.28 E1.62437
G1 X136.59 Y124.314 E2.27062
G1 X136.589 Y124.457 E2.27547
G1 X136.58 Y125.184 E2.30016
G1 X136.528 Y126.143 E2.33276
G1 X136.397 Y127.095 E2.36539
G1 X136.187 Y128.032 E2.39799
G1 X135.899 Y128.949 E2.43063
G1 X135.537 Y129.838 E2.46322
G1 X135.101 Y130.695 E2.49586
G1 X134.596 Y131.512 E2.52847
G1 X134.025 Y132.284 E2.56107
G1 X133.391 Y133.006 E2.5937
G1 X132.7 Y133.673 E2.6263
G1 X131.956 Y134.28 E2.6589
G1 X131.163 Y134.823 E2.69154
G1 X130.328 Y135.298 E2.72415
G1 X129.457 Y135.703 E2.75676
G1 X128.555 Y136.033 E2.78937
G1 X127.629 Y136.287 E2.82197
G1 X126.684 Y136.463 E2.85461
G1 X125.364 Y136.576 E2.89959
G1 X125.043 Y136.585 E2.91049
G1 X124.72 Y136.59 E2.92146
G1 X105.657 Y136.59 E3.56869
G1 X105.508 Y136.589 E3.57375
G1 X104.81 Y136.58 E3.59745
G1 X103.851 Y136.528 E3.63006
G1 X102.899 Y136.396 E3.66269
G1 X101.962 Y136.185 E3.6953
G1 X101.046 Y135.897 E3.7279
G1 X100.156 Y135.534 E3.76053
G1 X99.3 Y135.098 E3.79315
G1 X98.483 Y134.593 E3.82576
G1 X97.711 Y134.021 E3.85838
G1 X96.99 Y133.387 E3.89098
G1 X96.323 Y132.696 E3.92358
G1 X95.716 Y131.951 E3.95621
G1 X95.174 Y131.158 E3.98882
G1 X94.699 Y130.323 E4.02144
G1 X94.295 Y129.451 E4.05407
G1 X93.965 Y128.549 E4.08668
G1 X93.711 Y127.623 E4.11928
G1 X93.536 Y126.678 E4.15191
G1 X93.423 Y125.353 E4.19706
G1 X93.414 Y125.02 E4.20837
G1 X93.41 Y124.708 E4.21896
G1 X93.41 Y105.624 E4.8669
G1 X93.411 Y105.468 E4.8722
G1 X93.42 Y104.803 E4.89478
G1 X93.473 Y103.844 E4.92739
G1 X93.606 Y102.892 E4.96002
G1 X93.817 Y101.955 E4.99263
G1 X94.105 Y101.039 E5.02523
G1 X94.469 Y100.15 E5.05785
G1 X94.905 Y99.294 E5.09046
G1 X95.411 Y98.477 E5.12309
G1 X95.983 Y97.706 E5.15569
G1 X96.618 Y96.984 E5.18833
G0 F6000 X97.05 Y97.171
G1 F1200 X97.738 Y96.529 E5.22028
G1 X98.479 Y95.947 E5.25227
G1 X99.267 Y95.43 E5.28427
G1 X100.096 Y94.981 E5.31628
G1 X100.959 Y94.605 E5.34824
G1 X101.852 Y94.303 E5.38025
G1 X102.766 Y94.078 E5.4122
G1 X103.697 Y93.931 E5.44421
G1 X104.648 Y93.863 E5.47658
G1 X104.969 Y93.854 E5.48748
G1 X105.28 Y93.85 E5.49804
G1 X124.343 Y93.85 E6.14527
G1 X124.502 Y93.851 E6.15066
G1 X125.2 Y93.861 E6.17436
G1 X126.141 Y93.915 E6.20637
G1 X127.073 Y94.048 E6.23833
G1 X127.991 Y94.259 E6.27031
G1 X128.888 Y94.548 E6.30231
G1 X129.757 Y94.912 E6.33429
G1 X130.592 Y95.348 E6.36628
G1 X131.387 Y95.853 E6.39825
G1 X132.137 Y96.424 E6.43026
G1 X132.835 Y97.057 E6.46225
G1 X133.477 Y97.746 E6.49422
G1 X134.059 Y98.487 E6.52621
G1 X134.575 Y99.275 E6.55819
G1 X135.023 Y100.104 E6.59019
G1 X135.398 Y100.968 E6.62217
G1 X135.7 Y101.861 E6.65417
G1 X135.924 Y102.776 E6.68616
G1 X136.07 Y103.707 E6.71815
G1 X136.137 Y104.648 E6.75018
G1 X136.146 Y104.968 E6.76105
G1 X136.15 Y105.28 E6.77164
G1 X136.15 Y124.314 E7.41788
G1 X136.149 Y124.451 E7.42254
G1 X136.14 Y125.178 E7.44722
G1 X136.089 Y126.119 E7.47922
G1 X135.957 Y127.052 E7.51121
G1 X135.747 Y127.971 E7.54322
G1 X135.46 Y128.868 E7.57519
G1 X135.098 Y129.738 E7.60718
G1 X134.664 Y130.574 E7.63917
G1 X134.16 Y131.37 E7.67115
G1 X133.591 Y132.12 E7.70312
G1 X132.959 Y132.82 E7.73514
G1 X132.271 Y133.463 E7.76711
G1 X131.531 Y134.046 E7.79909
G1 X130.744 Y134.564 E7.83108
G1 X129.916 Y135.013 E7.86306
G1 X129.053 Y135.391 E7.89505
G1 X128.161 Y135.694 E7.92703
G1 X127.246 Y135.92 E7.95903
G1 X126.316 Y136.068 E7.99101
G1 X125.352 Y136.137 E8.02382
G1 X125.031 Y136.146 E8.03472
G1 X124.72 Y136.15 E8.04528
G1 X105.657 Y136.15 E8.69251
G1 X105.514 Y136.149 E8.69736
G1 X104.816 Y136.14 E8.72106
G1 X103.875 Y136.088 E8.75306
G1 X102.942 Y135.956 E8.78505
G1 X102.024 Y135.746 E8.81703
G1 X101.127 Y135.458 E8.84901
G1 X100.257 Y135.096 E8.88101
G1 X99.421 Y134.661 E8.913
G1 X98.626 Y134.157 E8.94496
G1 X97.875 Y133.587 E8.97697
G1 X97.176 Y132.955 E9.00897
G1 X96.533 Y132.267 E9.04094
G1 X95.951 Y131.526 E9.07293
G1 X95.433 Y130.739 E9.10492
G1 X94.984 Y129.911 E9.1369
G1 X94.607 Y129.047 E9.1689
G1 X94.305 Y128.155 E9.20088
G1 X94.079 Y127.241 E9.23284
G1 X93.932 Y126.31 E9.26484
G1 X93.863 Y125.341 E9.29783
G1 X93.854 Y125.008 E9.30914
G1 X93.85 Y124.708 E9.31932
G1 X93.85 Y105.624 E9.96726
G1 X93.851 Y105.474 E9.97236
G1 X93.86 Y104.809 E9.99494
G1 X93.913 Y103.868 E10.02694
G1 X94.045 Y102.935 E10.05893
G1 X94.256 Y102.017 E10.09091
G1 X94.544 Y101.12 E10.1229
G1 X94.907 Y100.251 E10.15487
G1 X95.342 Y99.415 E10.18687
G1 X95.847 Y98.62 E10.21884
G1 X96.418 Y97.87 E10.25085
G1 X97.05 Y97.171 E10.28284
G0 F6000 X97.481 Y97.362
G1 F1200 X98.166 Y96.744 E10.31417
G1 X98.902 Y96.187 E10.3455
G1 X99.684 Y95.696 E10.37685
G1 X100.506 Y95.274 E10.40822
G1 X101.36 Y94.925 E10.43955
G1 X102.242 Y94.651 E10.4709
G1 X103.144 Y94.455 E10.50224
G1 X104.06 Y94.337 E10.5336
G1 X104.66 Y94.303 E10.554
G1 X104.981 Y94.294 E10.56491
G1 X105.28 Y94.29 E10.57506
G1 X124.343 Y94.29 E11.22229
G1 X124.496 Y94.291 E11.22748
G1 X125.194 Y94.301 E11.25118
G1 X126.115 Y94.354 E11.2825
G1 X127.029 Y94.487 E11.31386
G1 X127.928 Y94.698 E11.34521
G1 X128.805 Y94.987 E11.37657
G1 X129.654 Y95.35 E11.40791
G1 X130.468 Y95.785 E11.43925
G1 X131.242 Y96.289 E11.47061
G1 X131.969 Y96.858 E11.50195
G1 X132.644 Y97.488 E11.5333
G1 X133.262 Y98.174 E11.56465
G1 X133.818 Y98.91 E11.59597
G1 X134.309 Y99.693 E11.62735
G1 X134.73 Y100.514 E11.65867
G1 X135.078 Y101.369 E11.69001
G1 X135.351 Y102.251 E11.72136
G1 X135.547 Y103.153 E11.7527
G1 X135.664 Y104.069 E11.78405
G1 X135.697 Y104.66 E11.80415
G1 X135.706 Y104.98 E11.81502
G1 X135.71 Y105.28 E11.82521
G1 X135.71 Y124.314 E12.47145
G1 X135.709 Y124.446 E12.47593
G1 X135.7 Y125.173 E12.50061
G1 X135.649 Y126.095 E12.53197
G1 X135.518 Y127.009 E12.56331
G1 X135.308 Y127.908 E12.59466
G1 X135.022 Y128.786 E12.62601
G1 X134.66 Y129.635 E12.65735
G1 X134.227 Y130.45 E12.68868
G1 X133.724 Y131.225 E12.72005
G1 X133.157 Y131.953 E12.75138
G1 X132.528 Y132.629 E12.78273
G1 X131.843 Y133.249 E12.8141
G1 X131.108 Y133.806 E12.84541
G1 X130.326 Y134.298 E12.87678
G1 X129.506 Y134.721 E12.9081
G1 X128.651 Y135.071 E12.93947
G1 X127.77 Y135.346 E12.97081
G1 X126.868 Y135.543 E13.00215
G1 X125.952 Y135.662 E13.03351
G1 X125.34 Y135.697 E13.05433
G1 X125.019 Y135.706 E13.06523
G1 X124.72 Y135.71 E13.07538
G1 X105.657 Y135.71 E13.72261
G1 X105.52 Y135.709 E13.72726
G1 X104.822 Y135.7 E13.75096
G1 X103.9 Y135.648 E13.78231
G1 X102.986 Y135.517 E13.81366
G1 X102.087 Y135.307 E13.84501
G1 X101.209 Y135.02 E13.87637
G1 X100.36 Y134.658 E13.9077
G1 X99.545 Y134.224 E13.93905
G1 X98.771 Y133.721 E13.97039
G1 X98.043 Y133.153 E14.00174
G1 X97.367 Y132.524 E14.03309
G1 X96.748 Y131.839 E14.06444
G1 X96.191 Y131.103 E14.09578
G1 X95.699 Y130.322 E14.12712
G1 X95.277 Y129.501 E14.15846
G1 X94.927 Y128.646 E14.18983
G1 X94.653 Y127.765 E14.22115
G1 X94.456 Y126.863 E14.2525
G1 X94.338 Y125.947 E14.28385
G1 X94.303 Y125.329 E14.30487
G1 X94.294 Y124.996 E14.31618
G1 X94.29 Y124.708 E14.32596
G1 X94.29 Y105.624 E14.9739
G1 X94.291 Y105.48 E14.97879
G1 X94.3 Y104.815 E15.00137
G1 X94.352 Y103.893 E15.03272
G1 X94.484 Y102.979 E15.06408
G1 X94.695 Y102.08 E15.09543
G1 X94.983 Y101.203 E15.12677
G1 X95.345 Y100.354 E15.1581
G1 X95.78 Y99.539 E15.18947
G1 X96.283 Y98.765 E15.22081
G1 X96.851 Y98.038 E15.25213
G1 X97.481 Y97.362 E15.28351
G0 F6000 X97.285 Y98.209
G1 F1200 X97.911 Y97.558 E15.31417
G1 X98.593 Y96.964 E15.34488
G1 X99.324 Y96.433 E15.37555
G1 X100.1 Y95.968 E15.40627
G1 X100.913 Y95.574 E15.43694
G1 X101.759 Y95.253 E15.46766
G1 X102.629 Y95.008 E15.49835
G1 X103.517 Y94.841 E15.52903
G1 X104.673 Y94.743 E15.56842
G1 X104.994 Y94.734 E15.57932
G1 X105.28 Y94.73 E15.58903
G1 X124.343 Y94.73 E16.23626
G1 X124.489 Y94.731 E16.24121
G1 X125.187 Y94.741 E16.26492
G1 X126.09 Y94.794 E16.29563
G1 X126.984 Y94.926 E16.32631
G1 X127.863 Y95.137 E16.357
G1 X128.72 Y95.425 E16.3877
G1 X129.548 Y95.788 E16.41839
G1 X130.341 Y96.222 E16.44908
G1 X131.093 Y96.724 E16.47978
G1 X131.797 Y97.291 E16.51047
G1 X132.448 Y97.918 E16.54116
G1 X133.041 Y98.6 E16.57184
G1 X133.572 Y99.332 E16.60255
G1 X134.036 Y100.108 E16.63324
G1 X134.429 Y100.922 E16.66393
G1 X134.749 Y101.767 E16.69461
G1 X134.994 Y102.638 E16.72533
G1 X135.16 Y103.526 E16.756
G1 X135.257 Y104.673 E16.79508
G1 X135.266 Y104.993 E16.80595
G1 X135.27 Y105.28 E16.8157
G1 X135.27 Y124.314 E17.46194
G1 X135.269 Y124.441 E17.46625
G1 X135.26 Y125.168 E17.49094
G1 X135.209 Y126.07 E17.52161
G1 X135.078 Y126.965 E17.55232
G1 X134.869 Y127.844 E17.583
G1 X134.583 Y128.701 E17.61367
G1 X134.222 Y129.53 E17.64437
G1 X133.79 Y130.324 E17.67506
G1 X133.288 Y131.077 E17.70579
G1 X132.723 Y131.782 E17.73646
G1 X132.097 Y132.434 E17.76715
G1 X131.416 Y133.029 E17.79785
G1 X130.685 Y133.561 E17.82855
G1 X129.911 Y134.026 E17.8592
G1 X129.097 Y134.421 E17.88992
G1 X128.253 Y134.743 E17.92059
G1 X127.383 Y134.989 E17.95129
G1 X126.495 Y135.157 E17.98197
G1 X125.327 Y135.257 E18.02177
G1 X125.006 Y135.266 E18.03268
G1 X124.72 Y135.27 E18.04239
G1 X105.657 Y135.27 E18.68961
G1 X105.525 Y135.269 E18.6941
G1 X104.827 Y135.26 E18.7178
G1 X103.925 Y135.209 E18.74847
G1 X103.03 Y135.077 E18.77919
G1 X102.151 Y134.868 E18.80986
G1 X101.294 Y134.581 E18.84055
G1 X100.465 Y134.22 E18.87125
G1 X99.671 Y133.787 E18.90195
G1 X98.919 Y133.285 E18.93265
G1 X98.214 Y132.719 E18.96335
G1 X97.562 Y132.093 E18.99403
G1 X96.968 Y131.412 E19.02471
G1 X96.436 Y130.681 E19.05541
G1 X95.971 Y129.906 E19.0861
G1 X95.576 Y129.093 E19.11678
G1 X95.255 Y128.248 E19.14747
G1 X95.01 Y127.378 E19.17816
G1 X94.842 Y126.489 E19.20888
G1 X94.743 Y125.317 E19.24881
G1 X94.734 Y124.984 E19.26012
G1 X94.73 Y124.708 E19.26949
G1 X94.73 Y105.624 E19.91743
G1 X94.731 Y105.486 E19.92212
G1 X94.74 Y104.821 E19.9447
G1 X94.792 Y103.918 E19.97541
G1 X94.924 Y103.024 E20.00609
G1 X95.134 Y102.145 E20.03677
G1 X95.421 Y101.287 E20.06749
G1 X95.783 Y100.459 E20.09817
G1 X96.217 Y99.666 E20.12887
G1 X96.718 Y98.914 E20.15954
G1 X97.285 Y98.209 E20.19026
G1 F2700 E18.19026
;MESH:End-Cap1.STL
G0 F6000 X106.05 Y123.95
;TYPE:WALL-INNER
G1 F2700 E20.19026
G1 F1200 X106.05 Y106.05 E20.798
G1 X123.95 Y106.05 E21.40574
G1 X123.95 Y123.95 E22.01348
G1 X106.05 Y123.95 E22.62122
G0 F6000 X105.61 Y124.39
G1 F1200 X105.61 Y105.61 E23.25884
G1 X124.39 Y105.61 E23.89646
G1 X124.39 Y124.39 E24.53407
G1 X105.61 Y124.39 E25.17169
G0 F6000 X105.17 Y124.83
;TYPE:WALL-OUTER
G1 F1200 X105.17 Y105.17 E25.83919
G1 X124.83 Y105.17 E26.50668
G1 X124.83 Y124.83 E27.17418
G1 X105.17 Y124.83 E27.84167
G1 F2700 E25.84167
G0 F6000 X106.48 Y123.52
;TYPE:SKIN
G1 F2700 E27.84167
G1 F1200 X106.48 Y106.48 E28.42021
G1 X123.52 Y106.48 E28.99875
G1 X123.52 Y123.52 E29.5773
G1 X106.48 Y123.52 E30.15584
G0 F6000 X107.164 Y123.343
G1 F1200 X106.655 Y122.834 E30.18028
G0 F6000 X106.655 Y122.212
G1 F1200 X107.787 Y123.343 E30.23461
G0 F6000 X108.409 Y123.343
G1 F1200 X106.655 Y121.589 E30.31882
G0 F6000 X106.655 Y120.967
G1 F1200 X109.031 Y123.343 E30.43291
G0 F6000 X109.653 Y123.343
G1 F1200 X106.655 Y120.345 E30.57686
G0 F6000 X106.655 Y119.723
G1 F1200 X110.276 Y123.343 E30.7507
G0 F6000 X110.898 Y123.343
G1 F1200 X106.655 Y119.1 E30.95443
G0 F6000 X106.655 Y118.478
G1 F1200 X111.52 Y123.343 E31.18802
G0 F6000 X112.142 Y123.343
G1 F1200 X106.655 Y117.856 E31.45148
G0 F6000 X106.655 Y117.234
G1 F1200 X112.765 Y123.343 E31.74483
G0 F6000 X113.387 Y123.343
G1 F1200 X106.655 Y116.611 E32.06807
G0 F6000 X106.655 Y115.989
G1 F1200 X114.009 Y123.343 E32.42117
G0 F6000 X114.631 Y123.343
G1 F1200 X106.655 Y115.367 E32.80414
G0 F6000 X106.655 Y114.745
G1 F1200 X115.254 Y123.343 E33.217
G0 F6000 X115.876 Y123.343
G1 F1200 X106.655 Y114.122 E33.65975
G0 F6000 X106.655 Y113.5
G1 F1200 X116.498 Y123.343 E34.13237
G0 F6000 X117.12 Y123.343
G1 F1200 X106.655 Y112.878 E34.63485
G0 F6000 X106.655 Y112.256
G1 F1200 X117.743 Y123.343 E35.16722
G0 F6000 X118.365 Y123.343
G1 F1200 X106.655 Y111.633 E35.72948
G0 F6000 X106.655 Y111.011
G1 F1200 X118.987 Y123.343 E36.3216
G0 F6000 X119.609 Y123.343
G1 F1200 X106.655 Y110.389 E36.94359
G0 F6000 X106.655 Y109.767
G1 F1200 X120.232 Y123.343 E37.59547
G0 F6000 X120.854 Y123.343
G1 F1200 X106.655 Y109.144 E38.27724
G0 F6000 X106.655 Y108.522
G1 F1200 X121.476 Y123.343 E38.98888
G0 F6000 X122.098 Y123.343
G1 F1200 X106.655 Y107.9 E39.73038
G0 F6000 X106.655 Y107.277
G1 F1200 X122.721 Y123.343 E40.50179
G0 F6000 X123.343 Y123.343
G1 F1200 X106.655 Y106.655 E41.30307
G0 F6000 X107.277 Y106.655
G1 F1200 X123.343 Y122.721 E42.07448
G0 F6000 X123.343 Y122.098
G1 F1200 X107.9 Y106.655 E42.81598
G0 F6000 X108.522 Y106.655
G1 F1200 X123.343 Y121.476 E43.52762
G0 F6000 X123.343 Y120.854
G1 F1200 X109.144 Y106.655 E44.20939
G0 F6000 X109.767 Y106.655
G1 F1200 X123.343 Y120.232 E44.86127
G0 F6000 X123.343 Y119.609
G1 F1200 X110.389 Y106.655 E45.48326
G0 F6000 X111.011 Y106.655
G1 F1200 X123.343 Y118.987 E46.07538
G0 F6000 X123.343 Y118.365
G1 F1200 X111.633 Y106.655 E46.63764
G0 F6000 X112.256 Y106.655
G1 F1200 X123.343 Y117.743 E47.17001
G0 F6000 X123.343 Y117.12
G1 F1200 X112.878 Y106.655 E47.67249
G0 F6000 X113.5 Y106.655
G1 F1200 X123.343 Y116.498 E48.14511
G0 F6000 X123.343 Y115.876
G1 F1200 X114.122 Y106.655 E48.58785
G0 F6000 X114.745 Y106.655
G1 F1200 X123.343 Y115.254 E49.00071
G0 F6000 X123.343 Y114.631
G1 F1200 X115.367 Y106.655 E49.38368
G0 F6000 X115.989 Y106.655
G1 F1200 X123.343 Y114.009 E49.73679
G0 F6000 X123.343 Y113.387
G1 F1200 X116.611 Y106.655 E50.06003
G0 F6000 X117.234 Y106.655
G1 F1200 X123.343 Y112.765 E50.35338
G0 F6000 X123.343 Y112.142
G1 F1200 X117.856 Y106.655 E50.61684
G0 F6000 X118.478 Y106.655
G1 F1200 X123.343 Y111.52 E50.85043
G0 F6000 X123.343 Y110.898
G1 F1200 X119.1 Y106.655 E51.05416
G0 F6000 X119.723 Y106.655
G1 F1200 X123.343 Y110.276 E51.228
G0 F6000 X123.343 Y109.653
G1 F1200 X120.345 Y106.655 E51.37195
G0 F6000 X120.967 Y106.655
G1 F1200 X123.343 Y109.031 E51.48603
G0 F6000 X123.343 Y108.409
G1 F1200 X121.589 Y106.655 E51.57025
G0 F6000 X122.212 Y106.655
G1 F1200 X123.343 Y107.787 E51.62458
G0 F6000 X123.343 Y107.164
G1 F1200 X122.834 Y106.655 E51.64902
G1 F2700 E49.64902
;MESH:NONMESH
G0 F600 X122.834 Y106.655 Z0.4
G0 F6000 X106.05 Y123.95
;TIME_ELAPSED:86.500026
G4 P1
;LAYER:1
M140 S60
M106 S85
;TYPE:WALL-INNER
;MESH:End-Cap1.STL
G1 F2700 E51.64902
G1 F1950 X106.05 Y106.05 E52.25676
G1 X123.95 Y106.05 E52.8645
G1 X123.95 Y123.95 E53.47224
G1 X106.05 Y123.95 E54.07998
G0 F9750 X105.61 Y124.39
