; generated by Slic3r 1.3.0 on 2020-03-12 at 12:04:19

; external perimeters extrusion width = 0.44mm (2.98mm^3/s)
; perimeters extrusion width = 0.56mm (7.76mm^3/s)
; infill extrusion width = 0.50mm (9.14mm^3/s)
; solid infill extrusion width = 0.56mm (2.07mm^3/s)
; top infill extrusion width = 0.56mm (1.55mm^3/s)

M107
M190 S65 ; set bed temperature and wait for it to be reached
M104 S200 ; set temperature
G28 ; home all axes
; Filament gcode

M109 S200 ; set temperature and wait for it to be reached
G21 ; set units to millimeters
G90 ; use absolute coordinates
M82 ; use absolute distances for extrusion
G92 E0
G10
G92 E0
G1 Z0.350 F12000.000
; OctoLapse Trigger
G4 P1
G1 X36.854 Y24.837 F12000.000
G11
G92 E0
G1 F1800
G1 X38.732 Y23.520 E0.20854
G1 X41.555 Y22.896 E0.47144
G1 X199.145 Y23.290 E14.80108
G1 X201.403 Y23.692 E15.00963
G1 X202.669 Y24.315 E15.13795
G1 X208.919 Y28.268 E15.81035
G1 X210.616 Y29.810 E16.01889
G1 X211.686 Y31.839 E16.22744
G1 X212.003 Y33.802 E16.40819
G1 X213.592 Y194.885 E31.05615
G1 X213.431 Y196.406 E31.19524
G1 X211.806 Y203.620 E31.86764
G1 X210.922 Y205.736 E32.07618
G1 X210.028 Y206.849 E32.20600
G1 X201.189 Y215.688 E33.34262
G1 X199.311 Y217.004 E33.55116
G1 X197.960 Y217.466 E33.68098
G1 X190.746 Y219.091 E34.35338
G1 X189.653 Y219.243 E34.45374
G1 X44.535 Y227.196 E47.66899
G1 X19.173 Y227.206 E49.97519
G1 X16.914 Y226.809 E50.18373
G1 X14.926 Y225.666 E50.39228
G1 X13.447 Y223.913 E50.60082
G1 X12.654 Y221.761 E50.80936
G1 X12.548 Y220.581 E50.91707
G1 X12.548 Y121.672 E59.91086
G1 X12.561 Y121.255 E59.94873
G1 X17.249 Y46.783 E66.73390
G1 X17.787 Y44.553 E66.94244
G1 X19.177 Y42.514 E67.16678
G1 X36.812 Y24.879 E69.43456
G10
G92 E0
G1 X178.603 Y184.263 F12000.000
G11
G92 E0
G1 F2250
G1 X180.185 Y183.050 E0.18127
G1 X182.068 Y182.286 E0.36601
G1 X183.987 Y182.033 E0.54204
G1 X185.957 Y182.293 E0.72277
G1 X187.799 Y183.056 E0.90404
G1 X189.402 Y184.304 E1.08878
G1 X190.580 Y185.840 E1.26481
G1 X191.341 Y187.677 E1.44554
G1 X191.600 Y189.647 E1.62627
G1 X191.341 Y191.618 E1.80699
G1 X190.580 Y193.454 E1.98772
G1 X189.370 Y195.031 E2.16844
G1 X187.794 Y196.241 E2.34917
G1 X185.957 Y197.001 E2.52990
G1 X183.987 Y197.261 E2.71062
G1 X182.068 Y197.008 E2.88665
G1 X180.185 Y196.244 E3.07140
G1 X178.603 Y195.031 E3.25267
G1 X177.393 Y193.454 E3.43339
G1 X176.633 Y191.618 E3.61412
G1 X176.373 Y189.647 E3.79485
G1 X176.626 Y187.728 E3.97088
G1 X177.390 Y185.845 E4.15562
G1 X178.567 Y184.311 E4.33143
G1 X179.049 Y184.709 F12000.000
G1 F2250
G1 X180.498 Y183.597 E4.49753
G1 X182.228 Y182.895 E4.66731
G1 X183.987 Y182.664 E4.82859
G1 X185.794 Y182.902 E4.99436
G1 X187.482 Y183.601 E5.16046
G1 X188.955 Y184.748 E5.33024
G1 X190.035 Y186.155 E5.49152
G1 X190.732 Y187.840 E5.65728
G1 X190.970 Y189.647 E5.82305
G1 X190.732 Y191.454 E5.98881
G1 X190.035 Y193.139 E6.15458
G1 X188.925 Y194.585 E6.32034
G1 X187.479 Y195.695 E6.48611
G1 X185.794 Y196.392 E6.65188
G1 X183.987 Y196.630 E6.81764
G1 X182.228 Y196.399 E6.97892
G1 X180.498 Y195.697 E7.14870
G1 X179.049 Y194.585 E7.31480
G1 X177.939 Y193.139 E7.48056
G1 X177.242 Y191.454 E7.64633
G1 X177.004 Y189.647 E7.81209
G1 X177.235 Y187.889 E7.97337
G1 X177.937 Y186.158 E8.14316
G1 X179.012 Y184.757 E8.30380
G1 X179.495 Y185.155 F12000.000
G1 F450
G1 X180.811 Y184.144 E8.45472
G1 X182.389 Y183.504 E8.60954
G1 X183.987 Y183.294 E8.75607
G1 X185.631 Y183.511 E8.90688
G1 X187.165 Y184.146 E9.05780
G1 X188.508 Y185.192 E9.21262
G1 X189.489 Y186.471 E9.35915
G1 X190.123 Y188.003 E9.50996
G1 X190.340 Y189.647 E9.66076
G1 X190.123 Y191.291 E9.81156
G1 X189.489 Y192.824 E9.96237
G1 X188.479 Y194.139 E10.11317
G1 X187.163 Y195.149 E10.26398
G1 X185.631 Y195.784 E10.41478
G1 X183.987 Y196.000 E10.56558
G1 X182.389 Y195.790 E10.71211
G1 X180.811 Y195.150 E10.86694
G1 X179.495 Y194.139 E11.01786
G1 X178.485 Y192.824 E11.16866
G1 X177.850 Y191.291 E11.31947
G1 X177.634 Y189.647 E11.47027
G1 X177.844 Y188.049 E11.61680
G1 X178.484 Y186.472 E11.77162
G1 X179.458 Y185.202 E11.91709
G1 X179.495 Y185.155 F12000.000
G10
G92 E0
G1 X55.020 Y60.680 F12000.000
G11
G92 E0
G1 F2250
G1 X53.443 Y61.890 E0.18073
G1 X51.607 Y62.651 E0.36145
G1 X49.637 Y62.910 E0.54218
G1 X47.717 Y62.658 E0.71821
G1 X45.835 Y61.894 E0.90295
G1 X44.253 Y60.680 E1.08422
G1 X43.074 Y59.145 E1.26025
G1 X42.283 Y57.273 E1.44500
G1 X42.023 Y55.297 E1.62627
G1 X42.282 Y53.326 E1.80699
G1 X43.043 Y51.490 E1.98772
G1 X44.253 Y49.913 E2.16844
G1 X45.835 Y48.700 E2.34972
G1 X47.717 Y47.936 E2.53446
G1 X49.637 Y47.683 E2.71049
G1 X51.607 Y47.943 E2.89121
G1 X53.443 Y48.703 E3.07194
G1 X55.020 Y49.913 E3.25267
G1 X56.230 Y51.490 E3.43339
G1 X56.991 Y53.326 E3.61412
G1 X57.250 Y55.297 E3.79485
G1 X56.991 Y57.267 E3.97557
G1 X56.230 Y59.104 E4.15630
G1 X55.057 Y60.633 E4.33157
G1 X54.575 Y60.235 F12000.000
G1 F2250
G1 X53.128 Y61.344 E4.49733
G1 X51.444 Y62.042 E4.66310
G1 X49.637 Y62.280 E4.82887
G1 X47.878 Y62.049 E4.99015
G1 X46.148 Y61.347 E5.15993
G1 X44.699 Y60.235 E5.32603
G1 X43.619 Y58.828 E5.48731
G1 X42.892 Y57.108 E5.65709
G1 X42.653 Y55.297 E5.82318
G1 X42.891 Y53.489 E5.98895
G1 X43.589 Y51.805 E6.15471
G1 X44.699 Y50.359 E6.32048
G1 X46.148 Y49.247 E6.48658
G1 X47.878 Y48.545 E6.65636
G1 X49.637 Y48.313 E6.81764
G1 X51.444 Y48.551 E6.98340
G1 X53.128 Y49.249 E7.14917
G1 X54.575 Y50.359 E7.31493
G1 X55.684 Y51.805 E7.48070
G1 X56.382 Y53.489 E7.64646
G1 X56.620 Y55.297 E7.81223
G1 X56.382 Y57.104 E7.97800
G1 X55.684 Y58.788 E8.14376
G1 X54.611 Y60.187 E8.30407
G1 X54.129 Y59.789 F12000.000
G1 F450
G1 X52.813 Y60.799 E8.45487
G1 X51.281 Y61.433 E8.60568
G1 X49.637 Y61.650 E8.75648
G1 X48.039 Y61.439 E8.90301
G1 X46.461 Y60.799 E9.05783
G1 X45.144 Y59.789 E9.20876
G1 X44.163 Y58.511 E9.35529
G1 X43.500 Y56.942 E9.51011
G1 X43.284 Y55.297 E9.66103
G1 X43.500 Y53.652 E9.81184
G1 X44.135 Y52.120 E9.96264
G1 X45.144 Y50.805 E10.11344
G1 X46.461 Y49.794 E10.26437
G1 X48.039 Y49.154 E10.41919
G1 X49.637 Y48.944 E10.56572
G1 X51.281 Y49.160 E10.71652
G1 X52.813 Y49.795 E10.86733
G1 X54.129 Y50.805 E11.01813
G1 X55.138 Y52.120 E11.16893
G1 X55.773 Y53.652 E11.31974
G1 X55.990 Y55.297 E11.47054
G1 X55.773 Y56.941 E11.62135
G1 X55.138 Y58.473 E11.77215
G1 X54.165 Y59.741 E11.91750
G1 X54.129 Y59.789 F12000.000
G10
G92 E0
G1 X54.592 Y60.253 F12000.000
G1 X62.663 Y66.445 F12000.000
G1 X62.178 Y61.482 F12000.000
G1 X61.334 Y57.759 F12000.000
G1 X60.263 Y54.820 F12000.000
G1 X59.409 Y53.088 F12000.000
G1 X57.978 Y50.852 F12000.000
G1 X56.010 Y48.599 F12000.000
G1 X54.603 Y47.356 F12000.000
G1 X52.531 Y45.919 F12000.000
G1 X49.106 Y44.255 F12000.000
G1 X47.226 Y43.617 F12000.000
G1 X44.333 Y42.933 F12000.000
G1 X44.333 Y39.740 F12000.000
G1 X41.328 Y36.735 F12000.000
G1 X42.176 Y36.735 F12000.000
G11
G92 E0
G1 F2250
G1 X39.382 Y33.941 E0.35937
G1 X41.539 Y31.784 E0.63674
G1 X204.705 Y194.950 E21.61898
G1 X200.286 Y199.370 E22.18729
G1 X203.081 Y202.164 E22.54666
G1 X196.504 Y208.741 E23.39234
G1 X193.710 Y205.946 E23.75171
G1 X189.290 Y210.366 E24.32002
G1 X26.123 Y47.199 E45.30225
G1 X28.280 Y45.042 E45.57963
G1 X31.075 Y47.836 E45.93900
G1 X42.134 Y36.778 E47.36110
G1 X41.293 Y36.735 F12000.000
G1 F2250
G1 X38.498 Y33.941 E47.72046
G1 X41.539 Y30.900 E48.11148
G1 X205.589 Y194.950 E69.20736
G1 X201.170 Y199.370 E69.77567
G1 X203.964 Y202.164 E70.13504
G1 X196.504 Y209.624 E71.09436
G1 X193.710 Y206.830 E71.45373
G1 X189.290 Y211.249 E72.02204
G1 X25.240 Y47.199 E93.11792
G1 X28.280 Y44.158 E93.50894
G1 X31.075 Y46.953 E93.86830
G1 X41.250 Y36.778 E95.17676
G1 X40.409 Y36.735 F12000.000
G1 F1125
G1 X37.614 Y33.941 E95.53613
G1 X41.539 Y30.016 E96.04079
G1 X206.473 Y194.950 E117.25031
G1 X202.053 Y199.370 E117.81862
G1 X204.848 Y202.164 E118.17798
G1 X196.504 Y210.508 E119.25095
G1 X193.710 Y207.714 E119.61032
G1 X189.290 Y212.133 E120.17863
G1 X24.356 Y47.199 E141.38815
G1 X28.280 Y43.274 E141.89281
G1 X31.075 Y46.069 E142.25218
G1 X40.366 Y36.778 E143.44699
G1 X40.718 Y36.481 F12000.000
G10
G92 E0
G1 X41.296 Y32.910 F12000.000
G11
G92 E0
G1 F600
G1 X40.022 Y34.184 E0.16400
G1 X41.782 Y32.424 E0.39060
G1 X42.224 Y32.867 E0.44760
G1 X40.465 Y34.626 E0.67420
G1 X40.908 Y35.069 E0.73121
G1 X42.667 Y33.310 E0.95781
G1 X43.110 Y33.752 E1.01481
G1 X41.350 Y35.511 E1.24141
G1 X41.793 Y35.954 E1.29841
G1 X43.552 Y34.195 E1.52501
G1 X43.995 Y34.637 E1.58202
G1 X42.235 Y36.397 E1.80862
G1 X42.678 Y36.839 E1.86562
G1 X44.437 Y35.080 E2.09222
G1 X44.880 Y35.522 E2.14922
G1 X29.862 Y50.540 E4.08347
G1 X30.305 Y50.983 E4.14047
G1 X45.322 Y35.965 E6.07472
G1 X45.765 Y36.408 E6.13172
G1 X30.747 Y51.425 E8.06596
G1 X31.190 Y51.868 E8.12296
G1 X46.208 Y36.850 E10.05721
G1 X46.650 Y37.293 E10.11421
G1 X31.632 Y52.310 E12.04846
G1 X32.075 Y52.753 E12.10546
G1 X47.093 Y37.735 E14.03970
G1 X47.535 Y38.178 E14.09671
G1 X32.518 Y53.195 E16.03095
G1 X32.960 Y53.638 E16.08795
G1 X47.978 Y38.620 E18.02220
G1 X48.420 Y39.063 E18.07920
G1 X33.403 Y54.081 E20.01345
G1 X33.845 Y54.523 E20.07045
G1 X48.863 Y39.505 E22.00469
G1 X49.305 Y39.948 E22.06169
G1 X34.288 Y54.966 E23.99594
G1 X34.730 Y55.408 E24.05294
G1 X49.748 Y40.391 E25.98719
G1 X50.191 Y40.833 E26.04419
G1 X35.173 Y55.851 E27.97843
G1 X35.616 Y56.293 E28.03544
G1 X50.633 Y41.276 E29.96968
G1 X51.076 Y41.718 E30.02668
G1 X36.058 Y56.736 E31.96093
G1 X36.501 Y57.178 E32.01793
G1 X42.735 Y50.944 E32.82092
G1 X42.109 Y52.455 E32.96987
G1 X36.943 Y57.621 E33.63525
G1 X37.386 Y58.064 E33.69225
G1 X41.824 Y53.626 E34.26385
G1 X41.690 Y54.645 E34.35749
G1 X37.828 Y58.506 E34.85480
G1 X38.271 Y58.949 E34.91180
G1 X41.697 Y55.522 E35.35313
G1 X41.800 Y56.304 E35.42497
G1 X38.714 Y59.391 E35.82256
G1 X39.156 Y59.834 E35.87956
G1 X41.903 Y57.087 E36.23341
G1 X41.918 Y57.196 E36.24342
G1 X42.144 Y57.731 E36.29636
G1 X39.599 Y60.276 E36.62421
G1 X40.041 Y60.719 E36.68122
G1 X42.407 Y58.353 E36.98594
G1 X42.670 Y58.975 E37.04746
G1 X40.484 Y61.162 E37.32906
G1 X40.926 Y61.604 E37.38607
G1 X43.007 Y59.523 E37.65406
G1 X43.391 Y60.024 E37.71155
G1 X41.369 Y62.047 E37.97204
G1 X41.812 Y62.489 E38.02904
G1 X43.776 Y60.525 E38.28203
G1 X44.050 Y60.883 E38.32312
G1 X44.193 Y60.993 E38.33952
G1 X42.254 Y62.932 E38.58929
G1 X42.697 Y63.374 E38.64629
G1 X44.694 Y61.377 E38.90356
G1 X45.195 Y61.761 E38.96105
G1 X43.139 Y63.817 E39.22582
G1 X43.582 Y64.260 E39.28282
G1 X45.696 Y62.146 E39.55510
G1 X45.764 Y62.198 E39.56297
G1 X46.308 Y62.419 E39.61639
G1 X44.024 Y64.702 E39.91050
G1 X44.467 Y65.145 E39.96750
G1 X46.938 Y62.674 E40.28571
G1 X47.567 Y62.930 E40.34760
G1 X44.909 Y65.587 E40.68991
G1 X45.352 Y66.030 E40.74692
G1 X48.293 Y63.089 E41.12573
G1 X49.075 Y63.192 E41.19758
G1 X45.795 Y66.472 E41.62013
G1 X46.237 Y66.915 E41.67713
G1 X49.857 Y63.295 E42.14342
G1 X50.870 Y63.167 E42.23637
G1 X46.680 Y67.358 E42.77608
G1 X47.122 Y67.800 E42.83308
G1 X51.889 Y63.033 E43.44708
G1 X52.013 Y63.017 E43.45846
G1 X53.341 Y62.467 E43.58931
G1 X47.565 Y68.243 E44.33323
G1 X48.007 Y68.685 E44.39023
G1 X63.025 Y53.668 E46.32448
G1 X63.468 Y54.110 E46.38148
G1 X48.450 Y69.128 E48.31573
G1 X48.893 Y69.570 E48.37273
G1 X63.910 Y54.553 E50.30697
G1 X64.353 Y54.995 E50.36397
G1 X49.335 Y70.013 E52.29822
G1 X49.778 Y70.456 E52.35522
G1 X64.795 Y55.438 E54.28947
G1 X65.238 Y55.880 E54.34647
G1 X50.220 Y70.898 E56.28071
G1 X50.663 Y71.341 E56.33772
G1 X65.680 Y56.323 E58.27196
G1 X66.123 Y56.766 E58.32896
G1 X51.105 Y71.783 E60.26321
G1 X51.548 Y72.226 E60.32021
G1 X66.566 Y57.208 E62.25446
G1 X67.008 Y57.651 E62.31146
G1 X51.991 Y72.668 E64.24570
G1 X52.433 Y73.111 E64.30270
G1 X67.451 Y58.093 E66.23695
G1 X67.893 Y58.536 E66.29395
G1 X52.876 Y73.553 E68.22820
G1 X53.318 Y73.996 E68.28520
G1 X68.336 Y58.978 E70.21944
G1 X68.778 Y59.421 E70.27645
G1 X53.761 Y74.439 E72.21069
G1 X54.203 Y74.881 E72.26769
G1 X69.221 Y59.864 E74.20194
G1 X69.664 Y60.306 E74.25894
G1 X54.646 Y75.324 E76.19319
G1 X55.089 Y75.766 E76.25019
G1 X70.106 Y60.749 E78.18443
G1 X70.549 Y61.191 E78.24144
G1 X55.531 Y76.209 E80.17568
G1 X55.974 Y76.651 E80.23268
G1 X70.991 Y61.634 E82.16693
G1 X71.434 Y62.076 E82.22393
G1 X56.416 Y77.094 E84.15818
G1 X56.859 Y77.537 E84.21518
G1 X71.876 Y62.519 E86.14942
G1 X72.319 Y62.962 E86.20642
G1 X57.301 Y77.979 E88.14067
G1 X57.744 Y78.422 E88.19767
G1 X72.762 Y63.404 E90.13192
G1 X73.204 Y63.847 E90.18892
G1 X58.186 Y78.864 E92.12316
G1 X58.629 Y79.307 E92.18017
G1 X73.647 Y64.289 E94.11441
G1 X74.089 Y64.732 E94.17141
G1 X59.072 Y79.749 E96.10566
G1 X59.514 Y80.192 E96.16266
G1 X74.532 Y65.174 E98.09691
G1 X74.974 Y65.617 E98.15391
G1 X59.957 Y80.635 E100.08815
G1 X60.399 Y81.077 E100.14516
G1 X75.417 Y66.060 E102.07940
G1 X75.859 Y66.502 E102.13640
G1 X60.842 Y81.520 E104.07065
G1 X61.284 Y81.962 E104.12765
G1 X76.302 Y66.945 E106.06189
G1 X76.745 Y67.387 E106.11890
G1 X61.727 Y82.405 E108.05314
G1 X62.170 Y82.847 E108.11014
G1 X77.187 Y67.830 E110.04439
G1 X77.630 Y68.272 E110.10139
G1 X62.612 Y83.290 E112.03564
G1 X63.055 Y83.733 E112.09264
G1 X78.072 Y68.715 E114.02688
G1 X78.515 Y69.157 E114.08389
G1 X63.497 Y84.175 E116.01813
G1 X63.940 Y84.618 E116.07513
G1 X78.957 Y69.600 E118.00938
G1 X79.400 Y70.043 E118.06638
G1 X64.382 Y85.060 E120.00063
G1 X64.825 Y85.503 E120.05763
G1 X79.843 Y70.485 E121.99187
G1 X80.285 Y70.928 E122.04887
G1 X65.268 Y85.945 E123.98312
G1 X65.710 Y86.388 E124.04012
G1 X80.728 Y71.370 E125.97437
G1 X81.170 Y71.813 E126.03137
G1 X66.153 Y86.830 E127.96561
G1 X66.595 Y87.273 E128.02262
G1 X81.613 Y72.255 E129.95686
G1 X82.055 Y72.698 E130.01386
G1 X67.038 Y87.716 E131.94811
G1 X67.480 Y88.158 E132.00511
G1 X82.498 Y73.141 E133.93936
G1 X82.941 Y73.583 E133.99636
G1 X67.923 Y88.601 E135.93060
G1 X68.366 Y89.043 E135.98761
G1 X83.383 Y74.026 E137.92185
G1 X83.826 Y74.468 E137.97885
G1 X68.808 Y89.486 E139.91310
G1 X69.251 Y89.928 E139.97010
G1 X84.268 Y74.911 E141.90435
G1 X84.711 Y75.353 E141.96135
G1 X69.693 Y90.371 E143.89559
G1 X70.136 Y90.814 E143.95259
G1 X85.153 Y75.796 E145.88684
G1 X85.596 Y76.239 E145.94384
G1 X70.578 Y91.256 E147.87809
G1 X71.021 Y91.699 E147.93509
G1 X86.039 Y76.681 E149.86933
G1 X86.481 Y77.124 E149.92634
G1 X71.463 Y92.141 E151.86058
G1 X71.906 Y92.584 E151.91758
G1 X86.924 Y77.566 E153.85183
G1 X87.366 Y78.009 E153.90883
G1 X72.349 Y93.026 E155.84308
G1 X72.791 Y93.469 E155.90008
G1 X87.809 Y78.451 E157.83432
G1 X88.251 Y78.894 E157.89133
G1 X73.234 Y93.912 E159.82557
G1 X73.676 Y94.354 E159.88257
G1 X88.694 Y79.337 E161.81682
G1 X89.136 Y79.779 E161.87382
G1 X74.119 Y94.797 E163.80807
G1 X74.561 Y95.239 E163.86507
G1 X89.579 Y80.222 E165.79931
G1 X90.022 Y80.664 E165.85632
G1 X75.004 Y95.682 E167.79056
G1 X75.447 Y96.124 E167.84756
G1 X90.464 Y81.107 E169.78181
G1 X90.907 Y81.549 E169.83881
G1 X75.889 Y96.567 E171.77306
G1 X76.332 Y97.010 E171.83006
G1 X91.349 Y81.992 E173.76430
G1 X91.792 Y82.434 E173.82130
G1 X76.774 Y97.452 E175.75555
G1 X77.217 Y97.895 E175.81255
G1 X92.234 Y82.877 E177.74680
G1 X92.677 Y83.320 E177.80380
G1 X77.659 Y98.337 E179.73804
G1 X78.102 Y98.780 E179.79505
G1 X93.120 Y83.762 E181.72929
G1 X93.562 Y84.205 E181.78629
G1 X78.545 Y99.222 E183.72054
G1 X78.987 Y99.665 E183.77754
G1 X94.005 Y84.647 E185.71179
G1 X94.447 Y85.090 E185.76879
G1 X79.430 Y100.107 E187.70303
G1 X79.872 Y100.550 E187.76004
G1 X94.890 Y85.532 E189.69428
G1 X95.332 Y85.975 E189.75128
G1 X80.315 Y100.993 E191.68553
G1 X80.757 Y101.435 E191.74253
G1 X95.775 Y86.418 E193.67678
G1 X96.218 Y86.860 E193.73378
G1 X81.200 Y101.878 E195.66802
G1 X81.643 Y102.320 E195.72503
G1 X96.660 Y87.303 E197.65927
G1 X97.103 Y87.745 E197.71627
G1 X82.085 Y102.763 E199.65052
G1 X82.528 Y103.205 E199.70752
G1 X97.545 Y88.188 E201.64177
G1 X97.988 Y88.630 E201.69877
G1 X82.970 Y103.648 E203.63301
G1 X83.413 Y104.091 E203.69002
G1 X98.430 Y89.073 E205.62426
G1 X98.873 Y89.516 E205.68126
G1 X83.855 Y104.533 E207.61551
G1 X84.298 Y104.976 E207.67251
G1 X99.316 Y89.958 E209.60676
G1 X99.758 Y90.401 E209.66376
G1 X84.740 Y105.418 E211.59800
G1 X85.183 Y105.861 E211.65500
G1 X100.201 Y90.843 E213.58925
G1 X100.643 Y91.286 E213.64625
