;FLAVOR:Marlin
;TIME:4725
;Filament used: 3.46976m
;Layer height: 0.2
;MINX:83.46
;MINY:83.46
;MINZ:0.2
;MAXX:146.54
;MAXY:146.54
;MAXZ:44.6
;POSTPROCESSED
;Generated with Cura_SteamEngine master
M140 S60
M105
M190 S60
M104 S205
M105
M109 S205
M82 ;absolute extrusion mode
M201 X500.00 Y500.00 Z100.00 E5000.00 ;Setup machine max acceleration
M203 X500.00 Y500.00 Z10.00 E50.00 ;Setup machine max feedrate
M204 P500.00 R1000.00 T500.00 ;Setup Print/Retract/Travel acceleration
M205 X8.00 Y8.00 Z0.40 E5.00 ;Setup Jerk
M220 S100 ;Reset Feedrate
M221 S100 ;Reset Flowrate
M141 S28
G92 E0
G92 E0
;LAYER_COUNT:218
;LAYER:0
M107
G0 F8400 X87.293 Y86.995 Z0.2
;TYPE:SKIRT
G1 F3000 X88.136 Y86.259 E0.04094
G1 X88.332 Y86.104 E0.05009
G1 X89.109 Y85.54 E0.08521
G1 X89.931 Y85.043 E0.12036
G1 X90.845 Y84.592 E0.15764
G1 X91.077 Y84.49 E0.16692
G1 X91.972 Y84.14 E0.20208
G1 X92.893 Y83.866 E0.23723
G1 X94.021 Y83.64 E0.27932
G1 X94.323 Y83.595 E0.29049
G1 X95.628 Y83.476 E0.33843
G1 X95.861 Y83.468 E0.34696
G1 X96.257 Y83.461 E0.36145
G1 X133.293 Y83.46 E1.71646
G1 X133.458 Y83.461 E1.7225
G1 X134.156 Y83.471 E1.74804
G1 X135.452 Y83.563 E1.79557
G1 X135.687 Y83.593 E1.80424
G1 X136.634 Y83.754 E1.83938
G1 X137.565 Y83.994 E1.87456
G1 X138.417 Y84.288 E1.90753
G1 X138.671 Y84.387 E1.91751
G1 X139.551 Y84.773 E1.95266
G1 X140.395 Y85.23 E1.98778
G1 X141.354 Y85.87 E2.02996
G1 X141.563 Y86.025 E2.03948
G1 X142.31 Y86.629 E2.07463
G1 X143.005 Y87.293 E2.10979
G1 X143.736 Y88.13 E2.15045
G1 X143.892 Y88.327 E2.15964
G1 X144.456 Y89.104 E2.19477
G1 X144.954 Y89.926 E2.22993
G1 X145.419 Y90.868 E2.26837
G1 X145.52 Y91.099 E2.27759
G1 X145.867 Y91.994 E2.31271
G1 X146.14 Y92.916 E2.34789
G1 X146.358 Y94.01 E2.3887
G1 X146.403 Y94.31 E2.3998
G1 X146.524 Y95.619 E2.4479
G1 X146.532 Y95.848 E2.45628
G1 X146.539 Y96.251 E2.47103
G1 X146.54 Y133.259 E3.82501
G1 X146.539 Y133.417 E3.83079
G1 X146.529 Y134.148 E3.85754
G1 X146.442 Y135.409 E3.90378
G1 X146.413 Y135.643 E3.91241
G1 X146.256 Y136.591 E3.94756
G1 X146.02 Y137.522 E3.9827
G1 X145.719 Y138.401 E4.01669
G1 X145.62 Y138.656 E4.0267
G1 X145.235 Y139.536 E4.06184
G1 X144.779 Y140.381 E4.09697
G1 X144.126 Y141.361 E4.14006
G1 X143.97 Y141.571 E4.14963
G1 X143.365 Y142.317 E4.18477
G1 X142.701 Y143.011 E4.21991
G1 X141.864 Y143.741 E4.26054
G1 X141.668 Y143.896 E4.26969
G1 X140.891 Y144.46 E4.30481
G1 X140.069 Y144.957 E4.33996
G1 X139.155 Y145.408 E4.37725
G1 X138.923 Y145.51 E4.38652
G1 X138.028 Y145.86 E4.42168
G1 X137.107 Y146.134 E4.45683
G1 X135.979 Y146.36 E4.49892
G1 X135.677 Y146.405 E4.51009
G1 X134.372 Y146.524 E4.55804
G1 X134.139 Y146.532 E4.56657
G1 X133.743 Y146.539 E4.58106
G1 X96.707 Y146.54 E5.93606
G1 X96.541 Y146.539 E5.94213
G1 X95.844 Y146.529 E5.96764
G1 X94.555 Y146.438 E6.01491
G1 X94.319 Y146.408 E6.02362
G1 X93.372 Y146.247 E6.05876
G1 X92.441 Y146.008 E6.09393
G1 X91.583 Y145.712 E6.12714
G1 X91.329 Y145.613 E6.13711
G1 X90.449 Y145.227 E6.17227
G1 X89.605 Y144.77 E6.20738
G1 X88.646 Y144.13 E6.24956
G1 X88.437 Y143.975 E6.25908
G1 X87.69 Y143.371 E6.29423
G1 X86.995 Y142.707 E6.3294
G1 X86.264 Y141.87 E6.37005
G1 X86.108 Y141.673 E6.37925
G1 X85.544 Y140.896 E6.41437
G1 X85.046 Y140.074 E6.44954
G1 X84.574 Y139.115 E6.48864
G1 X84.473 Y138.883 E6.4979
G1 X84.127 Y137.987 E6.53304
G1 X83.856 Y137.066 E6.56816
G1 X83.641 Y135.983 E6.60856
G1 X83.596 Y135.682 E6.61969
G1 X83.475 Y134.36 E6.66826
G1 X83.467 Y134.12 E6.67705
G1 X83.461 Y133.736 E6.6911
G1 X83.46 Y96.685 E8.04665
G1 X83.461 Y96.514 E8.05291
G1 X83.471 Y95.84 E8.07757
G1 X83.557 Y94.598 E8.12312
G1 X83.586 Y94.363 E8.13178
G1 X83.743 Y93.415 E8.16694
G1 X83.979 Y92.484 E8.20208
G1 X84.29 Y91.577 E8.23716
G1 X84.39 Y91.321 E8.24721
G1 X84.776 Y90.442 E8.28234
G1 X85.235 Y89.597 E8.31752
G1 X85.87 Y88.646 E8.35936
G1 X86.025 Y88.437 E8.36888
G1 X86.629 Y87.69 E8.40402
G1 X87.293 Y86.995 E8.43919
G0 F8400 X87.624 Y87.287
G1 F3000 X88.409 Y86.604 E8.47726
G1 X88.605 Y86.449 E8.4864
G1 X89.368 Y85.897 E8.52085
G1 X90.175 Y85.411 E8.55532
G1 X91.023 Y84.995 E8.58988
G1 X91.255 Y84.893 E8.59915
G1 X92.132 Y84.55 E8.6336
G1 X93.036 Y84.284 E8.66808
G1 X94.086 Y84.075 E8.70725
G1 X94.388 Y84.03 E8.71842
G1 X95.643 Y83.916 E8.76452
G1 X95.876 Y83.908 E8.77305
G1 X96.257 Y83.901 E8.78699
G1 X133.293 Y83.9 E10.142
G1 X133.452 Y83.901 E10.14782
G1 X134.15 Y83.911 E10.17336
G1 X135.397 Y83.999 E10.21909
G1 X135.632 Y84.029 E10.22776
G1 X136.56 Y84.188 E10.26221
G1 X137.472 Y84.425 E10.29668
G1 X138.257 Y84.698 E10.32709
G1 X138.511 Y84.797 E10.33706
G1 X139.374 Y85.176 E10.37155
G1 X140.201 Y85.627 E10.40601
G1 X141.092 Y86.223 E10.44523
G1 X141.301 Y86.378 E10.45475
G1 X142.033 Y86.971 E10.48922
G1 X142.713 Y87.624 E10.52371
G1 X143.391 Y88.403 E10.56149
G1 X143.547 Y88.6 E10.57068
G1 X144.1 Y89.363 E10.60516
G1 X144.586 Y90.17 E10.63963
G1 X145.015 Y91.044 E10.67525
G1 X145.116 Y91.275 E10.68447
G1 X145.457 Y92.154 E10.71897
G1 X145.722 Y93.058 E10.75343
G1 X145.923 Y94.075 E10.79136
G1 X145.968 Y94.375 E10.80246
G1 X146.084 Y95.634 E10.84871
G1 X146.092 Y95.863 E10.8571
G1 X146.099 Y96.251 E10.8713
G1 X146.1 Y133.259 E12.22528
G1 X146.099 Y133.411 E12.23084
G1 X146.089 Y134.142 E12.25758
G1 X146.006 Y135.355 E12.30207
G1 X145.977 Y135.589 E12.31069
G1 X145.821 Y136.518 E12.34516
G1 X145.588 Y137.431 E12.37963
G1 X145.309 Y138.241 E12.41098
G1 X145.21 Y138.496 E12.42098
G1 X144.832 Y139.359 E12.45545
G1 X144.382 Y140.187 E12.48993
G1 X143.772 Y141.098 E12.53004
G1 X143.616 Y141.308 E12.53961
G1 X143.023 Y142.04 E12.57408
G1 X142.37 Y142.719 E12.60855
G1 X141.591 Y143.396 E12.64631
G1 X141.395 Y143.551 E12.65545
G1 X140.632 Y144.103 E12.6899
G1 X139.825 Y144.589 E12.72437
G1 X138.977 Y145.005 E12.75893
G1 X138.745 Y145.107 E12.7682
G1 X137.868 Y145.45 E12.80265
G1 X136.964 Y145.716 E12.83713
G1 X135.914 Y145.925 E12.87629
G1 X135.612 Y145.97 E12.88747
G1 X134.357 Y146.084 E12.93357
G1 X134.124 Y146.092 E12.9421
G1 X133.743 Y146.099 E12.95604
G1 X96.707 Y146.1 E14.31105
G1 X96.548 Y146.099 E14.31686
G1 X95.851 Y146.089 E14.34237
G1 X94.61 Y146.001 E14.38788
G1 X94.374 Y145.971 E14.39659
G1 X93.446 Y145.813 E14.43103
G1 X92.534 Y145.576 E14.4655
G1 X91.743 Y145.302 E14.49613
G1 X91.489 Y145.203 E14.5061
G1 X90.626 Y144.824 E14.54059
G1 X89.799 Y144.373 E14.57505
G1 X88.908 Y143.777 E14.61427
G1 X88.699 Y143.622 E14.62379
G1 X87.967 Y143.029 E14.65826
G1 X87.287 Y142.376 E14.69275
G1 X86.609 Y141.597 E14.73053
G1 X86.453 Y141.4 E14.73973
G1 X85.9 Y140.637 E14.7742
G1 X85.414 Y139.83 E14.80867
G1 X84.978 Y138.94 E14.84493
G1 X84.877 Y138.708 E14.85418
G1 X84.538 Y137.829 E14.88865
G1 X84.274 Y136.924 E14.92314
G1 X84.076 Y135.918 E14.96065
G1 X84.031 Y135.617 E14.97179
G1 X83.915 Y134.346 E15.01848
G1 X83.907 Y134.106 E15.02727
G1 X83.901 Y133.736 E15.04081
G1 X83.9 Y96.685 E16.39636
G1 X83.901 Y96.52 E16.4024
G1 X83.911 Y95.846 E16.42706
G1 X83.994 Y94.652 E16.47085
G1 X84.023 Y94.417 E16.47951
G1 X84.178 Y93.487 E16.51401
G1 X84.411 Y92.574 E16.54848
G1 X84.7 Y91.737 E16.58088
G1 X84.8 Y91.481 E16.59093
G1 X85.18 Y90.619 E16.6254
G1 X85.631 Y89.792 E16.65986
G1 X86.223 Y88.908 E16.69879
G1 X86.378 Y88.699 E16.70831
G1 X86.971 Y87.967 E16.74277
G1 X87.624 Y87.287 E16.77726
G0 F8400 X87.955 Y87.58
G1 F3000 X88.682 Y86.95 E16.81246
G1 X88.878 Y86.795 E16.8216
G1 X89.626 Y86.254 E16.85538
G1 X90.418 Y85.78 E16.88915
G1 X91.2 Y85.398 E16.92099
G1 X91.432 Y85.296 E16.93026
G1 X92.292 Y84.961 E16.96403
G1 X93.178 Y84.702 E16.9978
G1 X94.151 Y84.51 E17.03408
G1 X94.453 Y84.465 E17.04525
G1 X95.658 Y84.355 E17.08952
G1 X95.891 Y84.347 E17.09805
G1 X96.257 Y84.341 E17.11145
G1 X133.293 Y84.34 E18.46645
G1 X133.446 Y84.341 E18.47205
G1 X134.144 Y84.351 E18.49759
G1 X135.341 Y84.436 E18.54149
G1 X135.576 Y84.466 E18.55016
G1 X136.486 Y84.622 E18.58394
G1 X137.379 Y84.857 E18.61772
G1 X138.097 Y85.108 E18.64555
G1 X138.351 Y85.207 E18.65552
G1 X139.196 Y85.579 E18.6893
G1 X140.006 Y86.023 E18.7231
G1 X140.83 Y86.577 E18.75942
G1 X141.039 Y86.732 E18.76894
G1 X141.756 Y87.313 E18.80271
G1 X142.42 Y87.955 E18.8365
G1 X143.046 Y88.676 E18.87143
G1 X143.202 Y88.873 E18.88063
G1 X143.743 Y89.621 E18.9144
G1 X144.218 Y90.413 E18.94819
G1 X144.612 Y91.22 E18.98104
G1 X144.713 Y91.451 E18.99027
G1 X145.046 Y92.313 E19.02408
G1 X145.303 Y93.199 E19.05783
G1 X145.488 Y94.141 E19.09295
G1 X145.533 Y94.441 E19.10405
G1 X145.645 Y95.65 E19.14847
G1 X145.653 Y95.879 E19.15686
G1 X145.659 Y96.251 E19.17047
G1 X145.66 Y133.259 E20.52445
G1 X145.659 Y133.405 E20.52979
G1 X145.649 Y134.136 E20.55654
G1 X145.569 Y135.301 E20.59926
G1 X145.54 Y135.535 E20.60789
G1 X145.387 Y136.446 E20.64168
G1 X145.156 Y137.339 E20.67543
G1 X144.898 Y138.082 E20.7042
G1 X144.799 Y138.337 E20.71421
G1 X144.428 Y139.182 E20.74798
G1 X143.985 Y139.993 E20.78179
G1 X143.419 Y140.836 E20.81894
G1 X143.263 Y141.046 E20.82851
G1 X142.681 Y141.762 E20.86226
G1 X142.039 Y142.426 E20.89606
G1 X141.318 Y143.05 E20.93094
G1 X141.122 Y143.205 E20.94008
G1 X140.374 Y143.746 E20.97386
G1 X139.582 Y144.22 E21.00763
G1 X138.8 Y144.602 E21.03947
G1 X138.568 Y144.704 E21.04874
G1 X137.708 Y145.039 E21.08251
G1 X136.822 Y145.298 E21.11628
G1 X135.849 Y145.49 E21.15256
G1 X135.547 Y145.535 E21.16374
G1 X134.342 Y145.645 E21.20801
G1 X134.109 Y145.653 E21.21653
G1 X133.743 Y145.659 E21.22993
G1 X96.707 Y145.66 E22.58493
G1 X96.554 Y145.659 E22.59053
G1 X95.857 Y145.649 E22.61603
G1 X94.666 Y145.565 E22.65971
G1 X94.43 Y145.535 E22.66842
G1 X93.52 Y145.379 E22.7022
G1 X92.627 Y145.145 E22.73597
G1 X91.903 Y144.892 E22.76403
G1 X91.649 Y144.793 E22.77401
G1 X90.804 Y144.421 E22.80778
G1 X89.994 Y143.977 E22.84158
G1 X89.17 Y143.423 E22.87791
G1 X88.961 Y143.268 E22.88743
G1 X88.244 Y142.687 E22.92119
G1 X87.58 Y142.045 E22.95498
G1 X86.954 Y141.324 E22.98991
G1 X86.798 Y141.127 E22.99911
G1 X86.257 Y140.379 E23.03288
G1 X85.782 Y139.587 E23.06667
G1 X85.381 Y138.764 E23.10016
G1 X85.28 Y138.532 E23.10942
G1 X84.949 Y137.67 E23.1432
G1 X84.693 Y136.783 E23.17698
G1 X84.511 Y135.853 E23.21165
G1 X84.466 Y135.552 E23.22279
G1 X84.355 Y134.331 E23.26764
G1 X84.347 Y134.091 E23.27643
G1 X84.341 Y133.736 E23.28942
G1 X84.34 Y96.685 E24.64497
G1 X84.341 Y96.527 E24.65075
G1 X84.351 Y95.853 E24.67541
G1 X84.43 Y94.705 E24.71751
G1 X84.459 Y94.47 E24.72618
G1 X84.612 Y93.56 E24.75994
G1 X84.843 Y92.666 E24.79372
G1 X85.11 Y91.897 E24.8235
G1 X85.21 Y91.641 E24.83356
G1 X85.583 Y90.797 E24.86732
G1 X86.027 Y89.988 E24.90108
G1 X86.577 Y89.17 E24.93714
G1 X86.732 Y88.961 E24.94666
G1 X87.313 Y88.244 E24.98043
G1 X87.955 Y87.58 E25.01422
G0 F8400 X88.285 Y87.873
G1 F3000 X88.955 Y87.295 E25.04659
G1 X89.151 Y87.14 E25.05573
G1 X89.884 Y86.611 E25.08881
G1 X90.661 Y86.149 E25.12188
G1 X91.377 Y85.8 E25.15102
G1 X91.609 Y85.698 E25.16029
G1 X92.452 Y85.371 E25.19337
G1 X93.32 Y85.12 E25.22643
G1 X94.216 Y84.946 E25.25983
G1 X94.518 Y84.901 E25.271
G1 X95.673 Y84.795 E25.31343
G1 X95.906 Y84.787 E25.32196
G1 X96.257 Y84.781 E25.3348
G1 X133.293 Y84.78 E26.68981
G1 X133.439 Y84.781 E26.69515
G1 X134.137 Y84.791 E26.72069
G1 X135.285 Y84.872 E26.7628
G1 X135.52 Y84.902 E26.77146
G1 X136.411 Y85.056 E26.80455
G1 X137.285 Y85.288 E26.83763
G1 X137.937 Y85.518 E26.86292
G1 X138.191 Y85.617 E26.8729
G1 X139.018 Y85.982 E26.90597
G1 X139.81 Y86.419 E26.93906
G1 X140.568 Y86.93 E26.97251
G1 X140.777 Y87.085 E26.98203
G1 X141.478 Y87.655 E27.01509
G1 X142.127 Y88.285 E27.04818
G1 X142.701 Y88.949 E27.08029
G1 X142.857 Y89.146 E27.08948
G1 X143.386 Y89.879 E27.12255
G1 X143.849 Y90.656 E27.15565
G1 X144.209 Y91.397 E27.18579
G1 X144.31 Y91.628 E27.19501
G1 X144.635 Y92.471 E27.22807
G1 X144.885 Y93.34 E27.26115
G1 X145.053 Y94.206 E27.29342
G1 X145.098 Y94.506 E27.30452
G1 X145.205 Y95.665 E27.34711
G1 X145.213 Y95.894 E27.35549
G1 X145.219 Y96.251 E27.36855
G1 X145.22 Y133.259 E28.72253
G1 X145.219 Y133.399 E28.72765
G1 X145.209 Y134.13 E28.7544
G1 X145.132 Y135.247 E28.79536
G1 X145.103 Y135.481 E28.80399
G1 X144.953 Y136.372 E28.83705
G1 X144.724 Y137.247 E28.87014
G1 X144.488 Y137.923 E28.89634
G1 X144.389 Y138.178 E28.90634
G1 X144.025 Y139.005 E28.9394
G1 X143.589 Y139.797 E28.97248
G1 X143.066 Y140.573 E29.00671
G1 X142.91 Y140.783 E29.01629
G1 X142.339 Y141.485 E29.04939
G1 X141.709 Y142.133 E29.08246
G1 X141.045 Y142.705 E29.11452
G1 X140.849 Y142.86 E29.12366
G1 X140.116 Y143.389 E29.15674
G1 X139.339 Y143.851 E29.18981
G1 X138.623 Y144.2 E29.21895
G1 X138.391 Y144.302 E29.22822
G1 X137.548 Y144.629 E29.26131
G1 X136.68 Y144.88 E29.29436
G1 X135.784 Y145.054 E29.32776
G1 X135.482 Y145.099 E29.33893
G1 X134.327 Y145.205 E29.38136
G1 X134.094 Y145.213 E29.38989
G1 X133.743 Y145.219 E29.40274
G1 X96.707 Y145.22 E30.75774
G1 X96.56 Y145.219 E30.76312
G1 X95.863 Y145.209 E30.78862
G1 X94.721 Y145.128 E30.83051
G1 X94.485 Y145.098 E30.83921
G1 X93.594 Y144.945 E30.87229
G1 X92.721 Y144.713 E30.90534
G1 X92.063 Y144.482 E30.93085
G1 X91.809 Y144.383 E30.94082
G1 X90.982 Y144.018 E30.9739
G1 X90.19 Y143.581 E31.00699
G1 X89.432 Y143.07 E31.04044
G1 X89.223 Y142.915 E31.04996
G1 X88.522 Y142.345 E31.08301
G1 X87.873 Y141.715 E31.1161
G1 X87.299 Y141.051 E31.14821
G1 X87.143 Y140.854 E31.15741
G1 X86.614 Y140.121 E31.19048
G1 X86.151 Y139.344 E31.22357
G1 X85.784 Y138.588 E31.25432
G1 X85.683 Y138.356 E31.26358
G1 X85.36 Y137.512 E31.29664
G1 X85.112 Y136.643 E31.3297
G1 X84.946 Y135.788 E31.36157
G1 X84.901 Y135.487 E31.3727
G1 X84.795 Y134.316 E31.41572
G1 X84.787 Y134.076 E31.4245
G1 X84.781 Y133.736 E31.43695
G1 X84.78 Y96.685 E32.7925
G1 X84.781 Y96.533 E32.79806
G1 X84.791 Y95.859 E32.82272
G1 X84.867 Y94.759 E32.86306
G1 X84.896 Y94.524 E32.87173
G1 X85.046 Y93.633 E32.90478
G1 X85.275 Y92.758 E32.93787
G1 X85.52 Y92.057 E32.96504
G1 X85.62 Y91.801 E32.9751
G1 X85.985 Y90.975 E33.00814
G1 X86.423 Y90.184 E33.04122
G1 X86.93 Y89.432 E33.0744
G1 X87.085 Y89.223 E33.08392
G1 X87.655 Y88.522 E33.11697
G1 X88.285 Y87.873 E33.15006
G1 F600 Z0.4
;MESH:40x40_End_Mount_TT_Flex_Mount.stl
G0 F8400 X96.1 Y133.9 Z0.4
;TYPE:WALL-INNER
G1 F600 Z0.2
G1 F2400 X96.1 Y96.1 E34.53302
G1 X133.9 Y96.1 E35.91598
G1 X133.9 Y133.9 E37.29893
G1 X96.1 Y133.9 E38.68189
G1 F600 Z0.4
G0 F8400 X105.174 Y129.1 Z0.4
G1 F600 Z0.2
G1 F2400 X105.864 Y129.013 E38.70733
G1 X106.531 Y128.809 E38.73285
G1 X107.153 Y128.495 E38.75835
G1 X107.712 Y128.08 E38.78382
G1 X108.193 Y127.579 E38.80923
G1 X108.584 Y127.001 E38.83476
G1 X108.869 Y126.367 E38.86019
G1 X109.045 Y125.694 E38.88564
G1 X109.105 Y125 E38.91113
G1 X109.045 Y124.306 E38.93661
G1 X108.869 Y123.633 E38.96206
G1 X108.584 Y122.999 E38.98749
G1 X108.193 Y122.421 E39.01302
G1 X107.712 Y121.92 E39.03843
G1 X107.153 Y121.505 E39.06391
G1 X106.531 Y121.191 E39.0894
G1 X105.864 Y120.987 E39.11492
G1 X105.174 Y120.9 E39.14036
G1 X104.479 Y120.929 E39.16581
G1 X103.799 Y121.076 E39.19126
G1 X103.152 Y121.336 E39.21677
G1 X102.559 Y121.701 E39.24225
G1 X102.038 Y122.159 E39.26763
G1 X101.599 Y122.701 E39.29315
G1 X101.259 Y123.309 E39.31863
G1 X101.029 Y123.967 E39.34414
G1 X100.911 Y124.653 E39.3696
G1 X100.911 Y125.347 E39.39499
G1 X101.029 Y126.033 E39.42046
G1 X101.259 Y126.691 E39.44596
G1 X101.599 Y127.299 E39.47145
G1 X102.038 Y127.841 E39.49697
G1 X102.559 Y128.299 E39.52235
G1 X103.152 Y128.664 E39.54782
G1 X103.799 Y128.923 E39.57332
G1 X104.479 Y129.071 E39.59878
G1 X105.174 Y129.1 E39.62423
G1 F600 Z0.4
G0 F8400 X125.174 Y129.1 Z0.4
G1 F600 Z0.2
G1 F2400 X125.864 Y129.013 E39.64967
G1 X126.531 Y128.809 E39.67519
G1 X127.153 Y128.495 E39.70069
G1 X127.712 Y128.08 E39.72616
G1 X128.193 Y127.579 E39.75157
G1 X128.584 Y127.001 E39.7771
G1 X128.869 Y126.367 E39.80253
G1 X129.045 Y125.694 E39.82798
G1 X129.105 Y125 E39.85347
G1 X129.045 Y124.306 E39.87895
G1 X128.869 Y123.633 E39.9044
G1 X128.584 Y122.999 E39.92983
G1 X128.193 Y122.421 E39.95536
G1 X127.712 Y121.92 E39.98077
G1 X127.153 Y121.505 E40.00624
G1 X126.531 Y121.191 E40.03174
G1 X125.864 Y120.987 E40.05726
G1 X125.174 Y120.9 E40.0827
G1 X124.479 Y120.929 E40.10815
G1 X123.799 Y121.076 E40.1336
