;FLAVOR:Marlin
;TIME:3557
;Filament used: 3.07259m
;Layer height: 0.2
;MINX:78.46
;MINY:90.96
;MINZ:0.2
;MAXX:151.54
;MAXY:139.04
;MAXZ:43.8
;POSTPROCESSED
;Generated with Cura_SteamEngine master
M140 S60
M105
M190 S60
M104 S205
M105
M109 S205
M82 ;absolute extrusion mode
M201 X500.00 Y500.00 Z100.00 E5000.00 ;Setup machine max acceleration
M203 X500.00 Y500.00 Z10.00 E50.00 ;Setup machine max feedrate
M204 P500.00 R1000.00 T500.00 ;Setup Print/Retract/Travel acceleration
M205 X8.00 Y8.00 Z0.40 E5.00 ;Setup Jerk
M220 S100 ;Reset Feedrate
M221 S100 ;Reset Flowrate
M141 S28
G92 E0
G92 E0
G1 F2700 E-5
;LAYER_COUNT:218
;LAYER:0
M107
G0 F8400 X85.16 Y95.249 Z0.2
;TYPE:SKIRT
G1 F2700 E0
G1 F3000 X85.71 Y94.824 E0.02543
G1 X86.274 Y94.415 E0.05092
G1 X86.568 Y94.209 E0.06405
G1 X87.007 Y93.911 E0.08347
G1 X87.823 Y93.405 E0.11859
G1 X88.428 Y93.088 E0.14358
G1 X89.049 Y92.785 E0.16886
G1 X89.377 Y92.631 E0.18212
G1 X89.853 Y92.417 E0.20121
G1 X90.745 Y92.06 E0.23637
G1 X91.427 Y91.842 E0.26256
G1 X92.123 Y91.644 E0.28904
G1 X92.443 Y91.558 E0.30116
G1 X92.916 Y91.438 E0.31901
G1 X93.856 Y91.241 E0.35415
G1 X94.554 Y91.147 E0.37992
G1 X95.3 Y91.069 E0.40736
G1 X95.678 Y91.035 E0.42125
G1 X96.14 Y91.002 E0.43819
G1 X96.78 Y90.974 E0.46163
G1 X97.606 Y90.961 E0.49185
G1 X97.788 Y90.96 E0.49851
G1 X132.293 Y90.96 E1.76092
G1 X132.462 Y90.961 E1.7671
G1 X133.143 Y90.971 E1.79202
G1 X133.79 Y90.999 E1.81571
G1 X134.453 Y91.046 E1.84003
G1 X134.808 Y91.077 E1.85307
G1 X135.357 Y91.133 E1.87326
G1 X136.308 Y91.27 E1.90841
G1 X137 Y91.421 E1.93432
G1 X137.704 Y91.598 E1.96088
G1 X137.995 Y91.676 E1.9719
G1 X138.471 Y91.809 E1.98998
G1 X139.385 Y92.105 E2.02513
G1 X140.087 Y92.393 E2.05289
G1 X140.745 Y92.688 E2.07928
G1 X141.044 Y92.827 E2.09134
G1 X141.489 Y93.042 E2.10942
G1 X142.336 Y93.496 E2.14458
G1 X142.939 Y93.877 E2.17068
G1 X143.518 Y94.269 E2.19626
G1 X143.791 Y94.46 E2.20845
G1 X144.216 Y94.766 E2.22761
G1 X144.971 Y95.359 E2.26273
G1 X145.497 Y95.837 E2.28874
G1 X146.018 Y96.341 E2.31526
G1 X146.272 Y96.595 E2.3284
G1 X146.61 Y96.943 E2.34615
G1 X147.25 Y97.659 E2.38128
G1 X147.67 Y98.202 E2.4064
G1 X148.081 Y98.768 E2.43199
G1 X148.291 Y99.068 E2.44539
G1 X148.589 Y99.507 E2.4648
G1 X149.095 Y100.323 E2.49993
G1 X149.412 Y100.928 E2.52492
G1 X149.715 Y101.549 E2.5502
G1 X149.869 Y101.877 E2.56346
G1 X150.083 Y102.353 E2.58255
G1 X150.44 Y103.245 E2.6177
G1 X150.658 Y103.927 E2.6439
G1 X150.856 Y104.623 E2.67037
G1 X150.942 Y104.943 E2.68249
G1 X151.062 Y105.416 E2.70035
G1 X151.259 Y106.356 E2.73549
G1 X151.353 Y107.054 E2.76125
G1 X151.431 Y107.8 E2.78869
G1 X151.464 Y108.174 E2.80243
G1 X151.497 Y108.634 E2.8193
G1 X151.526 Y109.279 E2.84293
G1 X151.539 Y110.107 E2.87322
G1 X151.54 Y110.288 E2.87985
G1 X151.54 Y126.764 E3.48264
G1 X151.539 Y126.923 E3.48846
G1 X151.529 Y127.65 E3.51506
G1 X151.476 Y128.609 E3.5502
G1 X151.343 Y129.56 E3.58533
G1 X151.132 Y130.497 E3.62047
G1 X150.843 Y131.414 E3.65564
G1 X150.479 Y132.303 E3.69079
G1 X150.043 Y133.158 E3.7259
G1 X149.536 Y133.975 E3.76108
G1 X148.964 Y134.746 E3.79621
G1 X148.329 Y135.468 E3.83138
G1 X147.637 Y136.133 E3.8665
G1 X146.892 Y136.74 E3.90166
G1 X146.099 Y137.282 E3.9368
G1 X145.263 Y137.756 E3.97196
G1 X144.391 Y138.159 E4.0071
G1 X143.489 Y138.488 E4.04223
G1 X142.562 Y138.741 E4.07739
G1 X141.617 Y138.916 E4.11255
G1 X140.314 Y139.026 E4.16039
G1 X139.994 Y139.035 E4.1721
G1 X139.67 Y139.04 E4.18396
G1 X133.716 Y139.04 E4.40179
G1 X133.55 Y139.039 E4.40786
G1 X132.853 Y139.029 E4.43337
G1 X131.894 Y138.975 E4.46851
G1 X131.282 Y138.899 E4.49107
G1 X130.993 Y138.855 E4.50177
G1 X130.776 Y138.819 E4.50981
G1 X128.771 Y138.474 E4.58425
G1 X126.256 Y138.116 E4.67719
G1 X123.771 Y137.833 E4.76869
G1 X121.291 Y137.622 E4.85976
G1 X118.79 Y137.479 E4.95141
G1 X116.3 Y137.408 E5.04254
G1 X113.809 Y137.408 E5.13368
G1 X111.279 Y137.479 E5.22628
G1 X108.79 Y137.619 E5.31749
G1 X106.278 Y137.832 E5.40972
G1 X103.814 Y138.112 E5.50045
G1 X101.327 Y138.465 E5.59235
G1 X99.875 Y138.704 E5.64619
G1 X98.958 Y138.862 E5.68023
G1 X98.006 Y138.986 E5.71536
G1 X97.35 Y139.025 E5.7394
G1 X97.023 Y139.035 E5.75137
G1 X96.67 Y139.04 E5.76428
G1 X90.707 Y139.04 E5.98245
G1 X90.558 Y139.039 E5.9879
G1 X89.86 Y139.03 E6.01344
G1 X88.901 Y138.978 E6.04858
G1 X87.949 Y138.846 E6.08374
G1 X87.012 Y138.635 E6.11888
G1 X86.096 Y138.347 E6.15401
G1 X85.206 Y137.984 E6.18917
G1 X84.35 Y137.548 E6.22432
G1 X83.533 Y137.043 E6.25946
G1 X82.761 Y136.471 E6.29461
G1 X82.04 Y135.837 E6.32974
G1 X81.373 Y135.146 E6.36488
G1 X80.766 Y134.401 E6.40004
G1 X80.224 Y133.608 E6.43518
G1 X79.749 Y132.773 E6.47032
G1 X79.345 Y131.901 E6.50549
G1 X79.015 Y130.999 E6.54063
G1 X78.761 Y130.073 E6.57576
G1 X78.586 Y129.128 E6.61092
G1 X78.473 Y127.803 E6.65957
G1 X78.464 Y127.47 E6.67176
G1 X78.46 Y127.158 E6.68317
G1 X78.46 Y110.207 E7.30334
G1 X78.461 Y110.037 E7.30956
G1 X78.471 Y109.357 E7.33445
G1 X78.499 Y108.712 E7.35807
G1 X78.546 Y108.048 E7.38242
G1 X78.577 Y107.692 E7.39549
G1 X78.633 Y107.143 E7.41568
G1 X78.77 Y106.192 E7.45084
G1 X78.921 Y105.5 E7.47675
G1 X79.098 Y104.796 E7.50331
G1 X79.177 Y104.498 E7.51459
G1 X79.31 Y104.023 E7.53263
G1 X79.608 Y103.11 E7.56777
G1 X79.893 Y102.413 E7.59532
G1 X80.189 Y101.753 E7.62179
G1 X80.323 Y101.465 E7.63341
G1 X80.537 Y101.021 E7.65144
G1 X80.99 Y100.173 E7.68661
G1 X81.377 Y99.561 E7.71311
G1 X81.769 Y98.982 E7.73869
G1 X81.96 Y98.709 E7.75088
G1 X82.266 Y98.284 E7.77004
G1 X82.859 Y97.529 E7.80516
G1 X83.337 Y97.003 E7.83117
G1 X83.841 Y96.482 E7.85769
G1 X84.094 Y96.229 E7.87078
G1 X84.444 Y95.889 E7.88863
G1 X85.16 Y95.249 E7.92376
G0 F8400 X85.454 Y95.577
G1 F3000 X85.969 Y95.18 E7.94755
G1 X86.533 Y94.771 E7.97304
G1 X86.815 Y94.573 E7.98565
G1 X87.254 Y94.275 E8.00506
G1 X88.055 Y93.779 E8.03953
G1 X88.621 Y93.483 E8.0629
G1 X89.242 Y93.18 E8.08818
G1 X89.557 Y93.032 E8.10091
G1 X90.033 Y92.818 E8.12001
G1 X90.908 Y92.469 E8.15447
G1 X91.548 Y92.266 E8.17904
G1 X92.244 Y92.068 E8.20551
G1 X92.551 Y91.985 E8.21715
G1 X93.024 Y91.865 E8.235
G1 X93.947 Y91.672 E8.2695
G1 X94.6 Y91.584 E8.29361
G1 X95.346 Y91.506 E8.32105
G1 X95.709 Y91.474 E8.33438
G1 X96.171 Y91.441 E8.35133
G1 X96.787 Y91.414 E8.37389
G1 X97.613 Y91.401 E8.40411
G1 X97.788 Y91.4 E8.41051
G1 X132.293 Y91.4 E9.67292
G1 X132.456 Y91.401 E9.67888
G1 X133.137 Y91.411 E9.7038
G1 X133.759 Y91.438 E9.72658
G1 X134.422 Y91.485 E9.75089
G1 X134.763 Y91.514 E9.76342
G1 X135.312 Y91.57 E9.78361
G1 X136.245 Y91.706 E9.8181
G1 X136.893 Y91.848 E9.84237
G1 X137.597 Y92.025 E9.86893
G1 X137.877 Y92.099 E9.87953
G1 X138.353 Y92.232 E9.89761
G1 X139.249 Y92.524 E9.93209
G1 X139.907 Y92.794 E9.95811
G1 X140.565 Y93.089 E9.98449
G1 X140.853 Y93.223 E9.99611
G1 X141.298 Y93.438 E10.01419
G1 X142.128 Y93.884 E10.04867
G1 X142.692 Y94.241 E10.07309
G1 X143.271 Y94.633 E10.09867
G1 X143.534 Y94.817 E10.11041
G1 X143.959 Y95.123 E10.12957
G1 X144.699 Y95.705 E10.16402
G1 X145.191 Y96.153 E10.18836
G1 X145.712 Y96.657 E10.21488
G1 X145.956 Y96.901 E10.22751
G1 X146.294 Y97.249 E10.24525
G1 X146.922 Y97.952 E10.27974
G1 X147.314 Y98.461 E10.30325
G1 X147.725 Y99.027 E10.32884
G1 X147.927 Y99.315 E10.34171
G1 X148.225 Y99.754 E10.36112
G1 X148.721 Y100.555 E10.39559
G1 X149.017 Y101.121 E10.41896
G1 X149.32 Y101.742 E10.44424
G1 X149.468 Y102.057 E10.45697
G1 X149.682 Y102.533 E10.47607
G1 X150.031 Y103.408 E10.51053
G1 X150.234 Y104.048 E10.5351
G1 X150.432 Y104.744 E10.56157
G1 X150.515 Y105.051 E10.57321
G1 X150.635 Y105.524 E10.59106
G1 X150.828 Y106.447 E10.62556
G1 X150.916 Y107.1 E10.64967
G1 X150.994 Y107.846 E10.67711
G1 X151.026 Y108.206 E10.69033
G1 X151.059 Y108.666 E10.7072
G1 X151.086 Y109.286 E10.72991
G1 X151.099 Y110.114 E10.76021
G1 X151.1 Y110.288 E10.76657
G1 X151.1 Y126.764 E11.36936
G1 X151.099 Y126.917 E11.37496
G1 X151.089 Y127.644 E11.40156
G1 X151.036 Y128.584 E11.43601
G1 X150.904 Y129.517 E11.47048
G1 X150.692 Y130.435 E11.50495
G1 X150.404 Y131.332 E11.53942
G1 X150.041 Y132.201 E11.57388
G1 X149.605 Y133.037 E11.60837
G1 X149.1 Y133.832 E11.64283
G1 X148.53 Y134.582 E11.6773
G1 X147.898 Y135.281 E11.71177
G1 X147.209 Y135.923 E11.74623
G1 X146.468 Y136.505 E11.7807
G1 X145.68 Y137.022 E11.81518
G1 X144.851 Y137.47 E11.84966
G1 X143.988 Y137.846 E11.8841
G1 X143.095 Y138.148 E11.91859
G1 X142.18 Y138.373 E11.95306
G1 X141.25 Y138.519 E11.9875
G1 X140.302 Y138.587 E12.02227
G1 X139.982 Y138.596 E12.03399
G1 X139.67 Y138.6 E12.0454
G1 X133.716 Y138.6 E12.26324
G1 X133.557 Y138.599 E12.26905
G1 X132.86 Y138.589 E12.29456
G1 X131.919 Y138.535 E12.32904
G1 X131.348 Y138.464 E12.35009
G1 X131.059 Y138.42 E12.36079
G1 X130.85 Y138.386 E12.36854
G1 X128.801 Y138.034 E12.4446
G1 X126.33 Y137.682 E12.53592
G1 X123.821 Y137.396 E12.6283
G1 X121.32 Y137.183 E12.72014
G1 X118.792 Y137.039 E12.81278
G1 X116.313 Y136.968 E12.90351
G1 X113.797 Y136.968 E12.99556
G1 X111.241 Y137.039 E13.08911
G1 X108.764 Y137.179 E13.17988
G1 X106.263 Y137.391 E13.27171
G1 X103.775 Y137.673 E13.36332
G1 X101.23 Y138.035 E13.45737
G1 X99.803 Y138.27 E13.51028
G1 X98.884 Y138.428 E13.5444
G1 X97.949 Y138.549 E13.57889
G1 X97.336 Y138.585 E13.60136
G1 X97.009 Y138.595 E13.61333
G1 X96.67 Y138.6 E13.62573
G1 X90.707 Y138.6 E13.84389
G1 X90.564 Y138.599 E13.84912
G1 X89.866 Y138.59 E13.87466
G1 X88.925 Y138.538 E13.90914
G1 X87.992 Y138.406 E13.94362
G1 X87.074 Y138.196 E13.97807
G1 X86.177 Y137.908 E14.01254
G1 X85.307 Y137.546 E14.04702
G1 X84.471 Y137.111 E14.08149
G1 X83.676 Y136.607 E14.11593
G1 X82.925 Y136.037 E14.15043
G1 X82.226 Y135.405 E14.1849
G1 X81.583 Y134.717 E14.21936
G1 X81.001 Y133.976 E14.25383
G1 X80.483 Y133.189 E14.2883
G1 X80.034 Y132.361 E14.32276
G1 X79.657 Y131.497 E14.35725
G1 X79.355 Y130.605 E14.3917
G1 X79.129 Y129.691 E14.42615
G1 X78.982 Y128.76 E14.46063
G1 X78.913 Y127.791 E14.49618
G1 X78.904 Y127.458 E14.50836
G1 X78.9 Y127.158 E14.51934
G1 X78.9 Y110.207 E15.13951
G1 X78.901 Y110.044 E15.14548
G1 X78.911 Y109.364 E15.17036
G1 X78.938 Y108.743 E15.1931
G1 X78.985 Y108.079 E15.21745
G1 X79.014 Y107.737 E15.23001
G1 X79.07 Y107.188 E15.2502
G1 X79.206 Y106.255 E15.2847
G1 X79.348 Y105.607 E15.30897
G1 X79.525 Y104.903 E15.33552
G1 X79.601 Y104.617 E15.34635
G1 X79.734 Y104.142 E15.3644
G1 X80.026 Y103.246 E15.39888
G1 X80.295 Y102.593 E15.42471
G1 X80.591 Y101.933 E15.45118
G1 X80.72 Y101.656 E15.46236
G1 X80.934 Y101.212 E15.48039
G1 X81.379 Y100.381 E15.51488
G1 X81.741 Y99.808 E15.53968
G1 X82.133 Y99.229 E15.56526
G1 X82.317 Y98.966 E15.577
G1 X82.623 Y98.541 E15.59616
G1 X83.205 Y97.801 E15.6306
G1 X83.653 Y97.309 E15.65495
G1 X84.157 Y96.788 E15.68147
G1 X84.401 Y96.544 E15.6941
G1 X84.751 Y96.204 E15.71195
G1 X85.454 Y95.577 E15.74641
G0 F8400 X85.747 Y95.906
G1 F3000 X86.227 Y95.536 E15.76858
G1 X86.791 Y95.127 E15.79407
G1 X87.062 Y94.937 E15.80618
G1 X87.501 Y94.639 E15.82559
G1 X88.287 Y94.154 E15.85939
G1 X88.813 Y93.879 E15.8811
G1 X89.434 Y93.576 E15.90638
G1 X89.738 Y93.433 E15.91867
G1 X90.214 Y93.219 E15.93777
G1 X91.072 Y92.878 E15.97155
G1 X91.668 Y92.689 E15.99442
G1 X92.364 Y92.491 E16.0209
G1 X92.66 Y92.411 E16.03211
G1 X93.133 Y92.291 E16.04997
G1 X94.037 Y92.103 E16.08375
G1 X94.645 Y92.022 E16.10619
G1 X95.391 Y91.944 E16.13363
G1 X95.741 Y91.913 E16.14649
G1 X96.203 Y91.88 E16.16343
G1 X96.794 Y91.854 E16.18508
G1 X97.62 Y91.841 E16.2153
G1 X97.788 Y91.84 E16.22145
G1 X132.293 Y91.84 E17.48385
G1 X132.45 Y91.841 E17.4896
G1 X133.131 Y91.851 E17.51451
G1 X133.728 Y91.877 E17.53638
G1 X134.391 Y91.924 E17.56069
G1 X134.719 Y91.952 E17.57274
G1 X135.268 Y92.008 E17.59293
G1 X136.181 Y92.141 E17.62668
G1 X136.785 Y92.275 E17.64932
G1 X137.489 Y92.452 E17.67588
G1 X137.759 Y92.523 E17.68609
G1 X138.235 Y92.656 E17.70417
G1 X139.112 Y92.943 E17.73793
G1 X139.727 Y93.196 E17.76226
G1 X140.385 Y93.491 E17.78865
G1 X140.661 Y93.62 E17.79979
G1 X141.106 Y93.835 E17.81787
G1 X141.92 Y94.272 E17.85168
G1 X142.445 Y94.606 E17.87444
G1 X143.024 Y94.998 E17.90002
G1 X143.277 Y95.174 E17.9113
G1 X143.702 Y95.48 E17.93046
G1 X144.427 Y96.051 E17.96422
G1 X144.885 Y96.469 E17.98691
G1 X145.406 Y96.973 E18.01343
G1 X145.641 Y97.208 E18.02559
G1 X145.979 Y97.556 E18.04334
G1 X146.593 Y98.245 E18.0771
G1 X146.958 Y98.719 E18.09899
G1 X147.369 Y99.285 E18.12458
G1 X147.563 Y99.562 E18.13695
G1 X147.861 Y100.001 E18.15637
G1 X148.346 Y100.787 E18.19016
G1 X148.621 Y101.313 E18.21187
G1 X148.924 Y101.934 E18.23715
G1 X149.067 Y102.238 E18.24944
G1 X149.281 Y102.714 E18.26854
G1 X149.622 Y103.572 E18.30232
G1 X149.811 Y104.168 E18.32519
G1 X150.009 Y104.864 E18.35167
G1 X150.089 Y105.16 E18.36288
G1 X150.209 Y105.633 E18.38074
G1 X150.397 Y106.537 E18.41452
G1 X150.478 Y107.145 E18.43696
G1 X150.556 Y107.891 E18.4644
G1 X150.587 Y108.237 E18.47711
G1 X150.62 Y108.697 E18.49398
G1 X150.646 Y109.293 E18.51581
G1 X150.659 Y110.121 E18.54611
G1 X150.66 Y110.288 E18.55222
G1 X150.66 Y126.764 E19.15501
G1 X150.659 Y126.911 E19.16039
G1 X150.649 Y127.638 E19.18699
G1 X150.596 Y128.559 E19.22074
G1 X150.464 Y129.473 E19.25453
G1 X150.253 Y130.372 E19.28831
G1 X149.966 Y131.249 E19.32207
G1 X149.603 Y132.098 E19.35586
G1 X149.168 Y132.913 E19.38965
G1 X148.665 Y133.687 E19.42343
G1 X148.096 Y134.414 E19.4572
G1 X147.467 Y135.089 E19.49096
G1 X146.781 Y135.708 E19.52476
G1 X146.045 Y136.265 E19.55853
G1 X145.263 Y136.756 E19.59232
G1 X144.441 Y137.177 E19.6261
G1 X143.586 Y137.526 E19.65989
G1 X142.705 Y137.8 E19.69365
G1 X141.803 Y137.996 E19.72742
G1 X140.887 Y138.113 E19.7612
G1 X140.29 Y138.147 E19.78308
G1 X139.97 Y138.156 E19.79479
G1 X139.67 Y138.16 E19.80577
G1 X133.716 Y138.16 E20.0236
G1 X133.563 Y138.159 E20.0292
G1 X132.866 Y138.149 E20.0547
G1 X131.944 Y138.096 E20.08849
G1 X131.415 Y138.029 E20.108
G1 X131.126 Y137.985 E20.1187
G1 X130.925 Y137.952 E20.12615
G1 X128.871 Y137.599 E20.2024
G1 X126.409 Y137.248 E20.29338
G1 X123.871 Y136.959 E20.38684
G1 X121.345 Y136.744 E20.47959
G1 X118.829 Y136.601 E20.57179
G1 X116.292 Y136.528 E20.66465
G1 X113.785 Y136.528 E20.75637
G1 X111.238 Y136.599 E20.84959
G1 X108.739 Y136.74 E20.94116
G1 X106.209 Y136.954 E21.03406
G1 X103.7 Y137.239 E21.12644
G1 X101.146 Y137.602 E21.22082
G1 X99.812 Y137.822 E21.27029
G1 X98.809 Y137.995 E21.30752
G1 X97.893 Y138.112 E21.34131
G1 X97.323 Y138.145 E21.3622
G1 X96.996 Y138.155 E21.37417
G1 X96.67 Y138.16 E21.3861
G1 X90.707 Y138.16 E21.60426
G1 X90.57 Y138.159 E21.60927
G1 X89.872 Y138.15 E21.63481
G1 X88.95 Y138.098 E21.6686
G1 X88.036 Y137.967 E21.70238
G1 X87.137 Y137.757 E21.73616
G1 X86.259 Y137.47 E21.76995
G1 X85.41 Y137.108 E21.80372
G1 X84.595 Y136.674 E21.8375
G1 X83.821 Y136.171 E21.87127
G1 X83.093 Y135.603 E21.90505
G1 X82.417 Y134.974 E21.93884
G1 X81.798 Y134.289 E21.97262
G1 X81.241 Y133.553 E22.00638
G1 X80.749 Y132.772 E22.04016
G1 X80.327 Y131.951 E22.07393
G1 X79.977 Y131.096 E22.10773
G1 X79.703 Y130.215 E22.14148
G1 X79.506 Y129.313 E22.17526
G1 X79.388 Y128.397 E22.20905
G1 X79.353 Y127.779 E22.2317
G1 X79.344 Y127.446 E22.24389
G1 X79.34 Y127.158 E22.25442
G1 X79.34 Y110.207 E22.8746
G1 X79.341 Y110.05 E22.88034
G1 X79.351 Y109.37 E22.90522
G1 X79.377 Y108.774 E22.92705
G1 X79.424 Y108.11 E22.9514
G1 X79.452 Y107.781 E22.96348
G1 X79.508 Y107.232 E22.98367
G1 X79.641 Y106.319 E23.01743
G1 X79.775 Y105.715 E23.04006
G1 X79.952 Y105.011 E23.06662
G1 X80.025 Y104.736 E23.07703
G1 X80.158 Y104.261 E23.09508
G1 X80.445 Y103.383 E23.12887
G1 X80.696 Y102.773 E23.15301
G1 X80.992 Y102.113 E23.17947
G1 X81.116 Y101.847 E23.19021
G1 X81.33 Y101.403 E23.20824
G1 X81.767 Y100.589 E23.24204
G1 X82.106 Y100.055 E23.26518
G1 X82.498 Y99.476 E23.29077
G1 X82.674 Y99.223 E23.30204
G1 X82.98 Y98.798 E23.3212
G1 X83.551 Y98.073 E23.35496
G1 X83.969 Y97.615 E23.37765
G1 X84.473 Y97.094 E23.40417
G1 X84.707 Y96.86 E23.41628
G1 X85.057 Y96.52 E23.43413
G1 X85.747 Y95.906 E23.46792
G0 F8400 X86.039 Y96.235
G1 F3000 X86.485 Y95.892 E23.48851
G1 X87.049 Y95.483 E23.514
G1 X87.309 Y95.301 E23.52561
G1 X87.748 Y95.003 E23.54502
G1 X88.518 Y94.529 E23.5781
