;FLAVOR:Marlin
;TIME:7465
;Filament used: 4.7019m
;Layer height: 0.2
;MINX:81.019
;MINY:114.999
;MINZ:0.2
;MAXX:156.44
;MAXY:129.28
;MAXZ:65.4
;POSTPROCESSED
;Generated with Cura_SteamEngine master
M140 S60
M105
M190 S60
M104 S205
M105
M109 S205
M82 ;absolute extrusion mode
M201 X500.00 Y500.00 Z100.00 E5000.00 ;Setup machine max acceleration
M203 X500.00 Y500.00 Z10.00 E50.00 ;Setup machine max feedrate
M204 P500.00 R1000.00 T500.00 ;Setup Print/Retract/Travel acceleration
M205 X8.00 Y8.00 Z0.40 E5.00 ;Setup Jerk
M220 S100 ;Reset Feedrate
M221 S100 ;Reset Flowrate
M141 S28
G92 E0
G92 E0
G1 F2700 E-5
;LAYER_COUNT:326
;LAYER:0
M107
G0 F8400 X90.019 Y123.6 Z0.2
;TYPE:SUPPORT
G1 F2700 E0
G1 F2400 X95.579 Y123.6 E0.20342
G1 X95.579 Y126.936 E0.32547
G1 X95.524 Y126.991 E0.32832
G1 X90.02 Y126.994 E0.52969
G1 X90.019 Y123.6 E0.65386
G0 F8400 X90.459 Y124.04
G1 F2400 X95.139 Y124.04 E0.82508
G1 X95.139 Y126.551 E0.91695
G1 X90.46 Y126.554 E1.08814
G1 X90.459 Y124.04 E1.18011
G0 F8400 X90.546 Y125.4
G1 F2400 X95.05 Y125.4 E1.3449
G0 F8400 X94.6 Y126.464
G1 F2400 X94.6 Y124.128 E1.43036
G1 F2700 E-3.56964
G1 F600 Z0.4
G0 F8400 X92.4 Y124.128 Z0.4
G1 F600 Z0.2
G1 F2700 E1.43036
G1 F2400 X92.4 Y126.465 E1.51587
G1 F2700 E-3.48413
G1 F600 Z0.4
G0 F8400 X118.193 Y122.28 Z0.4
G1 F600 Z0.2
G1 F2700 E1.51587
G1 F2400 X118.198 Y115.893 E1.74954
G1 X118.272 Y115.659 E1.75852
G1 X118.325 Y115.584 E1.76188
G1 X118.457 Y115.429 E1.76933
G1 X118.649 Y115.301 E1.77777
G1 X118.773 Y115.25 E1.78268
G1 X118.847 Y115.235 E1.78544
G1 X119.121 Y115.22 E1.79548
G1 X124.951 Y115.22 E2.00878
G1 X124.968 Y115.237 E2.00966
G1 X124.967 Y116.079 E2.04046
G1 X119.828 Y116.085 E2.22848
G1 X119.389 Y116.524 E2.25119
G1 X119.389 Y120.28 E2.38861
G1 X119.829 Y120.72 E2.41138
G1 X130.097 Y120.72 E2.78704
G1 X130.535 Y120.276 E2.80986
G1 X130.5 Y118.013 E2.89266
G1 X130.504 Y116.754 E2.93873
G1 X130.571 Y116.588 E2.94528
G1 X130.865 Y116.383 E2.95839
G1 X131.118 Y115.897 E2.97844
G1 X131.118 Y115.22 E3.0032
G1 X143.65 Y115.22 E3.4617
G1 X143.65 Y115.932 E3.48775
G1 X143.918 Y116.415 E3.50796
G1 X144.189 Y116.585 E3.51966
G1 X144.267 Y116.777 E3.52725
G1 X144.269 Y120.574 E3.66616
G1 X144.709 Y121.014 E3.68893
G1 X147.938 Y121.007 E3.80707
G1 X148.42 Y120.734 E3.82733
G1 X148.642 Y120.365 E3.84309
G1 X149.866 Y120.365 E3.88787
G1 X150.341 Y120.048 E3.90876
G1 X151.214 Y117.94 E3.99224
G1 X151.102 Y117.38 E4.01313
G1 X149.8 Y116.079 E4.08047
G1 X149.801 Y115.221 E4.11186
G1 X155.322 Y115.22 E4.31386
G1 X155.53 Y115.238 E4.32149
G1 X155.637 Y115.261 E4.3255
G1 X155.759 Y115.312 E4.33034
G1 X155.853 Y115.366 E4.3343
G1 X155.938 Y115.44 E4.33843
G1 X156.037 Y115.539 E4.34355
G1 X156.1 Y115.647 E4.34812
G1 X156.141 Y115.732 E4.35158
G1 X156.174 Y115.865 E4.35659
G1 X156.191 Y116.028 E4.36258
G1 X156.19 Y120.28 E4.51815
G1 X154.539 Y120.28 E4.57855
G1 X154.099 Y120.72 E4.60132
G1 X154.099 Y121.4 E4.6262
G1 X119.057 Y121.4 E5.90825
G1 X118.284 Y122.173 E5.94824
G1 X118.284 Y122.28 E5.95216
G1 X118.193 Y122.28 E5.95549
G0 F8400 X118.634 Y121.201
G1 F2400 X118.638 Y115.963 E6.14713
G1 X118.672 Y115.855 E6.15127
G1 X118.752 Y115.761 E6.15579
G1 X118.856 Y115.691 E6.16037
G1 X118.903 Y115.672 E6.16223
G1 X119.127 Y115.66 E6.17043
G1 X119.631 Y115.66 E6.18887
G1 X118.949 Y116.342 E6.22416
G1 X118.949 Y120.462 E6.3749
G1 X119.447 Y120.96 E6.40066
G1 X118.875 Y120.96 E6.42159
G1 X118.634 Y121.201 E6.43406
G1 F2700 E1.43406
G1 F600 Z0.4
G0 F8400 X130.478 Y120.96 Z0.4
G1 F600 Z0.2
G1 F2700 E6.43406
G1 F2400 X130.978 Y120.454 E6.46008
G1 X130.94 Y118.014 E6.54937
G1 X130.944 Y116.865 E6.5914
G1 X131.205 Y116.682 E6.60307
G1 X131.558 Y116.005 E6.631
G1 X131.558 Y115.66 E6.64362
G1 X143.21 Y115.66 E7.06992
G1 X143.21 Y116.046 E7.08405
G1 X143.588 Y116.728 E7.11257
G1 X143.827 Y116.878 E7.1229
G1 X143.829 Y120.756 E7.26478
G1 X144.033 Y120.96 E7.27533
G1 X130.478 Y120.96 E7.77126
G1 F2700 E2.77126
G1 F600 Z0.4
G0 F8400 X148.797 Y120.96 Z0.4
G1 F600 Z0.2
G1 F2700 E7.77126
G1 F2400 X148.891 Y120.805 E7.77789
G1 X149.999 Y120.805 E7.81843
G1 X150.696 Y120.34 E7.84908
G1 X151.672 Y117.985 E7.94235
G1 X151.507 Y117.163 E7.97302
G1 X150.24 Y115.897 E8.03855
G1 X150.24 Y115.661 E8.04719
G1 X155.307 Y115.66 E8.23257
G1 X155.464 Y115.674 E8.23834
G1 X155.562 Y115.707 E8.24212
G1 X155.597 Y115.727 E8.24359
G1 X155.685 Y115.809 E8.248
G1 X155.725 Y115.881 E8.25101
G1 X155.739 Y115.938 E8.25316
G1 X155.751 Y116.055 E8.25746
G1 X155.75 Y119.84 E8.39594
G1 X154.357 Y119.84 E8.4469
G1 X153.659 Y120.538 E8.48302
G1 X153.659 Y120.96 E8.49846
G1 X148.797 Y120.96 E8.67634
G1 F2700 E3.67634
G1 F600 Z0.4
G0 F8400 X151.8 Y120.872 Z0.4
G1 F600 Z0.2
G1 F2700 E8.67634
G1 F2400 X151.8 Y115.748 E8.86381
G0 F8400 X151.07 Y116.6
G1 F2400 X155.662 Y116.6 E9.03181
G1 F2700 E4.03181
G1 F600 Z0.4
G0 F8400 X154 Y115.748 Z0.4
G1 F600 Z0.2
G1 F2700 E9.03181
G1 F2400 X154 Y120.072 E9.19001
G1 F2700 E4.19001
G1 F600 Z0.4
G0 F8400 X155.662 Y118.8 Z0.4
G1 F600 Z0.2
G1 F2700 E9.19001
G1 F2400 X151.429 Y118.8 E9.34488
G1 F2700 E4.34488
G1 F600 Z0.4
G0 F8400 X143.74 Y118.8 Z0.4
G1 F600 Z0.2
G1 F2700 E9.34488
G1 F2400 X131.04 Y118.8 E9.80952
G1 F2700 E4.80952
G1 F600 Z0.4
G0 F8400 X131.347 Y116.6 Z0.4
G1 F600 Z0.2
G1 F2700 E9.80952
G1 F2400 X143.417 Y116.6 E10.25112
G0 F8400 X143 Y115.748
G1 F2400 X143 Y120.872 E10.43858
G1 F2700 E5.43858
G1 F600 Z0.4
G0 F8400 X140.8 Y120.872 Z0.4
G1 F600 Z0.2
G1 F2700 E10.43858
G1 F2400 X140.8 Y115.748 E10.62605
G1 F2700 E5.62605
G1 F600 Z0.4
G0 F8400 X138.6 Y115.748 Z0.4
G1 F600 Z0.2
G1 F2700 E10.62605
G1 F2400 X138.6 Y120.872 E10.81352
G1 F2700 E5.81352
G1 F600 Z0.4
G0 F8400 X136.4 Y120.872 Z0.4
G1 F600 Z0.2
G1 F2700 E10.81352
G1 F2400 X136.4 Y115.748 E11.00099
G1 F2700 E6.00099
G1 F600 Z0.4
G0 F8400 X134.2 Y115.748 Z0.4
G1 F600 Z0.2
G1 F2700 E11.00099
G1 F2400 X134.2 Y120.872 E11.18845
G1 F2700 E6.18845
G1 F600 Z0.4
G0 F8400 X132 Y120.872 Z0.4
G1 F600 Z0.2
G1 F2700 E11.18845
G1 F2400 X132 Y115.748 E11.37592
G1 F2700 E6.37592
G1 F600 Z0.4
G0 F8400 X118.8 Y115.841 Z0.4
G1 F600 Z0.2
G1 F2700 E11.37592
G1 F2400 X118.8 Y116.24 E11.39052
G1 F2700 E6.39052
G1 F600 Z0.4
G0 F8400 X118.8 Y120.558 Z0.4
G1 F600 Z0.2
G1 F2700 E11.39052
G1 F2400 X118.8 Y120.872 E11.40201
G1 F2700 E6.40201
G1 F600 Z0.4
G0 F8400 X134.054 Y125.6 Z0.4
G1 F600 Z0.2
G1 F2700 E11.40201
G1 F2400 X139.614 Y125.6 E11.60543
G1 X139.614 Y128.968 E11.72865
G1 X139.593 Y128.989 E11.72973
G1 X134.055 Y128.99 E11.93235
G1 X134.054 Y125.6 E12.05638
G0 F8400 X134.494 Y126.04
G1 F2400 X139.174 Y126.04 E12.2276
G1 X139.174 Y128.549 E12.31939
G1 X134.495 Y128.55 E12.49058
G1 X134.494 Y126.04 E12.58241
G1 F2700 E7.58241
G1 F600 Z0.4
G0 F8400 X134.582 Y127.6 Z0.4
G1 F600 Z0.2
G1 F2700 E12.58241
G1 F2400 X139.086 Y127.6 E12.74719
G0 F8400 X138.6 Y128.462
G1 F2400 X138.6 Y126.128 E12.83259
G1 F2700 E7.83259
G1 F600 Z0.4
G0 F8400 X136.4 Y126.128 Z0.4
G1 F600 Z0.2
G1 F2700 E12.83259
G1 F2400 X136.4 Y128.462 E12.91798
G1 F2700 E7.91798
G1 F600 Z0.4
;MESH:holder_prt2_holder.stl
G0 F8400 X103.699 Y121.4 Z0.4
;TYPE:WALL-INNER
G1 F600 Z0.2
G1 F2700 E12.91798
G1 F2400 X81.899 Y121.4 E13.71556
G1 X81.899 Y117.482 E13.8589
G1 X103.699 Y117.482 E14.65648
G1 X103.699 Y121.4 E14.79982
G0 F8400 X104.139 Y121.84
G1 F2400 X81.459 Y121.84 E15.6296
G1 X81.459 Y117.042 E15.80514
G1 X104.139 Y117.042 E16.63491
G1 X104.139 Y121.84 E16.81045
G0 F8400 X104.579 Y122.28
;TYPE:WALL-OUTER
G1 F2400 X81.019 Y122.28 E17.67242
G1 X81.019 Y116.602 E17.88016
G1 X104.579 Y116.602 E18.74213
G1 X104.579 Y122.28 E18.94986
G1 F2700 E13.94986
G1 F600 Z0.4
G0 F8400 X103.269 Y120.97 Z0.4
;TYPE:SKIN
G1 F600 Z0.2
G1 F2700 E18.94986
G1 F2400 X82.329 Y120.97 E19.71598
G1 X82.329 Y117.912 E19.82786
G1 X103.269 Y117.912 E20.59397
G1 X103.269 Y120.97 E20.70585
G1 F2700 E15.70585
G1 F600 Z0.4
G0 F8400 X103.093 Y118.649 Z0.4
G1 F600 Z0.2
G1 F2700 E20.70585
G1 F2400 X102.531 Y118.087 E20.73493
G0 F8400 X101.908 Y118.087
G1 F2400 X103.093 Y119.271 E20.79622
G0 F8400 X103.093 Y119.894
G1 F2400 X101.286 Y118.087 E20.88971
G0 F8400 X100.664 Y118.087
G1 F2400 X103.093 Y120.516 E21.01539
G0 F8400 X102.748 Y120.793
G1 F2400 X100.042 Y118.087 E21.1554
G0 F8400 X99.419 Y118.087
G1 F2400 X102.126 Y120.793 E21.29544
G0 F8400 X101.503 Y120.793
G1 F2400 X98.797 Y118.087 E21.43545
G0 F8400 X98.175 Y118.087
G1 F2400 X100.881 Y120.793 E21.57546
G0 F8400 X100.259 Y120.793
G1 F2400 X97.553 Y118.087 E21.71547
G0 F8400 X96.93 Y118.087
G1 F2400 X99.637 Y120.793 E21.8555
G0 F8400 X99.014 Y120.793
G1 F2400 X96.308 Y118.087 E21.99551
G0 F8400 X95.686 Y118.087
G1 F2400 X98.392 Y120.793 E22.13552
G0 F8400 X97.77 Y120.793
G1 F2400 X95.064 Y118.087 E22.27553
G0 F8400 X94.441 Y118.087
G1 F2400 X97.147 Y120.793 E22.41554
G0 F8400 X96.525 Y120.793
G1 F2400 X93.819 Y118.087 E22.55555
G0 F8400 X93.197 Y118.087
G1 F2400 X95.903 Y120.793 E22.69556
G0 F8400 X95.281 Y120.793
G1 F2400 X92.575 Y118.087 E22.83557
G0 F8400 X91.952 Y118.087
G1 F2400 X94.658 Y120.793 E22.97558
G0 F8400 X94.036 Y120.793
G1 F2400 X91.33 Y118.087 E23.11559
G0 F8400 X90.708 Y118.087
G1 F2400 X93.414 Y120.793 E23.25561
G0 F8400 X92.792 Y120.793
G1 F2400 X90.086 Y118.087 E23.39562
G0 F8400 X89.463 Y118.087
G1 F2400 X92.169 Y120.793 E23.53563
G0 F8400 X91.547 Y120.793
G1 F2400 X88.841 Y118.087 E23.67564
G0 F8400 X88.219 Y118.087
G1 F2400 X90.925 Y120.793 E23.81565
G0 F8400 X90.303 Y120.793
G1 F2400 X87.597 Y118.087 E23.95566
G0 F8400 X86.974 Y118.087
G1 F2400 X89.68 Y120.793 E24.09567
G0 F8400 X89.058 Y120.793
G1 F2400 X86.352 Y118.087 E24.23568
G0 F8400 X85.73 Y118.087
G1 F2400 X88.436 Y120.793 E24.37569
G0 F8400 X87.814 Y120.793
G1 F2400 X85.108 Y118.087 E24.5157
G0 F8400 X84.485 Y118.087
G1 F2400 X87.191 Y120.793 E24.65571
G0 F8400 X86.569 Y120.793
G1 F2400 X83.863 Y118.087 E24.79572
G0 F8400 X83.241 Y118.087
G1 F2400 X85.947 Y120.793 E24.93573
G0 F8400 X85.325 Y120.793
G1 F2400 X82.619 Y118.087 E25.07574
G0 F8400 X82.505 Y118.595
G1 F2400 X84.702 Y120.793 E25.18944
G0 F8400 X84.08 Y120.793
G1 F2400 X82.505 Y119.218 E25.27093
G0 F8400 X82.505 Y119.84
G1 F2400 X83.458 Y120.793 E25.32024
G0 F8400 X82.836 Y120.793
G1 F2400 X82.505 Y120.462 E25.33736
G1 F2700 E20.33736
G1 F600 Z0.4
;MESH:holder_prt1_holder.stl
G0 F8400 X120.044 Y123.84 Z0.4
;TYPE:WALL-INNER
G1 F600 Z0.2
G1 F2700 E25.33736
G1 F2400 X120.044 Y123.16 E25.36224
G1 X153.624 Y123.16 E26.5908
G1 X153.624 Y123.84 E26.61568
G1 X120.044 Y123.84 E27.84425
G0 F8400 X119.604 Y124.28
;TYPE:WALL-OUTER
G1 F2400 X119.604 Y122.72 E27.90132
G1 X154.064 Y122.72 E29.16208
G1 X154.064 Y124.28 E29.21915
G1 X119.604 Y124.28 E30.47991
G0 F8400 X120.388 Y123.499
;TYPE:SKIN
G1 F2400 X120.699 Y123.499 E30.48773
G1 X153.056 Y123.499 E31.30108
G0 F8400 X153.432 Y123.564
G1 F2400 X153.218 Y123.35 E31.30662
G1 F2700 E26.30662
G1 F600 Z0.4
;MESH:NONMESH
G0 F8400 X90.019 Y123.6 Z0.4
;TIME_ELAPSED:48.400519
G4 P1
;LAYER:1
M140 S60
M106 S85
;TYPE:SUPPORT
G1 F600 Z0.4
G1 F2700 E31.30662
G1 F2340 X95.579 Y123.6 E31.51004
G1 X95.579 Y126.936 E31.63209
G1 X95.524 Y126.991 E31.63493
G1 X90.02 Y126.994 E31.8363
G1 X90.019 Y123.6 E31.96048
G1 F2700 E26.96048
G1 F600 Z0.6
G0 F8700 X92.4 Y123.908 Z0.6
G1 F600 Z0.4
G1 F2700 E31.96048
G1 F2340 X90.327 Y123.908 E32.03632
G1 X90.328 Y126.686 E32.13796
G1 X92.4 Y126.685 E32.21376
G1 X92.4 Y123.908 E32.31536
G1 X94.6 Y123.908 E32.39585
G1 X94.6 Y126.684 E32.49742
G1 X95.271 Y126.683 E32.52197
G1 X95.271 Y123.908 E32.62349
G1 X94.6 Y123.908 E32.64804
G1 F2700 E27.64804
G1 F600 Z0.6
G0 F8700 X118.193 Y122.28 Z0.6
G1 F600 Z0.4
G1 F2700 E32.64804
G1 F2340 X118.198 Y115.893 E32.88172
G1 X118.271 Y115.662 E32.89058
G1 X118.335 Y115.572 E32.89462
G1 X118.457 Y115.429 E32.9015
G1 X118.648 Y115.301 E32.90991
G1 X118.778 Y115.248 E32.91505
G1 X118.843 Y115.235 E32.91747
G1 X119.121 Y115.22 E32.92766
G1 X124.951 Y115.22 E33.14095
G1 X124.968 Y115.237 E33.14183
G1 X124.967 Y116.079 E33.17264
G1 X119.828 Y116.085 E33.36066
G1 X119.389 Y116.524 E33.38337
G1 X119.389 Y120.28 E33.52079
G1 X119.829 Y120.72 E33.54355
G1 X130.097 Y120.72 E33.91922
G1 X130.535 Y120.276 E33.94204
G1 X130.5 Y118.013 E34.02484
G1 X130.504 Y116.753 E34.07094
G1 X130.57 Y116.588 E34.07744
G1 X130.865 Y116.384 E34.09057
G1 X131.118 Y115.898 E34.11061
G1 X131.118 Y115.22 E34.13542
G1 X143.65 Y115.22 E34.59391
G1 X143.65 Y115.932 E34.61996
G1 X143.918 Y116.415 E34.64017
G1 X144.189 Y116.585 E34.65188
G1 X144.267 Y116.777 E34.65946
G1 X144.269 Y120.574 E34.79838
G1 X144.709 Y121.014 E34.82114
G1 X147.945 Y121.007 E34.93954
G1 X148.429 Y120.732 E34.9599
G1 X148.646 Y120.365 E34.9755
G1 X149.866 Y120.365 E35.02014
G1 X150.341 Y120.048 E35.04103
G1 X151.214 Y117.94 E35.1245
G1 X151.102 Y117.38 E35.1454
G1 X149.8 Y116.079 E35.21274
G1 X149.801 Y115.221 E35.24413
G1 X155.32 Y115.22 E35.44605
G1 X155.53 Y115.238 E35.45376
G1 X155.637 Y115.261 E35.45776
G1 X155.759 Y115.312 E35.4626
G1 X155.853 Y115.366 E35.46657
G1 X155.938 Y115.44 E35.47069
G1 X156.038 Y115.541 E35.47589
G1 X156.097 Y115.641 E35.48014
G1 X156.139 Y115.729 E35.48371
G1 X156.174 Y115.867 E35.48892
G1 X156.191 Y116.028 E35.49484
G1 X156.19 Y120.28 E35.6504
G1 X154.539 Y120.28 E35.71081
G1 X154.099 Y120.72 E35.73357
G1 X154.099 Y121.4 E35.75845
G1 X119.057 Y121.4 E37.0405
G1 X118.284 Y122.173 E37.0805
G1 X118.284 Y122.28 E37.08441
G1 X118.193 Y122.28 E37.08774
G1 F2700 E32.08774
G1 F600 Z0.6
G0 F8700 X121 Y121.092 Z0.6
G1 F600 Z0.4
G1 F2700 E37.08774
G1 F2340 X123.2 Y121.092 E37.16823
G0 F8700 X123.2 Y121.028
G1 F2340 X125.4 Y121.028 E37.24872
G0 F8700 X125.4 Y121.092
G1 F2340 X127.6 Y121.092 E37.32921
G0 F8700 X127.6 Y121.028
G1 F2340 X129.8 Y121.028 E37.4097
G0 F8700 X129.8 Y121.092
G1 F2340 X132 Y121.092 E37.49019
G1 X132 Y115.528 E37.69376
G1 X134.2 Y115.528 E37.77425
G1 X134.2 Y121.092 E37.97781
G1 X136.4 Y121.092 E38.0583
G1 X136.4 Y115.528 E38.26187
G1 X138.6 Y115.528 E38.34236
G1 X138.6 Y121.092 E38.54592
G1 X140.8 Y121.092 E38.62641
G1 X140.8 Y115.528 E38.82998
G1 X143 Y115.528 E38.91046
G1 X143 Y121.092 E39.11403
G1 X144.352 Y121.092 E39.16349
G1 X143.961 Y120.701 E39.18373
G1 X143.959 Y116.837 E39.32509
G1 X143.941 Y116.794 E39.3268
G1 X143.687 Y116.633 E39.3378
G1 X143.342 Y116.012 E39.36379
G1 X143.342 Y115.528 E39.3815
G1 X143 Y115.528 E39.39401
G1 F2700 E34.39401
G1 F600 Z0.6
G0 F8700 X149.6 Y120.673 Z0.6
G1 F600 Z0.4
G1 F2700 E39.39401
G1 F2340 X148.822 Y120.673 E39.42248
G1 X148.653 Y120.959 E39.43463
G1 X148.418 Y121.092 E39.44451
G1 X149.6 Y121.092 E39.48775
G1 X149.6 Y120.673 E39.50308
G1 X149.96 Y120.673 E39.51626
G1 X150.59 Y120.252 E39.54398
G1 X151.535 Y117.971 E39.63431
G1 X151.386 Y117.228 E39.66203
G1 X150.108 Y115.951 E39.72813
G1 X150.109 Y115.529 E39.74357
G1 X151.8 Y115.528 E39.80544
G1 X151.8 Y121.092 E40.009
G1 X153.791 Y121.092 E40.08185
G1 X153.791 Y120.593 E40.1001
G1 X154 Y120.384 E40.11092
G1 X154 Y115.528 E40.28858
G1 X155.305 Y115.528 E40.33632
G1 X155.489 Y115.544 E40.34308
G1 X155.542 Y115.555 E40.34506
G1 X155.624 Y115.59 E40.34832
G1 X155.672 Y115.618 E40.35036
G1 X155.728 Y115.666 E40.35306
G1 X155.793 Y115.732 E40.35644
G1 X155.818 Y115.774 E40.35823
G1 X155.85 Y115.842 E40.36098
G1 X155.87 Y115.92 E40.36393
G1 X155.883 Y116.041 E40.36838
G1 X155.882 Y119.972 E40.5122
G1 X154.412 Y119.972 E40.56598
G1 X154 Y120.384 E40.5873
G1 F2700 E35.5873
G1 F600 Z0.6
G0 F8700 X124.66 Y115.528 Z0.6
G1 F600 Z0.4
G1 F2700 E40.5873
G1 F2340 X123.2 Y115.528 E40.64072
G1 X123.2 Y115.773 E40.64968
G1 X124.659 Y115.771 E40.70306
G1 X124.66 Y115.528 E40.71195
G1 F2700 E35.71195
G1 F600 Z0.6
G0 F8700 X121 Y115.776 Z0.6
G1 F600 Z0.4
G1 F2700 E40.71195
G1 F2340 X119.701 Y115.777 E40.75947
G1 X119.081 Y116.397 E40.79155
G1 X119.081 Y120.407 E40.93826
G1 X119.702 Y121.028 E40.9704
G1 X121 Y121.028 E41.01788
G1 F2700 E36.01788
G1 F600 Z0.6
G0 F8700 X121 Y115.776 Z0.6
G1 F600 Z0.4
G1 F2700 E41.01788
G1 F2340 X121 Y115.528 E41.02696
G1 X119.138 Y115.528 E41.09508
G1 X118.888 Y115.541 E41.10424
G1 X118.8 Y115.573 E41.10767
G1 X118.8 Y121.222 E41.31434
G1 X118.501 Y121.521 E41.32981
G1 X118.506 Y115.94 E41.534
