;FLAVOR:Marlin
;TIME:4039
;Filament used: 2.53362m
;Layer height: 0.2
;MINX:102.869
;MINY:84.371
;MINZ:0.2
;MAXX:127.131
;MAXY:145.63
;MAXZ:56.2
;POSTPROCESSED
;Generated with Cura_SteamEngine master
M140 S60
M105
M190 S60
M104 S205
M105
M109 S205
M82 ;absolute extrusion mode
M201 X500.00 Y500.00 Z100.00 E5000.00 ;Setup machine max acceleration
M203 X500.00 Y500.00 Z10.00 E50.00 ;Setup machine max feedrate
M204 P500.00 R1000.00 T500.00 ;Setup Print/Retract/Travel acceleration
M205 X8.00 Y8.00 Z0.40 E5.00 ;Setup Jerk
M220 S100 ;Reset Feedrate
M221 S100 ;Reset Flowrate
M141 S28
G92 E0
G92 E0
G1 F2700 E-5
;LAYER_COUNT:280
;LAYER:0
M107
;MESH:E_bracket_mount_V1a.stl
G0 F8400 X112.674 Y144.747 Z0.2
;TYPE:WALL-INNER
G1 F2700 E0
G1 F2400 X112.346 Y144.747 E0.012
G1 X112.345 Y144.747 E0.01204
G1 X107.833 Y144.749 E0.17711
G1 X107.246 Y144.708 E0.19864
G1 X106.686 Y144.588 E0.2196
G1 X106.132 Y144.386 E0.24117
G1 X105.641 Y144.122 E0.26157
G1 X105.125 Y143.735 E0.28516
G1 X104.742 Y143.351 E0.30501
G1 X104.409 Y142.908 E0.32528
G1 X104.129 Y142.399 E0.34654
G1 X103.927 Y141.866 E0.36739
G1 X103.799 Y141.299 E0.38866
G1 X103.752 Y140.688 E0.41108
G1 X103.75 Y131.74 E0.73845
G1 X103.75 Y97.677 E1.98468
G1 X103.75 Y97.457 E1.99273
G1 X103.97 Y97.457 E1.99794
G1 X119.34 Y97.458 E2.56027
G1 X119.339 Y122.666 E3.48253
G1 X119.297 Y123.255 E3.50413
G1 X119.18 Y123.807 E3.52478
G1 X118.978 Y124.357 E3.54621
G1 X118.704 Y124.868 E3.56743
G1 X118.325 Y125.374 E3.59056
G1 X118.016 Y125.683 E3.60655
G1 X117.941 Y125.757 E3.6104
G1 X117.764 Y125.89 E3.6185
G1 X117.549 Y126.051 E3.62833
G1 X117.593 Y125.711 E3.63344
G1 X117.599 Y125.672
G1 X117.599 Y125.566 E3.63732
G1 X117.599 Y123.828 E3.70091
G1 X117.52 Y123.225 E3.72316
G1 X117.258 Y122.595 E3.74812
G1 X116.845 Y122.055 E3.77299
G1 X116.304 Y121.641 E3.79792
G1 X115.675 Y121.379 E3.82285
G1 X114.999 Y121.29 E3.84779
G1 X114.324 Y121.379 E3.8727
G1 X113.694 Y121.641 E3.89767
G1 X113.154 Y122.055 E3.92256
G1 X112.74 Y122.595 E3.94745
G1 X112.478 Y123.225 E3.97242
G1 X112.399 Y123.828 E3.99467
G1 X112.399 Y125.672 E4.06213
G1 X112.478 Y126.275 E4.08438
G1 X112.706 Y126.821 E4.10603
G1 X112.74 Y126.905 E4.10935
G1 X112.909 Y127.126 E4.11952
G1 X112.833 Y127.154
G1 X112.748 Y127.185 E4.12236
G1 X112.437 Y127.3 E4.13449
G1 X111.652 Y127.721 E4.16708
G1 X110.934 Y128.251 E4.19973
G1 X110.299 Y128.879 E4.2324
G1 X109.761 Y129.589 E4.265
G1 X109.329 Y130.369 E4.29762
G1 X109.012 Y131.205 E4.33033
G1 X108.807 Y132.139 E4.36531
G1 X108.749 Y132.96 E4.39543
G1 X108.749 Y134.538 E4.45316
G1 X108.806 Y135.356 E4.48316
G1 X108.991 Y136.226 E4.5157
G1 X109.298 Y137.063 E4.54832
G1 X109.721 Y137.848 E4.58094
G1 X110.25 Y138.565 E4.61354
G1 X110.879 Y139.202 E4.64629
G1 X111.644 Y139.775 E4.68126
G1 X112.402 Y140.188 E4.71284
G1 X112.747 Y140.317 E4.72632
G1 X112.832 Y140.348 E4.72963
G1 X112.907 Y140.377 E4.73257
G1 X112.74 Y140.595 E4.73867
G1 X112.706 Y140.679 E4.74151
G1 X112.478 Y141.225 E4.76316
G1 X112.399 Y141.828 E4.78541
G1 X112.399 Y143.672 E4.85287
G1 X112.478 Y144.276 E4.87516
G1 X112.548 Y144.444 E4.88181
G1 X112.674 Y144.747 E4.88883
G0 F8400 X113.54 Y145.187
G1 F2400 X113.469 Y145.187 E4.89143
G1 X113.08 Y145.187 E4.90566
G1 X107.816 Y145.189 E5.09825
G1 X107.187 Y145.145 E5.12132
G1 X106.564 Y145.012 E5.14463
G1 X105.954 Y144.789 E5.16839
G1 X105.4 Y144.491 E5.19141
G1 X104.837 Y144.069 E5.21715
G1 X104.408 Y143.639 E5.23937
G1 X104.039 Y143.147 E5.26187
G1 X103.73 Y142.587 E5.28527
G1 X103.504 Y141.991 E5.30859
G1 X103.362 Y141.361 E5.33222
G1 X103.312 Y140.709 E5.35614
G1 X103.31 Y131.74 E5.68428
G1 X103.31 Y97.237 E6.94662
G1 X103.31 Y97.017 E6.95467
G1 X103.53 Y97.017 E6.95987
G1 X119.78 Y97.018 E7.55439
G1 X119.779 Y122.683 E8.49338
G1 X119.734 Y123.313 E8.51649
G1 X119.603 Y123.93 E8.53956
G1 X119.379 Y124.541 E8.56337
G1 X119.077 Y125.104 E8.58675
G1 X118.659 Y125.662 E8.61225
G1 X118.229 Y126.091 E8.63448
G1 X117.737 Y126.46 E8.65698
G1 X117.336 Y126.681 E8.67373
G1 X117.177 Y126.769 E8.68038
G1 X116.942 Y126.858 E8.68957
G1 X116.657 Y126.967 E8.70073
G1 X116.874 Y126.683 E8.70462
G1 X116.887 Y126.65
G1 X116.957 Y126.482 E8.71038
G1 X117.091 Y126.161 E8.7231
G1 X117.159 Y125.643 E8.74222
G1 X117.159 Y123.857 E8.80756
G1 X117.091 Y123.34 E8.82664
G1 X116.874 Y122.817 E8.84735
G1 X116.531 Y122.369 E8.868
G1 X116.082 Y122.025 E8.88869
G1 X115.56 Y121.808 E8.90937
G1 X114.999 Y121.734 E8.93008
G1 X114.439 Y121.808 E8.95074
G1 X113.916 Y122.025 E8.97146
G1 X113.468 Y122.369 E8.99212
G1 X113.124 Y122.817 E9.01279
G1 X112.907 Y123.34 E9.03351
G1 X112.839 Y123.857 E9.05258
G1 X112.839 Y125.643 E9.11793
G1 X112.907 Y126.16 E9.137
G1 X113.124 Y126.683 E9.15772
G1 X113.408 Y127.054 E9.17481
G1 X113.468 Y127.132 E9.17842
G1 X113.558 Y127.201 E9.18256
G1 X113.743 Y127.342 E9.19107
G1 X113.523 Y127.388 E9.19332
G1 X113.395 Y127.416 E9.19545
G1 X113.302 Y127.45 E9.19907
G1 X112.618 Y127.702 E9.22574
G1 X111.888 Y128.094 E9.25605
G1 X111.221 Y128.586 E9.28638
G1 X110.631 Y129.17 E9.31675
G1 X110.131 Y129.83 E9.34704
G1 X109.729 Y130.555 E9.37737
G1 X109.435 Y131.331 E9.40773
G1 X109.244 Y132.202 E9.44036
G1 X109.189 Y132.976 E9.46875
G1 X109.189 Y134.523 E9.52535
G1 X109.243 Y135.295 E9.55366
G1 X109.415 Y136.104 E9.58392
G1 X109.7 Y136.882 E9.61423
G1 X110.094 Y137.612 E9.64458
G1 X110.585 Y138.278 E9.67485
G1 X111.169 Y138.869 E9.70525
G1 X111.883 Y139.404 E9.73789
G1 X112.585 Y139.787 E9.76715
G1 X113.264 Y140.04 E9.79366
G1 X113.331 Y140.065 E9.79628
G1 X113.525 Y140.108 E9.80355
G1 X113.744 Y140.157 E9.81176
G1 X113.53 Y140.322 E9.81544
G1 X113.468 Y140.369 E9.81626
G1 X113.425 Y140.426 E9.81887
G1 X113.124 Y140.817 E9.83693
G1 X112.907 Y141.34 E9.85764
G1 X112.839 Y141.857 E9.87672
G1 X112.839 Y143.643 E9.94206
G1 X112.907 Y144.161 E9.96118
G1 X113.124 Y144.683 E9.98186
G1 X113.232 Y144.823 E9.98833
G1 X113.468 Y145.132 E9.99696
G1 X113.54 Y145.187 E9.99764
G1 F2700 E4.99764
G1 F600 Z0.4
G0 F8400 X115.009 Y145.627 Z0.4
;TYPE:WALL-OUTER
G1 F600 Z0.2
G1 F2700 E9.99764
G1 F2400 X114.555 Y145.627 E10.01425
G1 X114.364 Y145.627 E10.02123
G1 X107.799 Y145.629 E10.26142
G1 X107.128 Y145.582 E10.28603
G1 X106.442 Y145.436 E10.31169
G1 X105.776 Y145.192 E10.33764
G1 X105.159 Y144.86 E10.36328
G1 X104.549 Y144.403 E10.39116
G1 X104.074 Y143.927 E10.41577
G1 X103.669 Y143.387 E10.44046
G1 X103.331 Y142.775 E10.46604
G1 X103.081 Y142.116 E10.49183
G1 X102.925 Y141.424 E10.51778
G1 X102.872 Y140.729 E10.54328
G1 X102.87 Y131.74 E10.87215
G1 X102.87 Y96.797 E12.15058
G1 X102.87 Y96.577 E12.15863
G1 X103.09 Y96.577 E12.16384
G1 X120.22 Y96.578 E12.79056
G1 X120.219 Y122.7 E13.74626
G1 X120.171 Y123.37 E13.77084
G1 X120.026 Y124.056 E13.79649
G1 X119.781 Y124.723 E13.82249
G1 X119.45 Y125.34 E13.8481
G1 X118.993 Y125.95 E13.87599
G1 X118.517 Y126.425 E13.90059
G1 X117.977 Y126.83 E13.92529
G1 X117.365 Y127.168 E13.95087
G1 X116.705 Y127.419 E13.9767
G1 X116.014 Y127.574 E14.00261
G1 X115.743 Y127.595 E14.01255
G1 X115.472 Y127.615 E14.0225
G1 X115.315 Y127.627 E14.02826
G1 X115.003 Y127.63 E14.03967
G1 X114.582 Y127.659 E14.05511
G1 X114.489 Y127.665 E14.05852
G1 X114.265 Y127.682 E14.06674
G1 X113.517 Y127.84 E14.09471
G1 X112.799 Y128.104 E14.1227
G1 X112.124 Y128.467 E14.15074
G1 X111.508 Y128.921 E14.17874
G1 X110.963 Y129.461 E14.2068
G1 X110.501 Y130.071 E14.2348
G1 X110.129 Y130.741 E14.26284
G1 X109.858 Y131.457 E14.29085
G1 X109.681 Y132.265 E14.32111
G1 X109.629 Y132.992 E14.34778
G1 X109.629 Y134.508 E14.40324
G1 X109.68 Y135.234 E14.42987
G1 X109.839 Y135.982 E14.45785
G1 X110.102 Y136.701 E14.48586
G1 X110.466 Y137.376 E14.51391
G1 X110.92 Y137.991 E14.54188
G1 X111.459 Y138.536 E14.56992
G1 X112.122 Y139.033 E14.60024
G1 X112.768 Y139.386 E14.62717
G1 X113.456 Y139.642 E14.65403
G1 X114.203 Y139.809 E14.68203
G1 X114.502 Y139.831 E14.693
G1 X114.583 Y139.837 E14.69598
G1 X114.945 Y139.865 E14.70926
G1 X115.033 Y139.875 E14.7125
G1 X115.435 Y139.921 E14.7273
G1 X115.538 Y139.955 E14.73127
G1 X115.861 Y140.065 E14.74375
G1 X116.013 Y140.158 E14.75027
G1 X116.246 Y140.302 E14.7603
G1 X116.421 Y140.474 E14.76927
G1 X116.573 Y140.623 E14.77706
G1 X116.737 Y140.881 E14.78825
G1 X116.814 Y141.001 E14.79346
G1 X116.941 Y141.353 E14.80715
G1 X116.97 Y141.433 E14.81027
G1 X117.021 Y141.849 E14.8256
G1 X117.026 Y141.886 E14.82697
G1 X117.029 Y143.585 E14.88913
G1 X117.023 Y143.647 E14.8914
G1 X116.979 Y144.034 E14.90565
G1 X116.944 Y144.139 E14.9097
G1 X116.834 Y144.464 E14.92226
G1 X116.741 Y144.615 E14.92875
G1 X116.597 Y144.847 E14.93874
G1 X116.426 Y145.022 E14.94769
G1 X116.278 Y145.172 E14.9554
G1 X116.019 Y145.338 E14.96665
G1 X115.895 Y145.418 E14.97205
G1 X115.546 Y145.543 E14.98561
G1 X115.468 Y145.571 E14.98865
G1 X115.036 Y145.623 E15.00456
G1 X115.009 Y145.627 E15.00556
G0 F8400 X114.999 Y145.322
G1 F2400 X115.429 Y145.266 E15.01655
G1 X115.445 Y145.263 E15.01657
G1 X115.774 Y145.127 E15.02555
G1 X115.86 Y145.091 E15.02761
G1 X116.085 Y144.919 E15.03467
G1 X116.217 Y144.818 E15.03864
G1 X116.342 Y144.654 E15.04366
G1 X116.49 Y144.461 E15.0497
G1 X116.538 Y144.343 E15.05267
G1 X116.662 Y144.045 E15.06082
G1 X116.668 Y143.994 E15.06179
G1 X116.719 Y143.614 E15.07161
G1 X116.719 Y143.585 E15.07217
G1 X116.719 Y141.886 E15.11575
G1 X116.665 Y141.473 E15.12632
G1 X116.662 Y141.455 E15.12639
G1 X116.525 Y141.122 E15.13544
G1 X116.49 Y141.039 E15.13742
G1 X116.32 Y140.818 E15.14436
G1 X116.217 Y140.683 E15.14843
G1 X116.052 Y140.557 E15.1535
G1 X115.86 Y140.409 E15.15951
G1 X115.74 Y140.36 E15.16253
G1 X115.444 Y140.237 E15.17061
G1 X115.395 Y140.231 E15.17153
G1 X114.999 Y140.178 E15.18173
G1 X114.988 Y140.179
G1 X114.554 Y140.237 E15.19504
G1 X114.479 Y140.268 E15.19789
G1 X114.138 Y140.409 E15.21139
G1 X113.782 Y140.683 E15.22782
G1 X113.508 Y141.039 E15.24426
G1 X113.336 Y141.455 E15.26073
G1 X113.279 Y141.886 E15.27663
G1 X113.279 Y143.614 E15.33985
G1 X113.336 Y144.046 E15.3558
G1 X113.508 Y144.461 E15.37223
G1 X113.782 Y144.818 E15.3887
G1 X114.138 Y145.091 E15.40511
G1 X114.378 Y145.19 E15.41461
G1 X114.554 Y145.263 E15.42099
G1 X114.999 Y145.322 E15.4337
G1 F2700 E10.4337
G1 F600 Z0.4
G0 F8400 X114.999 Y127.322 Z0.4
G1 F600 Z0.2
G1 F2700 E15.4337
G1 F2400 X115.27 Y127.287 E15.4409
G1 X115.444 Y127.263 E15.44605
G1 X115.695 Y127.16 E15.455
G1 X115.86 Y127.091 E15.46155
G1 X116.217 Y126.818 E15.47799
G1 X116.49 Y126.461 E15.49443
G1 X116.662 Y126.046 E15.51087
G1 X116.719 Y125.614 E15.52681
G1 X116.719 Y123.886 E15.59003
G1 X116.662 Y123.455 E15.60594
G1 X116.49 Y123.039 E15.62241
G1 X116.217 Y122.683 E15.63882
G1 X115.86 Y122.409 E15.65528
G1 X115.445 Y122.237 E15.67172
G1 X114.999 Y122.178 E15.68818
G1 X114.554 Y122.237 E15.7046
G1 X114.138 Y122.409 E15.72107
G1 X113.782 Y122.683 E15.73751
G1 X113.508 Y123.039 E15.75394
G1 X113.336 Y123.455 E15.77041
G1 X113.279 Y123.886 E15.78632
G1 X113.279 Y125.614 E15.84954
G1 X113.336 Y126.045 E15.86545
G1 X113.508 Y126.461 E15.88192
G1 X113.782 Y126.818 E15.89838
G1 X114.138 Y127.091 E15.91479
G1 X114.469 Y127.228 E15.9279
G1 X114.554 Y127.263 E15.9311
G1 X114.999 Y127.322 E15.94435
G1 F2700 E10.94435
G1 F600 Z0.4
G0 F8400 X112.273 Y126.903 Z0.4
;TYPE:SKIN
G1 F600 Z0.2
G1 F2700 E15.94435
G1 F2400 X112.261 Y126.907 E15.94481
G1 X111.421 Y127.357 E15.97967
G1 X110.654 Y127.923 E16.01455
G1 X109.975 Y128.595 E16.0495
G1 X109.4 Y129.354 E16.08434
G1 X108.938 Y130.187 E16.11919
G1 X108.599 Y131.082 E16.1542
G1 X108.381 Y132.077 E16.19147
G1 X108.319 Y132.945 E16.22331
G1 X108.319 Y134.553 E16.28214
G1 X108.38 Y135.416 E16.31379
G1 X108.577 Y136.345 E16.34853
G1 X108.905 Y137.24 E16.38341
G1 X109.357 Y138.079 E16.41827
G1 X109.922 Y138.845 E16.4531
G1 X110.596 Y139.527 E16.48818
G1 X111.411 Y140.138 E16.52545
G1 X112.223 Y140.581 E16.55929
G1 X112.272 Y140.599 E16.5612
G1 X112.059 Y141.112 E16.58152
G1 X111.969 Y141.8 E16.60691
G1 X111.969 Y143.7 E16.67642
G1 X112.05 Y144.317 E16.69919
G1 X107.835 Y144.319 E16.8534
G1 X107.309 Y144.282 E16.87269
G1 X106.808 Y144.175 E16.89143
G1 X106.309 Y143.992 E16.91088
G1 X105.873 Y143.759 E16.92896
G1 X105.407 Y143.409 E16.95029
G1 X105.068 Y143.069 E16.96785
G1 X104.771 Y142.674 E16.98593
G1 X104.52 Y142.216 E17.00504
G1 X104.342 Y141.748 E17.02336
G1 X104.223 Y141.226 E17.04295
G1 X104.182 Y140.688 E17.06269
G1 X104.18 Y131.74 E17.39006
G1 X104.18 Y97.887 E18.62861
G1 X118.91 Y97.888 E19.16753
G1 X118.909 Y122.666 E20.07406
G1 X118.871 Y123.193 E20.09339
G1 X118.768 Y123.68 E20.1116
G1 X118.582 Y124.184 E20.13126
G1 X118.34 Y124.636 E20.15001
G1 X118.029 Y125.052 E20.16902
G1 X118.029 Y123.8 E20.21482
G1 X117.939 Y123.112 E20.24021
G1 X117.633 Y122.378 E20.2693
G1 X117.152 Y121.748 E20.2983
G1 X116.521 Y121.266 E20.32735
G1 X115.788 Y120.96 E20.35641
G1 X114.999 Y120.856 E20.38553
G1 X114.211 Y120.96 E20.41461
G1 X113.477 Y121.266 E20.4437
G1 X112.847 Y121.748 E20.47272
G1 X112.365 Y122.378 E20.50175
G1 X112.059 Y123.112 E20.53084
G1 X111.969 Y123.8 E20.55623
G1 X111.969 Y125.7 E20.62574
G1 X112.059 Y126.388 E20.65113
G1 X112.273 Y126.903 E20.67153
G1 F2700 E15.67153
G1 F600 Z0.4
G0 F8400 X104.603 Y141.938 Z0.4
G1 F600 Z0.2
G1 F2700 E20.67153
G1 F2400 X106.558 Y143.894 E20.77271
G0 F8400 X107.398 Y144.111
G1 F2400 X104.389 Y141.102 E20.9284
G0 F8400 X104.357 Y140.448
G1 F2400 X108.05 Y144.141 E21.11947
G0 F8400 X108.673 Y144.141
G1 F2400 X104.357 Y139.826 E21.34276
G0 F8400 X104.357 Y139.203
G1 F2400 X109.294 Y144.14 E21.5982
G0 F8400 X109.916 Y144.14
G1 F2400 X104.357 Y138.581 E21.88583
G0 F8400 X104.357 Y137.959
G1 F2400 X110.538 Y144.14 E22.20564
G0 F8400 X111.16 Y144.14
G1 F2400 X104.356 Y137.336 E22.55768
G0 F8400 X104.356 Y136.714
G1 F2400 X111.782 Y144.14 E22.94191
G0 F8400 X111.792 Y143.527
G1 F2400 X104.356 Y136.091 E23.32665
G0 F8400 X104.356 Y135.469
G1 F2400 X111.792 Y142.905 E23.71139
G0 F8400 X111.792 Y142.283
G1 F2400 X104.356 Y134.847 E24.09614
G0 F8400 X104.356 Y134.224
G1 F2400 X111.808 Y141.676 E24.48171
G0 F8400 X111.88 Y141.126
G1 F2400 X104.356 Y133.602 E24.87101
G0 F8400 X104.356 Y132.979
G1 F2400 X108.811 Y137.434 E25.10151
G0 F8400 X108.416 Y136.417
G1 F2400 X104.356 Y132.357 E25.31158
G0 F8400 X104.355 Y131.734
G1 F2400 X108.245 Y135.624 E25.51285
G0 F8400 X108.169 Y134.926
G1 F2400 X104.355 Y131.112 E25.71019
G0 F8400 X104.355 Y130.49
G1 F2400 X108.142 Y134.277 E25.90613
G0 F8400 X108.142 Y133.655
G1 F2400 X104.355 Y129.867 E26.1021
G0 F8400 X104.355 Y129.245
G1 F2400 X108.142 Y133.032 E26.29804
G0 F8400 X108.178 Y132.446
G1 F2400 X104.355 Y128.623 E26.49584
G0 F8400 X104.355 Y128.001
G1 F2400 X108.241 Y131.887 E26.69691
G0 F8400 X108.354 Y131.377
G1 F2400 X104.355 Y127.378 E26.90382
G0 F8400 X104.355 Y126.756
G1 F2400 X108.485 Y130.886 E27.11751
G0 F8400 X108.656 Y130.435
G1 F2400 X104.355 Y126.134 E27.34004
G0 F8400 X104.355 Y125.512
G1 F2400 X108.841 Y129.998 E27.57215
G0 F8400 X109.063 Y129.597
G1 F2400 X104.355 Y124.889 E27.81575
G0 F8400 X104.355 Y124.267
G1 F2400 X109.292 Y129.204 E28.07119
G0 F8400 X109.56 Y128.85
G1 F2400 X104.355 Y123.645 E28.3405
G0 F8400 X104.355 Y123.023
G1 F2400 X109.829 Y128.496 E28.6237
G0 F8400 X110.138 Y128.184
G1 F2400 X104.355 Y122.4 E28.92294
G0 F8400 X104.355 Y121.778
G1 F2400 X110.451 Y127.874 E29.23835
G0 F8400 X110.796 Y127.597
G1 F2400 X104.355 Y121.156 E29.57162
G0 F8400 X104.355 Y120.534
G1 F2400 X111.155 Y127.333 E29.92343
G0 F8400 X111.538 Y127.094
G1 F2400 X104.355 Y119.911 E30.29508
G0 F8400 X104.355 Y119.289
G1 F2400 X111.942 Y126.876 E30.68764
G0 F8400 X111.853 Y126.165
G1 F2400 X104.355 Y118.667 E31.07559
G0 F8400 X104.355 Y118.045
G1 F2400 X111.792 Y125.482 E31.46038
G0 F8400 X111.792 Y124.86
G1 F2400 X104.355 Y117.422 E31.8452
G0 F8400 X104.355 Y116.8
G1 F2400 X111.792 Y124.237 E32.23
G0 F8400 X111.813 Y123.636
G1 F2400 X104.355 Y116.178 E32.61588
G0 F8400 X104.355 Y115.556
G1 F2400 X111.885 Y123.086 E33.00549
G0 F8400 X112.064 Y122.642
G1 F2400 X104.355 Y114.933 E33.40435
G0 F8400 X104.354 Y114.31
G1 F2400 X112.264 Y122.22 E33.81362
G0 F8400 X112.533 Y121.867
G1 F2400 X104.354 Y113.688 E34.23681
