;FLAVOR:Marlin
;TIME:679
;Filament used: 0.382905m
;Layer height: 0.2
;MINX:93.913
;MINY:93.912
;MINZ:0.2
;MAXX:136.088
;MAXY:136.088
;MAXZ:9.4
;POSTPROCESSED
;Generated with Cura_SteamEngine master
M140 S60
M105
M190 S60
M104 S205
M105
M109 S205
M82 ;absolute extrusion mode
M201 X500.00 Y500.00 Z100.00 E5000.00 ;Setup machine max acceleration
M203 X500.00 Y500.00 Z10.00 E50.00 ;Setup machine max feedrate
M204 P500.00 R1000.00 T500.00 ;Setup Print/Retract/Travel acceleration
M205 X8.00 Y8.00 Z0.40 E5.00 ;Setup Jerk
M220 S100 ;Reset Feedrate
M221 S100 ;Reset Flowrate
M141 S28
G92 E0
G92 E0
G1 F2700 E-5
;LAYER_COUNT:47
;LAYER:0
M107
G0 F8400 X97.134 Y97.474 Z0.2
;TYPE:SKIRT
G1 F2700 E0
G1 F3000 X97.827 Y96.809 E0.03514
G1 X98.573 Y96.204 E0.07028
G1 X99.367 Y95.663 E0.10543
G1 X100.203 Y95.19 E0.14057
G1 X101.075 Y94.788 E0.1757
G1 X101.978 Y94.46 E0.21085
G1 X102.905 Y94.208 E0.246
G1 X103.85 Y94.034 E0.28115
G1 X105.139 Y93.926 E0.32848
G1 X105.459 Y93.917 E0.34019
G1 X105.783 Y93.912 E0.35205
G1 X123.84 Y93.912 E1.01268
G1 X124.005 Y93.913 E1.01872
G1 X124.703 Y93.923 E1.04426
G1 X125.662 Y93.977 E1.0794
G1 X126.614 Y94.11 E1.11457
G1 X127.551 Y94.322 E1.14972
G1 X128.467 Y94.611 E1.18486
G1 X129.356 Y94.976 E1.22002
G1 X130.211 Y95.413 E1.25515
G1 X131.027 Y95.919 E1.29028
G1 X131.798 Y96.492 E1.32542
G1 X132.519 Y97.127 E1.36057
G1 X133.185 Y97.82 E1.39574
G1 X133.791 Y98.565 E1.43087
G1 X134.332 Y99.359 E1.46602
G1 X134.806 Y100.195 E1.50118
G1 X135.208 Y101.067 E1.53631
G1 X135.537 Y101.97 E1.57148
G1 X135.789 Y102.896 E1.60659
G1 X135.964 Y103.841 E1.64175
G1 X136.073 Y105.138 E1.68937
G1 X136.082 Y105.458 E1.70108
G1 X136.087 Y105.782 E1.71294
G1 X136.087 Y106.473 E1.73822
G1 X136.088 Y123.808 E2.37244
G1 X136.087 Y123.95 E2.37763
G1 X136.078 Y124.679 E2.40431
G1 X136.026 Y125.639 E2.43948
G1 X135.895 Y126.59 E2.4746
G1 X135.685 Y127.528 E2.50977
G1 X135.397 Y128.444 E2.5449
G1 X135.035 Y129.334 E2.58005
G1 X134.599 Y130.19 E2.6152
G1 X134.094 Y131.007 E2.65034
G1 X133.523 Y131.78 E2.6855
G1 X132.89 Y132.502 E2.72063
G1 X132.198 Y133.169 E2.75579
G1 X131.454 Y133.776 E2.79092
G1 X130.662 Y134.319 E2.82605
G1 X129.827 Y134.794 E2.8612
G1 X128.955 Y135.199 E2.89638
G1 X128.053 Y135.529 E2.93152
G1 X127.127 Y135.783 E2.96665
G1 X126.183 Y135.959 E3.00178
G1 X124.857 Y136.073 E3.05047
G1 X124.494 Y136.083 E3.06376
G1 X124.194 Y136.087 E3.07473
G1 X123.551 Y136.088 E3.09826
G1 X123.532 Y136.088 E3.09895
G1 X106.156 Y136.087 E3.73468
G1 X106.007 Y136.086 E3.74013
G1 X105.313 Y136.077 E3.76552
G1 X104.354 Y136.025 E3.80066
G1 X103.403 Y135.893 E3.83578
G1 X102.465 Y135.682 E3.87096
G1 X101.549 Y135.394 E3.90609
G1 X100.66 Y135.031 E3.94122
G1 X99.804 Y134.595 E3.97637
G1 X98.987 Y134.089 E4.01153
G1 X98.215 Y133.518 E4.04666
G1 X97.493 Y132.884 E4.08181
G1 X96.827 Y132.192 E4.11695
G1 X96.22 Y131.447 E4.15211
G1 X95.677 Y130.654 E4.18727
G1 X95.202 Y129.819 E4.22242
G1 X94.799 Y128.948 E4.25753
G1 X94.469 Y128.045 E4.29271
G1 X94.215 Y127.119 E4.32784
G1 X94.04 Y126.174 E4.363
G1 X93.928 Y124.883 E4.41041
G1 X93.918 Y124.549 E4.42263
G1 X93.913 Y124.204 E4.43526
G1 X93.913 Y106.126 E5.09666
G1 X93.914 Y105.952 E5.10303
G1 X93.924 Y105.287 E5.12736
G1 X93.979 Y104.328 E5.1625
G1 X94.113 Y103.377 E5.19764
G1 X94.325 Y102.44 E5.23279
G1 X94.615 Y101.525 E5.26791
G1 X94.98 Y100.636 E5.30306
G1 X95.418 Y99.781 E5.33821
G1 X95.925 Y98.965 E5.37336
G1 X96.498 Y98.194 E5.4085
G1 X97.134 Y97.474 E5.44365
G0 F8400 X97.565 Y97.661
G1 F3000 X98.255 Y97.02 E5.47811
G1 X98.997 Y96.439 E5.51259
G1 X99.785 Y95.923 E5.54705
G1 X100.615 Y95.476 E5.58154
G1 X101.479 Y95.101 E5.616
G1 X102.372 Y94.8 E5.65048
G1 X103.287 Y94.576 E5.68494
G1 X104.218 Y94.431 E5.71941
G1 X105.151 Y94.365 E5.75363
G1 X105.471 Y94.356 E5.76535
G1 X105.783 Y94.352 E5.77676
G1 X123.84 Y94.352 E6.4374
G1 X123.999 Y94.353 E6.44321
G1 X124.697 Y94.363 E6.46875
G1 X125.638 Y94.417 E6.50324
G1 X126.57 Y94.55 E6.53768
G1 X127.488 Y94.761 E6.57214
G1 X128.385 Y95.05 E6.60662
G1 X129.254 Y95.414 E6.64109
G1 X130.089 Y95.85 E6.67556
G1 X130.884 Y96.355 E6.71001
G1 X131.634 Y96.926 E6.7445
G1 X132.332 Y97.559 E6.77898
G1 X132.974 Y98.248 E6.81343
G1 X133.556 Y98.989 E6.8479
G1 X134.072 Y99.777 E6.88236
G1 X134.52 Y100.606 E6.91684
G1 X134.895 Y101.47 E6.9513
G1 X135.197 Y102.363 E6.98579
G1 X135.421 Y103.278 E7.02025
G1 X135.567 Y104.209 E7.05473
G1 X135.634 Y105.15 E7.08925
G1 X135.643 Y105.47 E7.10096
G1 X135.647 Y105.782 E7.11237
G1 X135.647 Y106.473 E7.13765
G1 X135.648 Y123.808 E7.77188
G1 X135.647 Y123.945 E7.77689
G1 X135.638 Y124.674 E7.80356
G1 X135.587 Y125.615 E7.83804
G1 X135.455 Y126.548 E7.87251
G1 X135.246 Y127.466 E7.90696
G1 X134.959 Y128.364 E7.94145
G1 X134.597 Y129.233 E7.97589
G1 X134.162 Y130.069 E8.01037
G1 X133.658 Y130.865 E8.04484
G1 X133.089 Y131.616 E8.07931
G1 X132.458 Y132.315 E8.11377
G1 X131.77 Y132.959 E8.14824
G1 X131.029 Y133.542 E8.18274
G1 X130.242 Y134.06 E8.21721
G1 X129.414 Y134.509 E8.25167
G1 X128.551 Y134.887 E8.28614
G1 X127.659 Y135.189 E8.32059
G1 X126.745 Y135.416 E8.35505
G1 X125.814 Y135.564 E8.38954
G1 X124.845 Y135.633 E8.42508
G1 X124.482 Y135.643 E8.43837
G1 X124.193 Y135.647 E8.44894
G1 X123.55 Y135.648 E8.47247
G1 X123.532 Y135.648 E8.47312
G1 X106.156 Y135.647 E9.10885
G1 X106.013 Y135.646 E9.11408
G1 X105.319 Y135.637 E9.13947
G1 X104.378 Y135.585 E9.17395
G1 X103.446 Y135.453 E9.20839
G1 X102.527 Y135.243 E9.24288
G1 X101.63 Y134.955 E9.27735
G1 X100.76 Y134.593 E9.31182
G1 X99.925 Y134.158 E9.34627
G1 X99.129 Y133.653 E9.38076
G1 X98.379 Y133.083 E9.41522
G1 X97.68 Y132.452 E9.44967
G1 X97.037 Y131.763 E9.48415
G1 X96.454 Y131.023 E9.51862
G1 X95.937 Y130.235 E9.5531
G1 X95.488 Y129.407 E9.58756
G1 X95.111 Y128.544 E9.62202
G1 X94.809 Y127.651 E9.65651
G1 X94.583 Y126.737 E9.69095
G1 X94.436 Y125.806 E9.72544
G1 X94.368 Y124.87 E9.75977
G1 X94.358 Y124.536 E9.772
G1 X94.353 Y124.204 E9.78415
G1 X94.353 Y106.126 E10.44555
G1 X94.354 Y105.959 E10.45166
G1 X94.364 Y105.294 E10.47599
G1 X94.418 Y104.354 E10.51044
G1 X94.552 Y103.421 E10.54493
G1 X94.764 Y102.503 E10.5794
G1 X95.054 Y101.606 E10.61389
G1 X95.418 Y100.738 E10.64832
G1 X95.855 Y99.903 E10.6828
G1 X96.361 Y99.108 E10.71728
G1 X96.932 Y98.359 E10.75174
G1 X97.565 Y97.661 E10.78621
G0 F8400 X97.996 Y97.853
G1 F3000 X98.682 Y97.235 E10.81999
G1 X99.42 Y96.68 E10.85378
G1 X100.202 Y96.19 E10.88754
G1 X101.024 Y95.769 E10.92133
G1 X101.879 Y95.421 E10.9551
G1 X102.762 Y95.149 E10.9889
G1 X103.664 Y94.954 E11.02267
G1 X104.58 Y94.838 E11.05645
G1 X105.163 Y94.805 E11.07781
G1 X105.483 Y94.796 E11.08952
G1 X105.783 Y94.792 E11.1005
G1 X123.84 Y94.792 E11.76114
G1 X123.993 Y94.793 E11.76673
G1 X124.691 Y94.803 E11.79227
G1 X125.612 Y94.856 E11.82603
G1 X126.526 Y94.989 E11.85982
G1 X127.425 Y95.2 E11.8936
G1 X128.302 Y95.489 E11.92739
G1 X129.151 Y95.852 E11.96117
G1 X129.965 Y96.287 E11.99493
G1 X130.739 Y96.791 E12.02873
G1 X131.466 Y97.36 E12.0625
G1 X132.141 Y97.99 E12.09628
G1 X132.759 Y98.676 E12.13006
G1 X133.315 Y99.412 E12.16381
G1 X133.806 Y100.195 E12.19763
G1 X134.227 Y101.016 E12.23138
G1 X134.575 Y101.871 E12.26515
G1 X134.848 Y102.753 E12.29893
G1 X135.044 Y103.655 E12.3327
G1 X135.161 Y104.571 E12.36649
G1 X135.194 Y105.162 E12.38815
G1 X135.203 Y105.482 E12.39986
G1 X135.207 Y105.782 E12.41083
G1 X135.207 Y106.473 E12.43612
G1 X135.208 Y123.808 E13.07034
G1 X135.207 Y123.94 E13.07517
G1 X135.198 Y124.669 E13.10184
G1 X135.147 Y125.59 E13.13559
G1 X135.016 Y126.504 E13.16937
G1 X134.806 Y127.404 E13.20318
G1 X134.52 Y128.281 E13.23693
G1 X134.158 Y129.131 E13.27073
G1 X133.725 Y129.946 E13.3045
G1 X133.222 Y130.72 E13.33827
G1 X132.655 Y131.449 E13.37206
G1 X132.026 Y132.125 E13.40584
G1 X131.342 Y132.744 E13.43959
G1 X130.606 Y133.302 E13.47338
G1 X129.825 Y133.794 E13.50715
G1 X129.004 Y134.217 E13.54094
G1 X128.15 Y134.567 E13.57471
G1 X127.268 Y134.842 E13.60851
G1 X126.366 Y135.039 E13.64229
G1 X125.451 Y135.158 E13.67605
G1 X124.833 Y135.193 E13.69869
G1 X124.47 Y135.203 E13.71198
G1 X124.193 Y135.207 E13.72211
G1 X123.55 Y135.208 E13.74564
G1 X123.532 Y135.208 E13.7463
G1 X106.156 Y135.207 E14.38202
G1 X106.019 Y135.206 E14.38703
G1 X105.325 Y135.197 E14.41242
G1 X104.403 Y135.145 E14.44621
G1 X103.489 Y135.014 E14.47999
G1 X102.59 Y134.804 E14.51377
G1 X101.713 Y134.516 E14.54754
G1 X100.863 Y134.155 E14.58133
G1 X100.048 Y133.72 E14.61513
G1 X99.274 Y133.218 E14.64888
G1 X98.546 Y132.649 E14.68268
G1 X97.87 Y132.021 E14.71644
G1 X97.251 Y131.336 E14.75022
G1 X96.694 Y130.599 E14.78402
G1 X96.202 Y129.818 E14.81779
G1 X95.78 Y128.997 E14.85156
G1 X95.431 Y128.142 E14.88535
G1 X95.157 Y127.261 E14.9191
G1 X94.96 Y126.359 E14.95288
G1 X94.841 Y125.443 E14.98668
G1 X94.808 Y124.857 E15.00815
G1 X94.798 Y124.523 E15.02038
G1 X94.793 Y124.204 E15.03205
G1 X94.793 Y106.126 E15.69345
G1 X94.794 Y105.966 E15.69931
G1 X94.804 Y105.301 E15.72364
G1 X94.858 Y104.379 E15.75743
G1 X94.991 Y103.465 E15.79122
G1 X95.203 Y102.567 E15.82498
G1 X95.492 Y101.69 E15.85876
G1 X95.856 Y100.841 E15.89256
G1 X96.292 Y100.027 E15.92634
G1 X96.796 Y99.254 E15.9601
G1 X97.366 Y98.528 E15.99387
G1 X97.996 Y97.853 E16.02765
G0 F8400 X97.799 Y98.7
G1 F3000 X98.427 Y98.049 E16.06075
G1 X99.109 Y97.456 E16.09381
G1 X99.841 Y96.926 E16.12688
G1 X100.617 Y96.463 E16.15994
G1 X101.431 Y96.07 E16.19301
G1 X102.277 Y95.75 E16.2261
G1 X103.148 Y95.507 E16.25918
G1 X104.036 Y95.341 E16.29223
G1 X105.176 Y95.245 E16.33409
G1 X105.496 Y95.236 E16.3458
G1 X105.783 Y95.232 E16.3563
G1 X123.84 Y95.232 E17.01694
G1 X123.986 Y95.233 E17.02228
G1 X124.684 Y95.243 E17.04782
G1 X125.587 Y95.296 E17.08091
G1 X126.481 Y95.428 E17.11398
G1 X127.36 Y95.639 E17.14705
G1 X128.217 Y95.927 E17.18013
G1 X129.045 Y96.29 E17.2132
G1 X129.838 Y96.724 E17.24628
G1 X130.59 Y97.226 E17.27936
G1 X131.294 Y97.793 E17.31243
G1 X131.945 Y98.42 E17.3455
G1 X132.538 Y99.102 E17.37856
G1 X133.069 Y99.834 E17.41165
G1 X133.533 Y100.61 E17.44473
G1 X133.926 Y101.424 E17.4778
G1 X134.246 Y102.269 E17.51085
G1 X134.491 Y103.14 E17.54396
G1 X134.657 Y104.028 E17.57701
G1 X134.754 Y105.175 E17.61912
G1 X134.763 Y105.495 E17.63084
G1 X134.767 Y105.782 E17.64134
G1 X134.767 Y106.473 E17.66662
G1 X134.768 Y123.808 E18.30084
G1 X134.767 Y123.934 E18.30545
G1 X134.758 Y124.663 E18.33212
G1 X134.707 Y125.566 E18.36521
G1 X134.576 Y126.46 E18.39827
G1 X134.367 Y127.34 E18.43136
G1 X134.081 Y128.197 E18.46441
G1 X133.72 Y129.026 E18.4975
G1 X133.288 Y129.82 E18.53057
G1 X132.787 Y130.572 E18.56363
G1 X132.221 Y131.277 E18.5967
G1 X131.595 Y131.93 E18.6298
G1 X130.915 Y132.525 E18.66286
G1 X130.184 Y133.057 E18.69593
G1 X129.409 Y133.522 E18.729
G1 X128.596 Y133.917 E18.76207
G1 X127.751 Y134.239 E18.79515
G1 X126.881 Y134.485 E18.82823
G1 X125.993 Y134.653 E18.8613
G1 X124.82 Y134.753 E18.90437
G1 X124.457 Y134.763 E18.91765
G1 X124.192 Y134.767 E18.92735
G1 X123.549 Y134.768 E18.95087
G1 X123.532 Y134.768 E18.9515
G1 X106.156 Y134.767 E19.58722
G1 X106.024 Y134.766 E19.59205
G1 X105.33 Y134.757 E19.61744
G1 X104.428 Y134.705 E19.6505
G1 X103.534 Y134.574 E19.68355
G1 X102.654 Y134.364 E19.71665
G1 X101.797 Y134.078 E19.74971
G1 X100.968 Y133.717 E19.78279
G1 X100.175 Y133.283 E19.81586
G1 X99.423 Y132.782 E19.84892
G1 X98.718 Y132.216 E19.882
G1 X98.066 Y131.59 E19.91507
G1 X97.471 Y130.909 E19.94815
G1 X96.94 Y130.177 E19.98124
G1 X96.475 Y129.402 E20.0143
G1 X96.08 Y128.589 E20.04737
G1 X95.759 Y127.744 E20.08044
G1 X95.514 Y126.874 E20.11351
G1 X95.346 Y125.986 E20.14658
G1 X95.248 Y124.844 E20.18851
G1 X95.238 Y124.51 E20.20074
G1 X95.233 Y124.204 E20.21193
G1 X95.233 Y106.126 E20.87334
G1 X95.234 Y105.972 E20.87897
G1 X95.244 Y105.307 E20.90331
G1 X95.298 Y104.405 E20.93637
G1 X95.431 Y103.511 E20.96943
G1 X95.642 Y102.632 E21.00251
G1 X95.931 Y101.775 E21.0356
G1 X96.294 Y100.947 E21.06867
G1 X96.729 Y100.155 E21.10173
G1 X97.232 Y99.404 E21.1348
G1 X97.799 Y98.7 E21.16787
G1 F2700 E16.16787
G1 F600 Z0.4
;MESH:End-Cap.STL
G0 F8400 X123.228 Y123.448 Z0.4
;TYPE:WALL-INNER
G1 F600 Z0.2
G1 F2700 E21.16787
G1 F2400 X106.553 Y123.447 E21.77795
G1 X106.553 Y106.552 E22.39607
G1 X123.447 Y106.552 E23.01416
G1 X123.448 Y123.228 E23.62427
G1 X123.448 Y123.448 E23.63232
G1 X123.228 Y123.448 E23.63752
G0 F8400 X123.49 Y123.888
G1 F2400 X106.113 Y123.887 E24.27328
G1 X106.113 Y106.112 E24.9236
G1 X123.887 Y106.112 E25.57388
G1 X123.887 Y106.467 E25.58687
G1 X123.888 Y123.846 E26.2227
G1 X123.888 Y123.888 E26.22423
G1 X123.532 Y123.888 E26.23726
G1 X123.49 Y123.888 E26.23869
G0 F8400 X123.533 Y124.328
;TYPE:WALL-OUTER
G1 F2400 X105.673 Y124.327 E26.89212
G1 X105.673 Y105.672 E27.57464
G1 X124.327 Y105.672 E28.25711
G1 X124.327 Y106.467 E28.2862
G1 X124.328 Y124.327 E28.93963
G1 X123.533 Y124.328 E28.96871
G0 F8400 X123.018 Y123.018
;TYPE:SKIN
G1 F2400 X106.983 Y123.017 E29.55537
G1 X106.983 Y106.982 E30.14203
G1 X123.017 Y106.982 E30.72865
G1 X123.018 Y123.018 E31.31535
G1 F2700 E26.31535
G1 F600 Z0.4
G0 F8400 X107.283 Y122.84 Z0.4
G1 F600 Z0.2
G1 F2700 E31.31535
G1 F2400 X107.158 Y122.714 E31.32184
G0 F8400 X107.158 Y122.092
G1 F2400 X107.905 Y122.84 E31.36052
G0 F8400 X108.528 Y122.84
G1 F2400 X107.158 Y121.47 E31.4314
G0 F8400 X107.158 Y120.848
G1 F2400 X109.15 Y122.84 E31.53447
G0 F8400 X109.772 Y122.84
G1 F2400 X107.158 Y120.225 E31.66975
G0 F8400 X107.158 Y119.603
G1 F2400 X110.394 Y122.84 E31.83721
G0 F8400 X111.017 Y122.84
G1 F2400 X107.158 Y118.981 E32.03687
G0 F8400 X107.158 Y118.359
G1 F2400 X111.639 Y122.84 E32.26872
G0 F8400 X112.261 Y122.84
G1 F2400 X107.158 Y117.736 E32.53278
G0 F8400 X107.158 Y117.114
G1 F2400 X112.883 Y122.84 E32.82902
G0 F8400 X113.506 Y122.84
G1 F2400 X107.158 Y116.492 E33.15747
G0 F8400 X107.158 Y115.87
G1 F2400 X114.128 Y122.84 E33.5181
G0 F8400 X114.75 Y122.84
G1 F2400 X107.158 Y115.247 E33.91094
G0 F8400 X107.158 Y114.625
G1 F2400 X115.373 Y122.84 E34.33599
G0 F8400 X115.995 Y122.84
G1 F2400 X107.158 Y114.003 E34.79323
G0 F8400 X107.158 Y113.381
G1 F2400 X116.618 Y122.84 E35.28267
G0 F8400 X117.24 Y122.84
G1 F2400 X107.158 Y112.758 E35.80431
G0 F8400 X107.158 Y112.136
G1 F2400 X117.862 Y122.84 E36.35815
G0 F8400 X118.484 Y122.84
G1 F2400 X107.158 Y111.514 E36.94416
G0 F8400 X107.158 Y110.892
G1 F2400 X119.107 Y122.84 E37.56238
G0 F8400 X119.729 Y122.84
G1 F2400 X107.158 Y110.269 E38.21282
G0 F8400 X107.158 Y109.647
G1 F2400 X120.351 Y122.84 E38.89543
G0 F8400 X120.973 Y122.84
G1 F2400 X107.158 Y109.025 E39.61023
G0 F8400 X107.158 Y108.403
G1 F2400 X121.596 Y122.84 E40.35723
G0 F8400 X122.218 Y122.84
G1 F2400 X107.158 Y107.78 E41.13645
G0 F8400 X107.158 Y107.158
G1 F2400 X122.841 Y122.841 E41.94789
G0 F8400 X122.841 Y122.219
G1 F2400 X107.78 Y107.158 E42.72716
G0 F8400 X108.403 Y107.158
G1 F2400 X122.841 Y121.596 E43.47419
G0 F8400 X122.841 Y120.974
G1 F2400 X109.025 Y107.158 E44.18904
G0 F8400 X109.647 Y107.158
G1 F2400 X122.841 Y120.352 E44.8717
G0 F8400 X122.841 Y119.73
G1 F2400 X110.269 Y107.158 E45.52219
G0 F8400 X110.892 Y107.158
G1 F2400 X122.841 Y119.107 E46.14044
G0 F8400 X122.841 Y118.485
G1 F2400 X111.514 Y107.158 E46.7265
G0 F8400 X112.136 Y107.158
G1 F2400 X122.841 Y117.863 E47.28039
G0 F8400 X122.841 Y117.241
G1 F2400 X112.758 Y107.158 E47.80209
G0 F8400 X113.381 Y107.158
G1 F2400 X122.841 Y116.618 E48.29155
G0 F8400 X122.841 Y115.996
G1 F2400 X114.003 Y107.158 E48.74884
G0 F8400 X114.625 Y107.158
G1 F2400 X122.841 Y115.374 E49.17394
G0 F8400 X122.84 Y114.751
G1 F2400 X115.247 Y107.158 E49.5668
G0 F8400 X115.87 Y107.158
G1 F2400 X122.84 Y114.129 E49.92746
G0 F8400 X122.84 Y113.506
G1 F2400 X116.492 Y107.158 E50.25591
G0 F8400 X117.114 Y107.158
G1 F2400 X122.84 Y112.884 E50.55218
G0 F8400 X122.84 Y112.262
G1 F2400 X117.736 Y107.158 E50.81626
G0 F8400 X118.359 Y107.158
G1 F2400 X122.84 Y111.64 E51.04814
G0 F8400 X122.84 Y111.017
G1 F2400 X118.981 Y107.158 E51.24781
G0 F8400 X119.603 Y107.158
G1 F2400 X122.84 Y110.395 E51.41529
G0 F8400 X122.84 Y109.773
G1 F2400 X120.225 Y107.158 E51.55059
G0 F8400 X120.848 Y107.158
G1 F2400 X122.84 Y109.151 E51.65369
