; generated by Slic3r 1.3.0 on 2020-03-13 at 10:40:02

; external perimeters extrusion width = 0.44mm (2.98mm^3/s)
; perimeters extrusion width = 0.56mm (7.76mm^3/s)
; infill extrusion width = 0.50mm (9.14mm^3/s)
; solid infill extrusion width = 0.56mm (2.07mm^3/s)
; top infill extrusion width = 0.56mm (1.55mm^3/s)

M107 ; disable fan
M190 S65 ; set bed temperature and wait for it to be reached
M104 S200 ; set temperature
G28 ; home all axes
; Filament gcode

M109 S200 ; set temperature and wait for it to be reached
G21 ; set units to millimeters
G90 ; use absolute coordinates
M82 ; use absolute distances for extrusion
G92 E0 ; reset extrusion distance
G10 ; retract extruder 0
G92 E0 ; reset extrusion distance
G1 Z0.350 F12000.000 ; move to next layer (0)
; OctoLapse Trigger
G4 P1
G1 X78.592 Y96.773 F12000.000 ; move to first skirt point
G11 ; unretract extruder 0
G92 E0 ; reset extrusion distance
G1 F1800
G1 X80.746 Y95.986 E0.20854 ; skirt
G1 X81.906 Y95.884 E0.31442 ; skirt
G1 X153.134 Y95.883 E6.79119 ; skirt
G1 X155.393 Y96.280 E6.99974 ; skirt
G1 X157.381 Y97.423 E7.20828 ; skirt
G1 X158.860 Y99.176 E7.41682 ; skirt
G1 X159.758 Y102.408 E7.72179 ; skirt
G1 X159.840 Y107.871 E8.21861 ; skirt
G1 X159.736 Y142.526 E11.36977 ; skirt
G1 X159.332 Y144.783 E11.57832 ; skirt
G1 X158.183 Y146.768 E11.78686 ; skirt
G1 X156.426 Y148.242 E11.99540 ; skirt
G1 X154.271 Y149.028 E12.20394 ; skirt
G1 X153.111 Y149.131 E12.30985 ; skirt
G1 X81.883 Y149.131 E18.78659 ; skirt
G1 X79.624 Y148.734 E18.99513 ; skirt
G1 X77.636 Y147.591 E19.20367 ; skirt
G1 X76.157 Y145.838 E19.41221 ; skirt
G1 X75.259 Y142.607 E19.71719 ; skirt
G1 X75.177 Y137.144 E20.21401 ; skirt
G1 X75.281 Y102.489 E23.36517 ; skirt
G1 X75.685 Y100.231 E23.57372 ; skirt
G1 X76.834 Y98.246 E23.78226 ; skirt
G1 X78.546 Y96.811 E23.98535 ; skirt
G10 ; retract extruder 0
G92 E0 ; reset extrusion distance
G1 X83.940 Y130.809 F12000.000 ; move to first perimeter point
G11 ; unretract extruder 0
G92 E0 ; reset extrusion distance
G1 F450
G1 X86.699 Y127.812 E0.37042 ; perimeter
G1 X88.432 Y126.874 E0.54961 ; perimeter
G1 X90.377 Y126.549 E0.72891 ; perimeter
G1 X92.321 Y126.874 E0.90810 ; perimeter
G1 X94.055 Y127.812 E1.08736 ; perimeter
G1 X95.391 Y129.262 E1.26664 ; perimeter
G1 X96.182 Y131.067 E1.44586 ; perimeter
G1 X96.345 Y133.032 E1.62518 ; perimeter
G1 X95.861 Y134.943 E1.80437 ; perimeter
G1 X94.783 Y136.593 E1.98361 ; perimeter
G1 X93.228 Y137.804 E2.16289 ; perimeter
G1 X91.363 Y138.444 E2.34215 ; perimeter
G1 X89.392 Y138.444 E2.52138 ; perimeter
G1 X87.527 Y137.804 E2.70063 ; perimeter
G1 X85.971 Y136.593 E2.87991 ; perimeter
G1 X84.893 Y134.943 E3.05916 ; perimeter
G1 X84.409 Y133.032 E3.23835 ; perimeter
G1 X84.572 Y131.067 E3.41766 ; perimeter
G1 X84.685 Y130.809 E3.44332 ; perimeter
G1 X84.000 Y130.809 E3.50566 ; perimeter
G1 X85.365 Y130.184 F12000.000 ; move to first perimeter point
G1 F450
G1 X87.088 Y128.312 E3.73705 ; perimeter
G1 X88.638 Y127.473 E3.89728 ; perimeter
G1 X90.377 Y127.183 E4.05761 ; perimeter
G1 X92.115 Y127.473 E4.21785 ; perimeter
G1 X93.666 Y128.312 E4.37815 ; perimeter
G1 X94.860 Y129.609 E4.53846 ; perimeter
G1 X95.568 Y131.223 E4.69871 ; perimeter
G1 X95.714 Y132.980 E4.85906 ; perimeter
G1 X95.281 Y134.688 E5.01930 ; perimeter
G1 X94.317 Y136.164 E5.17958 ; perimeter
G1 X92.926 Y137.247 E5.33988 ; perimeter
G1 X91.259 Y137.819 E5.50017 ; perimeter
G1 X89.496 Y137.819 E5.66046 ; perimeter
G1 X87.828 Y137.247 E5.82075 ; perimeter
G1 X86.437 Y136.164 E5.98106 ; perimeter
G1 X85.473 Y134.688 E6.14133 ; perimeter
G1 X85.041 Y132.980 E6.30157 ; perimeter
G1 X85.186 Y131.223 E6.46192 ; perimeter
G1 X85.642 Y130.184 E6.56507 ; perimeter
G1 X85.425 Y130.184 E6.58482 ; perimeter
G1 X85.175 Y129.832 F12000.000 ; move inwards before travel
G1 X83.915 Y131.433 F12000.000 ; move to first perimeter point
G1 F450
G1 X83.805 Y132.762 E6.70600 ; perimeter
G1 X83.444 Y132.745 E6.73887 ; perimeter
G1 X83.456 Y131.433 E6.85813 ; perimeter
G1 X83.855 Y131.433 E6.89439 ; perimeter
G10 ; retract extruder 0
G92 E0 ; reset extrusion distance
G1 X139.893 Y115.943 F12000.000 ; move to first perimeter point
G11 ; unretract extruder 0
G92 E0 ; reset extrusion distance
G1 F450
G1 X139.409 Y114.031 E0.17928 ; perimeter
G1 X139.572 Y112.067 E0.35851 ; perimeter
G1 X140.364 Y110.263 E0.53763 ; perimeter
G1 X141.699 Y108.812 E0.71694 ; perimeter
G1 X143.433 Y107.873 E0.89629 ; perimeter
G1 X145.377 Y107.549 E1.07541 ; perimeter
G1 X147.322 Y107.873 E1.25475 ; perimeter
G1 X149.056 Y108.812 E1.43402 ; perimeter
G1 X150.390 Y110.263 E1.61329 ; perimeter
G1 X151.183 Y112.067 E1.79248 ; perimeter
G1 X151.345 Y114.031 E1.97173 ; perimeter
G1 X150.861 Y115.943 E2.15098 ; perimeter
G1 X149.783 Y117.593 E2.33022 ; perimeter
G1 X148.228 Y118.804 E2.50948 ; perimeter
G1 X146.363 Y119.444 E2.68877 ; perimeter
G1 X144.391 Y119.444 E2.86804 ; perimeter
G1 X142.527 Y118.804 E3.04733 ; perimeter
G1 X140.971 Y117.593 E3.22658 ; perimeter
G1 X139.926 Y115.993 E3.40038 ; perimeter
G1 X140.473 Y115.688 F12000.000 ; move to first perimeter point
G1 F450
G1 X140.041 Y113.979 E3.56069 ; perimeter
G1 X140.186 Y112.222 E3.72096 ; perimeter
G1 X140.894 Y110.610 E3.88113 ; perimeter
G1 X142.088 Y109.312 E4.04149 ; perimeter
G1 X143.639 Y108.472 E4.20185 ; perimeter
G1 X145.377 Y108.183 E4.36205 ; perimeter
G1 X147.116 Y108.472 E4.52239 ; perimeter
G1 X148.666 Y109.312 E4.68267 ; perimeter
G1 X149.860 Y110.609 E4.84302 ; perimeter
G1 X150.569 Y112.222 E5.00323 ; perimeter
G1 X150.714 Y113.979 E5.16350 ; perimeter
G1 X150.281 Y115.688 E5.32380 ; perimeter
G1 X149.317 Y117.164 E5.48408 ; perimeter
G1 X147.926 Y118.247 E5.64438 ; perimeter
G1 X146.259 Y118.820 E5.80470 ; perimeter
G1 X144.496 Y118.820 E5.96500 ; perimeter
G1 X142.828 Y118.247 E6.12532 ; perimeter
G1 X141.437 Y117.164 E6.28562 ; perimeter
G1 X140.506 Y115.738 E6.44044 ; perimeter
G1 X140.473 Y115.688 F12000.000 ; move inwards before travel
G10 ; retract extruder 0
G92 E0 ; reset extrusion distance
G1 X130.446 Y127.311 F12000.000 ; move to first perimeter point
G11 ; unretract extruder 0
G92 E0 ; reset extrusion distance
G1 F2250
G1 X131.923 Y128.915 E0.19826 ; perimeter
G1 X132.799 Y130.911 E0.39644 ; perimeter
G1 X132.979 Y133.085 E0.59472 ; perimeter
G1 X132.444 Y135.197 E0.79287 ; perimeter
G1 X131.252 Y137.022 E0.99108 ; perimeter
G1 X129.531 Y138.361 E1.18933 ; perimeter
G1 X127.469 Y139.068 E1.38755 ; perimeter
G1 X125.290 Y139.068 E1.58573 ; perimeter
G1 X123.228 Y138.361 E1.78395 ; perimeter
G1 X121.507 Y137.022 E1.98221 ; perimeter
G1 X120.315 Y135.197 E2.18041 ; perimeter
G1 X119.780 Y133.085 E2.37856 ; perimeter
G1 X119.960 Y130.911 E2.57684 ; perimeter
G1 X120.835 Y128.915 E2.77503 ; perimeter
G1 X122.312 Y127.312 E2.97326 ; perimeter
G1 X124.229 Y126.275 E3.17140 ; perimeter
G1 X126.379 Y125.916 E3.36967 ; perimeter
G1 X128.529 Y126.275 E3.56781 ; perimeter
G1 X130.393 Y127.283 E3.76058 ; perimeter
G1 X130.057 Y127.812 F12000.000 ; move to first perimeter point
G1 F450
G1 X131.393 Y129.262 E3.93986 ; perimeter
G1 X132.184 Y131.067 E4.11908 ; perimeter
G1 X132.347 Y133.032 E4.29839 ; perimeter
G1 X131.863 Y134.943 E4.47758 ; perimeter
G1 X130.785 Y136.593 E4.65683 ; perimeter
G1 X129.230 Y137.804 E4.83611 ; perimeter
G1 X127.365 Y138.444 E5.01536 ; perimeter
G1 X125.394 Y138.444 E5.19459 ; perimeter
G1 X123.529 Y137.804 E5.37385 ; perimeter
G1 X121.973 Y136.593 E5.55313 ; perimeter
G1 X120.895 Y134.943 E5.73237 ; perimeter
G1 X120.411 Y133.032 E5.91156 ; perimeter
G1 X120.574 Y131.067 E6.09088 ; perimeter
G1 X121.366 Y129.262 E6.27010 ; perimeter
G1 X122.701 Y127.812 E6.44937 ; perimeter
G1 X124.434 Y126.874 E6.62855 ; perimeter
G1 X126.379 Y126.549 E6.80785 ; perimeter
G1 X128.323 Y126.874 E6.98704 ; perimeter
G1 X130.004 Y127.783 E7.16085 ; perimeter
G1 X129.668 Y128.312 F12000.000 ; move to first perimeter point
G1 F450
G1 X130.862 Y129.609 E7.32116 ; perimeter
G1 X131.570 Y131.223 E7.48141 ; perimeter
G1 X131.716 Y132.980 E7.64176 ; perimeter
G1 X131.283 Y134.688 E7.80199 ; perimeter
G1 X130.319 Y136.164 E7.96227 ; perimeter
G1 X128.928 Y137.247 E8.12258 ; perimeter
G1 X127.261 Y137.819 E8.28287 ; perimeter
G1 X125.498 Y137.819 E8.44315 ; perimeter
G1 X123.830 Y137.247 E8.60345 ; perimeter
G1 X122.439 Y136.164 E8.76375 ; perimeter
G1 X121.475 Y134.688 E8.92403 ; perimeter
G1 X121.043 Y132.980 E9.08426 ; perimeter
G1 X121.188 Y131.223 E9.24461 ; perimeter
G1 X121.896 Y129.609 E9.40487 ; perimeter
G1 X123.090 Y128.312 E9.56517 ; perimeter
G1 X124.640 Y127.473 E9.72539 ; perimeter
G1 X126.379 Y127.183 E9.88573 ; perimeter
G1 X128.117 Y127.473 E10.04597 ; perimeter
G1 X129.615 Y128.283 E10.20081 ; perimeter
G1 X129.668 Y128.312 F12000.000 ; move inwards before travel
G10 ; retract extruder 0
G92 E0 ; reset extrusion distance
G1 X114.248 Y118.022 F12000.000 ; move to first perimeter point
G11 ; unretract extruder 0
G92 E0 ; reset extrusion distance
G1 F2250
G1 X112.527 Y119.361 E0.19822 ; perimeter
G1 X110.465 Y120.069 E0.39646 ; perimeter
G1 X108.285 Y120.069 E0.59472 ; perimeter
G1 X106.223 Y119.361 E0.79297 ; perimeter
G1 X104.503 Y118.022 E0.99118 ; perimeter
G1 X103.311 Y116.197 E1.18940 ; perimeter
G1 X102.776 Y114.083 E1.38764 ; perimeter
G1 X102.956 Y111.911 E1.58584 ; perimeter
G1 X103.831 Y109.917 E1.78391 ; perimeter
G1 X105.308 Y108.312 E1.98217 ; perimeter
G1 X107.226 Y107.273 E2.18051 ; perimeter
G1 X109.374 Y106.916 E2.37855 ; perimeter
G1 X111.526 Y107.273 E2.57688 ; perimeter
G1 X113.443 Y108.312 E2.77514 ; perimeter
G1 X114.919 Y109.916 E2.97334 ; perimeter
G1 X115.796 Y111.911 E3.17150 ; perimeter
G1 X115.974 Y114.084 E3.36973 ; perimeter
G1 X115.440 Y116.197 E3.56792 ; perimeter
G1 X114.280 Y117.972 E3.76068 ; perimeter
G1 X113.781 Y117.593 F12000.000 ; move to first perimeter point
G1 F450
G1 X112.226 Y118.804 E3.93994 ; perimeter
G1 X110.361 Y119.444 E4.11922 ; perimeter
G1 X108.389 Y119.444 E4.29850 ; perimeter
G1 X106.525 Y118.804 E4.47779 ; perimeter
G1 X104.969 Y117.593 E4.65704 ; perimeter
G1 X103.891 Y115.943 E4.83629 ; perimeter
G1 X103.407 Y114.031 E5.01557 ; perimeter
G1 X103.570 Y112.067 E5.19480 ; perimeter
G1 X104.362 Y110.263 E5.37392 ; perimeter
G1 X105.697 Y108.812 E5.55323 ; perimeter
G1 X107.431 Y107.873 E5.73258 ; perimeter
G1 X109.375 Y107.549 E5.91171 ; perimeter
G1 X111.320 Y107.873 E6.09104 ; perimeter
G1 X113.054 Y108.812 E6.27031 ; perimeter
G1 X114.388 Y110.263 E6.44958 ; perimeter
G1 X115.181 Y112.067 E6.62877 ; perimeter
G1 X115.343 Y114.031 E6.80802 ; perimeter
G1 X114.859 Y115.943 E6.98727 ; perimeter
G1 X113.814 Y117.543 E7.16106 ; perimeter
G1 X113.315 Y117.164 F12000.000 ; move to first perimeter point
G1 F450
G1 X111.924 Y118.247 E7.32136 ; perimeter
G1 X110.257 Y118.820 E7.48168 ; perimeter
G1 X108.494 Y118.820 E7.64198 ; perimeter
G1 X106.826 Y118.247 E7.80230 ; perimeter
G1 X105.435 Y117.164 E7.96259 ; perimeter
G1 X104.471 Y115.688 E8.12288 ; perimeter
G1 X104.039 Y113.979 E8.28319 ; perimeter
G1 X104.184 Y112.222 E8.44346 ; perimeter
G1 X104.892 Y110.610 E8.60362 ; perimeter
G1 X106.086 Y109.312 E8.76399 ; perimeter
G1 X107.637 Y108.472 E8.92434 ; perimeter
G1 X109.375 Y108.183 E9.08455 ; perimeter
G1 X111.114 Y108.472 E9.24489 ; perimeter
G1 X112.664 Y109.312 E9.40517 ; perimeter
G1 X113.858 Y110.609 E9.56552 ; perimeter
G1 X114.567 Y112.222 E9.72573 ; perimeter
G1 X114.712 Y113.979 E9.88600 ; perimeter
G1 X114.279 Y115.688 E10.04630 ; perimeter
G1 X113.348 Y117.114 E10.20113 ; perimeter
G1 X113.315 Y117.164 F12000.000 ; move inwards before travel
G10 ; retract extruder 0
G92 E0 ; reset extrusion distance
G1 X83.526 Y104.108 F12000.000 ; move to first perimeter point
G11 ; unretract extruder 0
G92 E0 ; reset extrusion distance
G1 F2250
G1 X151.559 Y104.108 E6.18622 ; perimeter
G1 X151.615 Y107.855 E6.52704 ; perimeter
G1 X151.589 Y110.700 E6.78570 ; perimeter
G1 X151.292 Y110.761 E6.81324 ; perimeter
G1 X150.921 Y109.916 E6.89712 ; perimeter
G1 X149.445 Y108.312 E7.09532 ; perimeter
G1 X147.528 Y107.273 E7.29358 ; perimeter
G1 X145.376 Y106.916 E7.49191 ; perimeter
G1 X143.228 Y107.273 E7.68996 ; perimeter
G1 X141.310 Y108.312 E7.88829 ; perimeter
G1 X139.833 Y109.917 E8.08656 ; perimeter
G1 X138.958 Y111.911 E8.28463 ; perimeter
G1 X138.778 Y114.083 E8.48283 ; perimeter
G1 X139.313 Y116.197 E8.68107 ; perimeter
G1 X140.505 Y118.022 E8.87928 ; perimeter
G1 X142.225 Y119.361 E9.07750 ; perimeter
G1 X144.287 Y120.069 E9.27575 ; perimeter
G1 X146.467 Y120.069 E9.47400 ; perimeter
G1 X148.529 Y119.361 E9.67225 ; perimeter
G1 X150.250 Y118.022 E9.87047 ; perimeter
G1 X151.265 Y116.468 E10.03927 ; perimeter
G1 X151.534 Y116.549 E10.06482 ; perimeter
G1 X151.487 Y121.498 E10.51484 ; perimeter
G1 X151.492 Y140.906 E12.27958 ; perimeter
G1 X83.459 Y140.907 E18.46580 ; perimeter
G1 X83.402 Y137.159 E18.80662 ; perimeter
G1 X83.440 Y133.083 E19.17723 ; perimeter
G1 X83.768 Y133.044 E19.20719 ; perimeter
G1 X84.313 Y135.197 E19.40915 ; perimeter
G1 X85.505 Y137.022 E19.60736 ; perimeter
G1 X87.226 Y138.361 E19.80561 ; perimeter
G1 X89.288 Y139.068 E20.00383 ; perimeter
G1 X91.467 Y139.068 E20.20201 ; perimeter
G1 X93.529 Y138.361 E20.40023 ; perimeter
G1 X95.250 Y137.022 E20.59849 ; perimeter
G1 X96.442 Y135.197 E20.79669 ; perimeter
G1 X96.977 Y133.085 E20.99484 ; perimeter
G1 X96.797 Y130.911 E21.19312 ; perimeter
G1 X95.921 Y128.915 E21.39131 ; perimeter
G1 X94.444 Y127.311 E21.58956 ; perimeter
G1 X92.527 Y126.275 E21.78778 ; perimeter
G1 X90.377 Y125.916 E21.98593 ; perimeter
G1 X88.227 Y126.275 E22.18419 ; perimeter
G1 X86.310 Y127.312 E22.38234 ; perimeter
G1 X83.466 Y130.401 E22.76419 ; perimeter
G1 X83.530 Y123.516 E23.39026 ; perimeter
G1 X83.526 Y104.168 E25.14955 ; perimeter
G1 X82.893 Y103.483 F12000.000 ; move to first perimeter point
G1 F2250
G1 X152.174 Y103.483 E31.44925 ; perimeter
G1 X152.240 Y107.854 E31.84673 ; perimeter
G1 X152.112 Y121.501 E33.08774 ; perimeter
G1 X152.124 Y141.531 E34.90903 ; perimeter
G1 X82.843 Y141.531 E41.20873 ; perimeter
G1 X82.777 Y137.161 E41.60622 ; perimeter
G1 X82.905 Y123.513 E42.84723 ; perimeter
G1 X82.894 Y103.543 E44.66307 ; perimeter
G1 X82.261 Y102.859 F12000.000 ; move to first perimeter point
G1 F1125
G1 X152.790 Y102.858 E51.07625 ; perimeter
G1 X152.865 Y107.852 E51.53040 ; perimeter
G1 X152.737 Y121.504 E52.77184 ; perimeter
G1 X152.737 Y140.505 E54.49957 ; perimeter
G1 X152.757 Y142.156 E54.64969 ; perimeter
G1 X82.228 Y142.156 E61.06288 ; perimeter
G1 X82.152 Y137.162 E61.51703 ; perimeter
G1 X82.281 Y123.510 E62.75847 ; perimeter
G1 X82.281 Y104.509 E64.48620 ; perimeter
G1 X82.261 Y102.919 E64.63087 ; perimeter
G1 X82.607 Y103.058 F12000.000 ; move inwards before travel
G10 ; retract extruder 0
G92 E0 ; reset extrusion distance
G1 X83.908 Y104.976 F12000.000 ; move to first infill point
G11 ; unretract extruder 0
G92 E0 ; reset extrusion distance
G1 F600
G1 X84.394 Y104.490 E0.06289 ; infill
G1 X85.283 Y104.490 E0.14426 ; infill
G1 X83.908 Y105.866 E0.32223 ; infill
G1 X83.908 Y106.755 E0.40357 ; infill
G1 X86.172 Y104.490 E0.69658 ; infill
G1 X87.062 Y104.490 E0.77794 ; infill
G1 X83.908 Y107.644 E1.18599 ; infill
G1 X83.908 Y108.533 E1.26733 ; infill
G1 X87.951 Y104.490 E1.79042 ; infill
G1 X88.840 Y104.490 E1.87178 ; infill
G1 X83.909 Y109.422 E2.50991 ; infill
G1 X83.909 Y110.311 E2.59125 ; infill
G1 X89.729 Y104.490 E3.34442 ; infill
G1 X90.619 Y104.490 E3.42578 ; infill
G1 X83.909 Y111.200 E4.29399 ; infill
G1 X83.909 Y112.089 E4.37533 ; infill
G1 X91.508 Y104.490 E5.35857 ; infill
G1 X92.397 Y104.490 E5.43994 ; infill
G1 X83.910 Y112.978 E6.53822 ; infill
G1 X83.910 Y113.867 E6.61956 ; infill
G1 X93.286 Y104.490 E7.83289 ; infill
G1 X94.176 Y104.490 E7.91425 ; infill
G1 X83.910 Y114.756 E9.24261 ; infill
G1 X83.910 Y115.645 E9.32396 ; infill
G1 X95.065 Y104.490 E10.76736 ; infill
G1 X95.954 Y104.490 E10.84872 ; infill
G1 X83.910 Y116.534 E12.40716 ; infill
G1 X83.911 Y117.423 E12.48851 ; infill
G1 X96.844 Y104.490 E14.16199 ; infill
