; generated by Slic3r 1.3.0 on 2020-03-12 at 14:28:53

; external perimeters extrusion width = 0.44mm (2.98mm^3/s)
; perimeters extrusion width = 0.56mm (7.76mm^3/s)
; infill extrusion width = 0.50mm (9.14mm^3/s)
; solid infill extrusion width = 0.56mm (2.07mm^3/s)
; top infill extrusion width = 0.56mm (1.55mm^3/s)

M107
M190 S65 ; set bed temperature and wait for it to be reached
M104 S200 ; set temperature
G28 ; home all axes
; Filament gcode

M109 S200 ; set temperature and wait for it to be reached
G21 ; set units to millimeters
G90 ; use absolute coordinates
M82 ; use absolute distances for extrusion
G92 E0
G10
G92 E0
G1 Z0.350 F12000.000
; OctoLapse Trigger
G4 P1
G1 X65.808 Y110.793 F12000.000
G11
G92 E0
G1 F1800
G1 X67.963 Y110.007 E0.20854
G1 X69.123 Y109.904 E0.31442
G1 X140.351 Y109.904 E6.79119
G1 X142.610 Y110.301 E6.99974
G1 X144.598 Y111.444 E7.20828
G1 X146.077 Y113.197 E7.41682
G1 X146.975 Y116.428 E7.72179
G1 X147.057 Y121.891 E8.21861
G1 X146.953 Y156.546 E11.36977
G1 X146.549 Y158.804 E11.57832
G1 X145.400 Y160.788 E11.78686
G1 X143.643 Y162.262 E11.99540
G1 X141.488 Y163.049 E12.20394
G1 X140.328 Y163.151 E12.30985
G1 X69.100 Y163.152 E18.78659
G1 X66.841 Y162.755 E18.99513
G1 X64.853 Y161.612 E19.20367
G1 X63.374 Y159.859 E19.41221
G1 X62.476 Y156.627 E19.71719
G1 X62.394 Y151.164 E20.21401
G1 X62.498 Y116.509 E23.36517
G1 X62.902 Y114.252 E23.57372
G1 X64.051 Y112.267 E23.78226
G1 X65.763 Y110.832 E23.98535
G10
G92 E0
G1 X71.157 Y144.829 F12000.000
G11
G92 E0
G1 F450
G1 X73.916 Y141.832 E0.37042
G1 X75.649 Y140.894 E0.54961
G1 X77.594 Y140.570 E0.72891
G1 X79.538 Y140.894 E0.90810
G1 X81.272 Y141.832 E1.08736
G1 X82.608 Y143.283 E1.26664
G1 X83.399 Y145.088 E1.44586
G1 X83.562 Y147.053 E1.62518
G1 X83.078 Y148.963 E1.80437
G1 X82.000 Y150.614 E1.98361
G1 X80.444 Y151.825 E2.16289
G1 X78.580 Y152.464 E2.34215
G1 X76.609 Y152.464 E2.52138
G1 X74.744 Y151.825 E2.70063
G1 X73.188 Y150.614 E2.87991
G1 X72.110 Y148.963 E3.05916
G1 X71.626 Y147.053 E3.23835
G1 X71.789 Y145.088 E3.41766
G1 X71.902 Y144.829 E3.44332
G1 X71.217 Y144.829 E3.50566
G1 X72.582 Y144.204 F12000.000
G1 F450
G1 X74.305 Y142.332 E3.73705
G1 X75.855 Y141.494 E3.89728
G1 X77.594 Y141.203 E4.05761
G1 X79.332 Y141.494 E4.21785
G1 X80.883 Y142.332 E4.37815
G1 X82.077 Y143.629 E4.53846
G1 X82.785 Y145.243 E4.69871
G1 X82.931 Y147.001 E4.85906
G1 X82.498 Y148.709 E5.01930
G1 X81.534 Y150.185 E5.17958
G1 X80.143 Y151.267 E5.33988
G1 X78.475 Y151.839 E5.50017
G1 X76.713 Y151.839 E5.66046
G1 X75.045 Y151.267 E5.82075
G1 X73.654 Y150.185 E5.98106
G1 X72.690 Y148.709 E6.14133
G1 X72.257 Y147.001 E6.30157
G1 X72.403 Y145.243 E6.46192
G1 X72.859 Y144.204 E6.56507
G1 X72.642 Y144.204 E6.58482
G1 X72.392 Y143.852 F12000.000
G1 X71.132 Y145.454 F12000.000
G1 F450
G1 X71.022 Y146.782 E6.70600
G1 X70.660 Y146.766 E6.73887
G1 X70.673 Y145.454 E6.85813
G1 X71.072 Y145.454 E6.89439
G10
G92 E0
G1 X70.937 Y145.017 F12000.000
G1 X70.865 Y147.241 F12000.000
G1 X71.111 Y149.221 F12000.000
G1 X71.772 Y151.544 F12000.000
G1 X72.493 Y153.136 F12000.000
G1 X74.118 Y153.636 F12000.000
G1 X76.604 Y154.008 F12000.000
G1 X79.090 Y153.966 F12000.000
G1 X81.720 Y153.470 F12000.000
G1 X84.669 Y152.362 F12000.000
G1 X88.202 Y150.265 F12000.000
G1 X90.181 Y148.725 F12000.000
G1 X92.790 Y146.292 F12000.000
G1 X94.460 Y144.479 F12000.000
G1 X96.758 Y144.509 F12000.000
G1 X114.063 Y129.050 F12000.000
G1 X115.081 Y129.096 F12000.000
G1 X118.279 Y132.203 F12000.000
G1 X127.110 Y129.963 F12000.000
G11
G92 E0
G1 F450
G1 X126.626 Y128.052 E0.17928
G1 X126.789 Y126.088 E0.35851
G1 X127.581 Y124.284 E0.53763
G1 X128.916 Y122.832 E0.71694
G1 X130.650 Y121.893 E0.89629
G1 X132.593 Y121.570 E1.07541
G1 X134.539 Y121.893 E1.25475
G1 X136.272 Y122.833 E1.43402
G1 X137.607 Y124.284 E1.61329
G1 X138.400 Y126.088 E1.79248
G1 X138.562 Y128.052 E1.97173
G1 X138.078 Y129.963 E2.15098
G1 X137.000 Y131.614 E2.33022
G1 X135.445 Y132.824 E2.50948
G1 X133.580 Y133.465 E2.68877
G1 X131.608 Y133.465 E2.86804
G1 X129.744 Y132.824 E3.04733
G1 X128.188 Y131.614 E3.22658
G1 X127.143 Y130.013 E3.40038
G1 X127.690 Y129.709 F12000.000
G1 F450
G1 X127.257 Y128.000 E3.56069
G1 X127.403 Y126.243 E3.72096
G1 X128.111 Y124.630 E3.88113
G1 X129.305 Y123.332 E4.04149
G1 X130.856 Y122.493 E4.20185
G1 X132.594 Y122.203 E4.36205
G1 X134.333 Y122.493 E4.52239
G1 X135.883 Y123.332 E4.68267
G1 X137.077 Y124.630 E4.84302
G1 X137.786 Y126.243 E5.00323
G1 X137.931 Y128.000 E5.16350
G1 X137.498 Y129.709 E5.32380
G1 X136.534 Y131.185 E5.48408
G1 X135.143 Y132.267 E5.64438
G1 X133.476 Y132.840 E5.80470
G1 X131.713 Y132.840 E5.96500
G1 X130.045 Y132.267 E6.12532
G1 X128.654 Y131.185 E6.28562
G1 X127.723 Y129.759 E6.44044
G1 X127.690 Y129.709 F12000.000
G10
G92 E0
G1 X117.663 Y141.332 F12000.000
G11
G92 E0
G1 F2250
G1 X119.140 Y142.936 E0.19826
G1 X120.015 Y144.932 E0.39644
G1 X120.195 Y147.105 E0.59472
G1 X119.660 Y149.218 E0.79287
G1 X118.468 Y151.043 E0.99108
G1 X116.748 Y152.382 E1.18933
G1 X114.686 Y153.089 E1.38755
G1 X112.506 Y153.089 E1.58573
G1 X110.444 Y152.382 E1.78395
G1 X108.724 Y151.043 E1.98221
G1 X107.532 Y149.218 E2.18041
G1 X106.997 Y147.105 E2.37856
G1 X107.177 Y144.932 E2.57684
G1 X108.052 Y142.936 E2.77503
G1 X109.529 Y141.332 E2.97326
G1 X111.445 Y140.295 E3.17140
G1 X113.596 Y139.936 E3.36967
G1 X115.746 Y140.295 E3.56781
G1 X117.610 Y141.304 E3.76058
G1 X117.274 Y141.832 F12000.000
G1 F450
G1 X118.610 Y143.283 E3.93986
G1 X119.401 Y145.088 E4.11908
G1 X119.564 Y147.053 E4.29839
G1 X119.080 Y148.963 E4.47758
G1 X118.002 Y150.614 E4.65683
G1 X116.446 Y151.825 E4.83611
G1 X114.582 Y152.464 E5.01536
G1 X112.611 Y152.464 E5.19459
G1 X110.746 Y151.825 E5.37385
G1 X109.190 Y150.614 E5.55313
G1 X108.112 Y148.963 E5.73237
G1 X107.628 Y147.053 E5.91156
G1 X107.791 Y145.088 E6.09088
G1 X108.583 Y143.283 E6.27010
G1 X109.918 Y141.832 E6.44937
G1 X111.651 Y140.894 E6.62855
G1 X113.596 Y140.570 E6.80785
G1 X115.540 Y140.894 E6.98704
G1 X117.221 Y141.804 E7.16085
G1 X116.885 Y142.332 F12000.000
G1 F450
G1 X118.079 Y143.629 E7.32116
G1 X118.787 Y145.243 E7.48141
G1 X118.933 Y147.001 E7.64176
G1 X118.500 Y148.709 E7.80199
G1 X117.536 Y150.185 E7.96227
G1 X116.145 Y151.267 E8.12258
G1 X114.477 Y151.839 E8.28287
G1 X112.715 Y151.839 E8.44315
G1 X111.047 Y151.267 E8.60345
G1 X109.656 Y150.185 E8.76375
G1 X108.692 Y148.709 E8.92403
G1 X108.259 Y147.001 E9.08426
G1 X108.405 Y145.243 E9.24461
G1 X109.113 Y143.629 E9.40487
G1 X110.307 Y142.332 E9.56517
G1 X111.857 Y141.494 E9.72539
G1 X113.596 Y141.203 E9.88573
G1 X115.334 Y141.494 E10.04597
G1 X116.832 Y142.304 E10.20081
G1 X116.885 Y142.332 F12000.000
G10
G92 E0
G1 X101.464 Y132.043 F12000.000
G11
G92 E0
G1 F2250
G1 X99.744 Y133.382 E0.19822
G1 X97.682 Y134.090 E0.39646
G1 X95.502 Y134.090 E0.59472
G1 X93.440 Y133.382 E0.79297
G1 X91.720 Y132.043 E0.99118
G1 X90.528 Y130.218 E1.18940
G1 X89.993 Y128.104 E1.38764
G1 X90.173 Y125.932 E1.58584
G1 X91.048 Y123.937 E1.78391
G1 X92.525 Y122.333 E1.98217
G1 X94.443 Y121.294 E2.18051
G1 X96.591 Y120.936 E2.37855
G1 X98.743 Y121.294 E2.57688
G1 X100.660 Y122.333 E2.77514
G1 X102.136 Y123.937 E2.97334
G1 X103.012 Y125.932 E3.17150
G1 X103.191 Y128.105 E3.36973
G1 X102.656 Y130.218 E3.56792
G1 X101.497 Y131.992 E3.76068
G1 X100.998 Y131.614 F12000.000
G1 F450
G1 X99.443 Y132.824 E3.93994
G1 X97.578 Y133.465 E4.11922
G1 X95.606 Y133.465 E4.29850
G1 X93.742 Y132.824 E4.47779
G1 X92.186 Y131.614 E4.65704
G1 X91.108 Y129.963 E4.83629
G1 X90.624 Y128.052 E5.01557
G1 X90.787 Y126.088 E5.19480
G1 X91.579 Y124.284 E5.37392
G1 X92.914 Y122.832 E5.55323
G1 X94.648 Y121.893 E5.73258
G1 X96.591 Y121.570 E5.91171
G1 X98.537 Y121.893 E6.09104
G1 X100.270 Y122.833 E6.27031
G1 X101.605 Y124.284 E6.44958
G1 X102.398 Y126.088 E6.62877
G1 X102.560 Y128.052 E6.80802
G1 X102.076 Y129.963 E6.98727
G1 X101.031 Y131.563 E7.16106
G1 X100.532 Y131.185 F12000.000
G1 F450
G1 X99.141 Y132.267 E7.32136
G1 X97.474 Y132.840 E7.48168
G1 X95.711 Y132.840 E7.64198
G1 X94.043 Y132.267 E7.80230
G1 X92.652 Y131.185 E7.96259
G1 X91.688 Y129.709 E8.12288
G1 X91.255 Y128.000 E8.28319
G1 X91.401 Y126.243 E8.44346
G1 X92.109 Y124.630 E8.60362
G1 X93.303 Y123.332 E8.76399
G1 X94.854 Y122.493 E8.92434
G1 X96.592 Y122.203 E9.08455
G1 X98.331 Y122.493 E9.24489
G1 X99.881 Y123.332 E9.40517
G1 X101.075 Y124.630 E9.56552
G1 X101.784 Y126.243 E9.72573
G1 X101.929 Y128.000 E9.88600
G1 X101.496 Y129.709 E10.04630
G1 X100.565 Y131.134 E10.20113
G1 X100.532 Y131.185 F12000.000
G10
G92 E0
G1 X105.173 Y136.971 F12000.000
G1 X96.758 Y144.509 F12000.000
G1 X94.460 Y144.479 F12000.000
G1 X80.504 Y130.505 F12000.000
G1 X80.360 Y127.772 F12000.000
G1 X70.122 Y117.529 F12000.000
G1 X70.742 Y118.129 F12000.000
G11
G92 E0
G1 F2250
G1 X138.775 Y118.128 E6.18622
G1 X138.832 Y121.876 E6.52704
G1 X138.805 Y124.721 E6.78570
G1 X138.509 Y124.781 E6.81324
G1 X138.138 Y123.937 E6.89712
G1 X136.662 Y122.333 E7.09532
G1 X134.745 Y121.294 E7.29358
G1 X132.593 Y120.936 E7.49191
G1 X130.445 Y121.294 E7.68996
G1 X128.527 Y122.333 E7.88829
G1 X127.050 Y123.937 E8.08656
G1 X126.175 Y125.932 E8.28463
G1 X125.995 Y128.104 E8.48283
G1 X126.530 Y130.218 E8.68107
G1 X127.722 Y132.043 E8.87928
G1 X129.442 Y133.382 E9.07750
G1 X131.504 Y134.090 E9.27575
G1 X133.684 Y134.090 E9.47400
G1 X135.746 Y133.382 E9.67225
G1 X137.466 Y132.043 E9.87047
G1 X138.482 Y130.488 E10.03927
G1 X138.751 Y130.570 E10.06482
G1 X138.704 Y135.519 E10.51484
G1 X138.709 Y154.927 E12.27958
G1 X70.676 Y154.927 E18.46580
G1 X70.619 Y151.180 E18.80662
G1 X70.657 Y147.104 E19.17723
G1 X70.984 Y147.065 E19.20719
G1 X71.530 Y149.218 E19.40915
G1 X72.722 Y151.043 E19.60736
G1 X74.442 Y152.382 E19.80561
G1 X76.504 Y153.089 E20.00383
G1 X78.684 Y153.089 E20.20201
G1 X80.746 Y152.382 E20.40023
G1 X82.466 Y151.043 E20.59849
G1 X83.658 Y149.218 E20.79669
G1 X84.193 Y147.105 E20.99484
G1 X84.013 Y144.932 E21.19312
G1 X83.138 Y142.936 E21.39131
G1 X81.661 Y141.332 E21.58956
G1 X79.744 Y140.295 E21.78778
G1 X77.594 Y139.936 E21.98593
G1 X75.443 Y140.295 E22.18419
G1 X73.527 Y141.332 E22.38234
G1 X70.682 Y144.422 E22.76419
G1 X70.747 Y137.537 E23.39026
G1 X70.743 Y118.189 E25.14955
G1 X70.110 Y117.504 F12000.000
G1 F2250
G1 X139.391 Y117.503 E31.44925
G1 X139.457 Y121.874 E31.84673
G1 X139.329 Y135.522 E33.08774
G1 X139.341 Y155.551 E34.90903
G1 X70.060 Y155.552 E41.20873
G1 X69.994 Y151.181 E41.60622
G1 X70.122 Y137.534 E42.84723
G1 X70.111 Y117.564 E44.66307
G1 X69.477 Y116.879 F12000.000
G1 F1125
G1 X140.006 Y116.879 E51.07625
G1 X140.082 Y121.872 E51.53040
G1 X139.954 Y135.525 E52.77184
G1 X139.954 Y154.525 E54.49957
G1 X139.974 Y156.176 E54.64969
G1 X69.445 Y156.177 E61.06288
G1 X69.369 Y151.183 E61.51703
G1 X69.497 Y137.531 E62.75847
G1 X69.497 Y118.530 E64.48620
G1 X69.478 Y116.939 E64.63087
G1 X69.824 Y117.079 F12000.000
G10
G92 E0
G1 X71.125 Y118.997 F12000.000
G11
G92 E0
G1 F600
G1 X71.611 Y118.511 E0.06289
G1 X72.500 Y118.511 E0.14426
G1 X71.125 Y119.886 E0.32223
G1 X71.125 Y120.775 E0.40357
G1 X73.389 Y118.511 E0.69658
G1 X74.279 Y118.511 E0.77794
G1 X71.125 Y121.664 E1.18599
G1 X71.125 Y122.553 E1.26733
G1 X75.168 Y118.511 E1.79042
G1 X76.057 Y118.511 E1.87178
G1 X71.126 Y123.442 E2.50991
G1 X71.126 Y124.331 E2.59125
G1 X76.946 Y118.511 E3.34442
G1 X77.836 Y118.511 E3.42578
G1 X71.126 Y125.220 E4.29399
G1 X71.126 Y126.109 E4.37533
G1 X78.725 Y118.511 E5.35857
G1 X79.614 Y118.511 E5.43994
G1 X71.126 Y126.998 E6.53822
G1 X71.127 Y127.888 E6.61956
G1 X80.503 Y118.511 E7.83289
G1 X81.393 Y118.511 E7.91425
G1 X71.127 Y128.777 E9.24261
G1 X71.127 Y129.666 E9.32396
G1 X82.282 Y118.511 E10.76736
G1 X83.171 Y118.511 E10.84872
G1 X71.127 Y130.555 E12.40716
G1 X71.127 Y131.444 E12.48851
G1 X84.060 Y118.511 E14.16199
G1 X84.950 Y118.511 E14.24335
G1 X71.128 Y132.333 E16.03187
G1 X71.128 Y133.222 E16.11321
G1 X85.839 Y118.511 E18.01677
G1 X86.728 Y118.511 E18.09814
G1 X71.128 Y134.111 E20.11673
G1 X71.128 Y135.000 E20.19808
G1 X87.617 Y118.511 E22.33172
G1 X88.507 Y118.511 E22.41308
G1 X71.129 Y135.889 E24.66176
G1 X71.129 Y136.778 E24.74310
G1 X89.396 Y118.511 E27.10682
G1 X90.285 Y118.511 E27.18818
G1 X71.129 Y137.667 E29.66694
G1 X71.122 Y138.563 E29.74897
G1 X91.174 Y118.511 E32.34374
G1 X92.064 Y118.511 E32.42511
G1 X71.113 Y139.461 E35.13604
G1 X71.105 Y140.359 E35.21818
G1 X92.953 Y118.511 E38.04526
G1 X93.842 Y118.511 E38.12663
G1 X71.096 Y141.256 E41.06988
G1 X71.088 Y142.154 E41.15202
G1 X94.731 Y118.511 E44.21142
G1 X95.621 Y118.511 E44.29279
G1 X92.248 Y121.883 E44.72918
G1 X93.994 Y120.938 E44.91082
G1 X94.100 Y120.920 E44.92069
G1 X96.510 Y118.511 E45.23248
G1 X97.399 Y118.511 E45.31385
G1 X95.167 Y120.743 E45.60268
G1 X96.234 Y120.565 E45.70167
G1 X98.289 Y118.511 E45.96749
G1 X99.178 Y118.511 E46.04885
G1 X97.029 Y120.659 E46.32688
G1 X97.792 Y120.786 E46.39760
G1 X100.067 Y118.511 E46.69203
G1 X100.956 Y118.511 E46.77339
G1 X98.554 Y120.913 E47.08423
G1 X98.705 Y120.938 E47.09827
G1 X99.168 Y121.188 E47.14637
G1 X101.846 Y118.511 E47.49288
G1 X102.735 Y118.511 E47.57425
G1 X99.744 Y121.501 E47.96119
G1 X100.321 Y121.813 E48.02121
G1 X103.624 Y118.511 E48.44859
G1 X104.513 Y118.511 E48.52995
G1 X100.874 Y122.150 E49.00087
G1 X101.300 Y122.613 E49.05846
G1 X105.403 Y118.511 E49.58931
G1 X106.292 Y118.511 E49.67068
G1 X101.726 Y123.076 E50.26146
G1 X102.152 Y123.539 E50.31904
G1 X107.181 Y118.511 E50.96976
G1 X108.070 Y118.511 E51.05113
G1 X102.522 Y124.059 E51.76908
G1 X102.793 Y124.677 E51.83082
G1 X108.960 Y118.510 E52.62870
G1 X109.849 Y118.510 E52.71007
G1 X103.065 Y125.294 E53.58789
G1 X103.337 Y125.912 E53.64963
G1 X110.738 Y118.510 E54.60738
G1 X111.627 Y118.510 E54.68874
G1 X103.440 Y126.698 E55.74823
G1 X103.507 Y127.520 E55.82366
G1 X112.517 Y118.510 E56.98946
G1 X113.406 Y118.510 E57.07083
G1 X103.575 Y128.342 E58.34295
G1 X103.580 Y128.400 E58.34832
G1 X103.300 Y129.506 E58.45269
G1 X114.295 Y118.510 E59.87547
G1 X115.184 Y118.510 E59.95684
G1 X102.998 Y130.697 E61.53369
G10
G92 E0
G1 X102.100 Y129.973 F12000.000
G1 X110.620 Y132.130 F12000.000
G1 X114.063 Y129.050 F12000.000
G1 X110.300 Y125.433 F12000.000
G1 X108.006 Y123.627 F12000.000
G1 X106.027 Y122.335 F12000.000
G1 X102.605 Y120.679 F12000.000
G1 X99.639 Y119.837 F12000.000
G1 X96.820 Y119.555 F12000.000
G1 X94.281 Y119.714 F12000.000
G1 X91.560 Y120.340 F12000.000
G1 X88.599 Y121.548 F12000.000
G1 X91.557 Y124.270 F12000.000
G1 X90.743 Y123.388 F12000.000
G11
G92 E0
G1 F600
G1 X73.246 Y140.885 E2.26413
G1 X74.995 Y139.939 E2.44608
G1 X75.099 Y139.922 E2.45573
G1 X90.048 Y124.973 E4.39008
G1 X89.802 Y125.533 E4.44608
G1 X89.750 Y126.160 E4.50362
G1 X76.166 Y139.744 E6.26130
G1 X77.234 Y139.566 E6.36031
G1 X89.669 Y127.130 E7.96947
G1 X89.604 Y127.913 E8.04142
G1 X89.639 Y128.049 E8.05427
G1 X78.029 Y139.659 E9.55652
G1 X78.791 Y139.786 E9.62721
G1 X89.818 Y128.759 E11.05411
G1 X89.998 Y129.469 E11.12108
G1 X79.553 Y139.914 E12.47262
G1 X79.706 Y139.939 E12.48680
G1 X80.168 Y140.189 E12.53479
G1 X90.178 Y130.178 E13.83009
G1 X90.191 Y130.229 E13.83488
G1 X90.517 Y130.729 E13.88947
G1 X80.745 Y140.501 E15.15396
G1 X81.322 Y140.813 E15.21399
G1 X90.868 Y131.266 E16.44927
G1 X91.219 Y131.804 E16.50805
G1 X81.875 Y141.149 E17.71721
G1 X82.301 Y141.612 E17.77479
G1 X91.602 Y132.311 E18.97832
G1 X92.102 Y132.700 E19.03630
G1 X82.727 Y142.075 E20.24937
G1 X83.154 Y142.538 E20.30695
G1 X92.602 Y133.089 E21.52957
G1 X93.102 Y133.478 E21.58755
G1 X83.524 Y143.057 E22.82701
G1 X83.795 Y143.675 E22.88877
G1 X93.674 Y133.796 E24.16710
G1 X94.336 Y134.024 E24.23114
G1 X84.066 Y144.293 E25.56003
G1 X84.337 Y144.912 E25.62179
G1 X94.998 Y134.251 E27.00124
G1 X95.666 Y134.472 E27.06565
G1 X84.441 Y145.697 E28.51818
G1 X84.509 Y146.518 E28.59357
G1 X96.555 Y134.472 E30.15236
G1 X97.444 Y134.472 E30.23373
G1 X84.577 Y147.340 E31.89878
G1 X84.582 Y147.401 E31.90438
G1 X84.303 Y148.503 E32.00843
G1 X98.493 Y134.313 E33.84462
G1 X99.848 Y133.847 E33.97569
G1 X84.001 Y149.694 E36.02621
G10
G92 E0
G1 X83.102 Y148.973 F12000.000
G1 X86.649 Y151.290 F12000.000
