; generated by Slic3r 1.3.0 on 2020-03-13 at 10:53:21

; external perimeters extrusion width = 0.44mm (2.98mm^3/s)
; perimeters extrusion width = 0.56mm (7.76mm^3/s)
; infill extrusion width = 0.50mm (9.14mm^3/s)
; solid infill extrusion width = 0.56mm (2.07mm^3/s)
; top infill extrusion width = 0.56mm (1.55mm^3/s)

M107 ; disable fan
M190 S65 ; set bed temperature and wait for it to be reached
M104 S200 ; set temperature
G28 ; home all axes
; Filament gcode

M109 S200 ; set temperature and wait for it to be reached
G21 ; set units to millimeters
G90 ; use absolute coordinates
M82 ; use absolute distances for extrusion
G92 E0 ; reset extrusion distance
G10 ; retract extruder 0
G92 E0 ; reset extrusion distance
G1 Z0.350 F12000.000 ; move to next layer (0)
; OctoLapse Trigger
G4 P1
G1 X33.173 Y47.777 F12000.000 ; move to first skirt point
G11 ; unretract extruder 0
G92 E0 ; reset extrusion distance
G1 F1800
G1 X35.325 Y46.984 E0.20854 ; skirt
G1 X36.505 Y46.878 E0.31625 ; skirt
G1 X86.624 Y46.880 E4.87358 ; skirt
G1 X197.604 Y48.880 E14.96657 ; skirt
G1 X199.855 Y49.317 E15.17511 ; skirt
G1 X201.822 Y50.496 E15.38365 ; skirt
G1 X203.270 Y52.275 E15.59219 ; skirt
G1 X204.109 Y55.503 E15.89549 ; skirt
G1 X204.109 Y100.503 E19.98732 ; skirt
G1 X203.712 Y102.762 E20.19586 ; skirt
G1 X202.139 Y105.217 E20.46101 ; skirt
G1 X137.588 Y168.958 E28.70992 ; skirt
G1 X136.398 Y170.102 E28.86003 ; skirt
G1 X134.991 Y171.343 E29.03063 ; skirt
G1 X133.276 Y172.704 E29.22974 ; skirt
G1 X131.748 Y173.794 E29.40035 ; skirt
G1 X130.171 Y174.810 E29.57094 ; skirt
G1 X128.822 Y175.599 E29.71304 ; skirt
G1 X127.163 Y176.474 E29.88365 ; skirt
G1 X96.855 Y191.415 E32.95623 ; skirt
G1 X95.831 Y191.874 E33.05821 ; skirt
G1 X95.311 Y192.077 E33.10895 ; skirt
G1 X94.515 Y192.352 E33.18556 ; skirt
G1 X93.980 Y192.511 E33.23632 ; skirt
G1 X93.163 Y192.717 E33.31293 ; skirt
G1 X92.617 Y192.831 E33.36367 ; skirt
G1 X91.785 Y192.967 E33.44027 ; skirt
G1 X91.231 Y193.035 E33.49102 ; skirt
G1 X90.391 Y193.101 E33.56767 ; skirt
G1 X89.834 Y193.121 E33.61839 ; skirt
G1 X88.991 Y193.117 E33.69505 ; skirt
G1 X88.434 Y193.090 E33.74574 ; skirt
G1 X87.595 Y193.015 E33.82235 ; skirt
G1 X87.041 Y192.941 E33.87310 ; skirt
G1 X86.212 Y192.795 E33.94971 ; skirt
G1 X85.666 Y192.675 E34.00046 ; skirt
G1 X84.852 Y192.460 E34.07706 ; skirt
G1 X84.319 Y192.295 E34.12781 ; skirt
G1 X83.525 Y192.012 E34.20443 ; skirt
G1 X83.008 Y191.802 E34.25516 ; skirt
G1 X82.241 Y191.454 E34.33180 ; skirt
G1 X81.743 Y191.201 E34.38253 ; skirt
G1 X81.008 Y190.789 E34.45914 ; skirt
G1 X80.534 Y190.496 E34.50988 ; skirt
G1 X79.836 Y190.023 E34.58648 ; skirt
G1 X79.388 Y189.691 E34.63724 ; skirt
G1 X78.732 Y189.161 E34.71385 ; skirt
G1 X78.314 Y188.793 E34.76460 ; skirt
G1 X77.705 Y188.210 E34.84120 ; skirt
G1 X77.319 Y187.807 E34.89195 ; skirt
G1 X76.786 Y187.203 E34.96520 ; skirt
G1 X76.411 Y186.741 E35.01931 ; skirt
G1 X75.909 Y186.065 E35.09591 ; skirt
G1 X75.595 Y185.603 E35.14666 ; skirt
G1 X75.152 Y184.886 E35.22327 ; skirt
G1 X30.693 Y103.684 E43.64118 ; skirt
G1 X29.880 Y100.503 E43.93973 ; skirt
G1 X29.880 Y53.503 E48.21342 ; skirt
G1 X30.277 Y51.245 E48.42197 ; skirt
G1 X31.420 Y49.256 E48.63051 ; skirt
G1 X33.127 Y47.816 E48.83360 ; skirt
G10 ; retract extruder 0
G92 E0 ; reset extrusion distance
G1 X88.303 Y172.317 F12000.000 ; move to first perimeter point
G11 ; unretract extruder 0
G92 E0 ; reset extrusion distance
G1 F450
G1 X89.029 Y172.178 E0.06721 ; perimeter
G1 X89.680 Y172.152 E0.12647 ; perimeter
G1 X90.376 Y172.236 E0.19020 ; perimeter
G1 X91.049 Y172.431 E0.25393 ; perimeter
G1 X91.682 Y172.732 E0.31766 ; perimeter
G1 X92.267 Y173.136 E0.38233 ; perimeter
G1 X92.794 Y173.655 E0.44955 ; perimeter
G1 X93.185 Y174.176 E0.50881 ; perimeter
G1 X93.511 Y174.796 E0.57253 ; perimeter
G1 X93.733 Y175.461 E0.63626 ; perimeter
G1 X93.845 Y176.153 E0.69999 ; perimeter
G1 X93.845 Y176.854 E0.76372 ; perimeter
G1 X93.733 Y177.546 E0.82745 ; perimeter
G1 X93.511 Y178.210 E0.89118 ; perimeter
G1 X93.185 Y178.831 E0.95491 ; perimeter
G1 X92.758 Y179.400 E1.01958 ; perimeter
G1 X92.218 Y179.905 E1.08679 ; perimeter
G1 X91.682 Y180.275 E1.14606 ; perimeter
G1 X91.049 Y180.575 E1.20979 ; perimeter
G1 X90.376 Y180.770 E1.27351 ; perimeter
G1 X89.680 Y180.855 E1.33724 ; perimeter
G1 X88.969 Y180.826 E1.40192 ; perimeter
G1 X88.247 Y180.669 E1.46913 ; perimeter
G1 X87.638 Y180.438 E1.52839 ; perimeter
G1 X87.031 Y180.087 E1.59212 ; perimeter
G1 X86.488 Y179.644 E1.65585 ; perimeter
G1 X86.016 Y179.112 E1.72052 ; perimeter
G1 X85.629 Y178.482 E1.78773 ; perimeter
G1 X85.374 Y177.882 E1.84700 ; perimeter
G1 X85.206 Y177.202 E1.91072 ; perimeter
G1 X85.149 Y176.493 E1.97540 ; perimeter
G1 X85.218 Y175.757 E2.04261 ; perimeter
G1 X85.374 Y175.124 E2.10187 ; perimeter
G1 X85.648 Y174.479 E2.16560 ; perimeter
G1 X86.023 Y173.887 E2.22933 ; perimeter
G1 X86.488 Y173.363 E2.29306 ; perimeter
G1 X87.031 Y172.919 E2.35679 ; perimeter
G1 X87.638 Y172.569 E2.42052 ; perimeter
G1 X88.247 Y172.338 E2.47973 ; perimeter
G1 X88.473 Y172.920 F12000.000 ; move to first perimeter point
G1 F450
G1 X89.100 Y172.801 E2.53777 ; perimeter
G1 X89.655 Y172.778 E2.58823 ; perimeter
G1 X90.250 Y172.851 E2.64278 ; perimeter
G1 X90.827 Y173.018 E2.69734 ; perimeter
G1 X91.369 Y173.275 E2.75189 ; perimeter
G1 X91.868 Y173.619 E2.80702 ; perimeter
G1 X92.322 Y174.067 E2.86506 ; perimeter
G1 X92.656 Y174.511 E2.91552 ; perimeter
G1 X92.934 Y175.042 E2.97007 ; perimeter
G1 X93.124 Y175.611 E3.02463 ; perimeter
G1 X93.221 Y176.203 E3.07918 ; perimeter
G1 X93.221 Y176.803 E3.13374 ; perimeter
G1 X93.124 Y177.396 E3.18829 ; perimeter
G1 X92.934 Y177.965 E3.24285 ; perimeter
G1 X92.656 Y178.496 E3.29740 ; perimeter
G1 X92.291 Y178.981 E3.35253 ; perimeter
G1 X91.825 Y179.417 E3.41057 ; perimeter
G1 X91.369 Y179.732 E3.46102 ; perimeter
G1 X90.827 Y179.989 E3.51558 ; perimeter
G1 X90.250 Y180.156 E3.57013 ; perimeter
G1 X89.655 Y180.228 E3.62469 ; perimeter
G1 X89.049 Y180.204 E3.67982 ; perimeter
G1 X88.425 Y180.068 E3.73786 ; perimeter
G1 X87.906 Y179.871 E3.78831 ; perimeter
G1 X87.387 Y179.571 E3.84287 ; perimeter
G1 X86.922 Y179.192 E3.89742 ; perimeter
G1 X86.520 Y178.738 E3.95255 ; perimeter
G1 X86.186 Y178.194 E4.01059 ; perimeter
G1 X85.968 Y177.684 E4.06105 ; perimeter
G1 X85.825 Y177.101 E4.11560 ; perimeter
G1 X85.776 Y176.497 E4.17073 ; perimeter
G1 X85.836 Y175.862 E4.22877 ; perimeter
G1 X85.968 Y175.323 E4.27922 ; perimeter
G1 X86.204 Y174.771 E4.33378 ; perimeter
G1 X86.524 Y174.264 E4.38834 ; perimeter
G1 X86.922 Y173.815 E4.44289 ; perimeter
G1 X87.387 Y173.435 E4.49744 ; perimeter
G1 X87.906 Y173.135 E4.55200 ; perimeter
G1 X88.417 Y172.942 E4.60167 ; perimeter
G1 X88.644 Y173.524 F12000.000 ; move to first perimeter point
G1 F450
G1 X89.172 Y173.423 E4.65053 ; perimeter
G1 X89.629 Y173.405 E4.69219 ; perimeter
G1 X90.125 Y173.465 E4.73757 ; perimeter
G1 X90.604 Y173.604 E4.78295 ; perimeter
G1 X91.055 Y173.818 E4.82833 ; perimeter
G1 X91.468 Y174.102 E4.87392 ; perimeter
G1 X91.850 Y174.480 E4.92278 ; perimeter
G1 X92.126 Y174.846 E4.96443 ; perimeter
G1 X92.358 Y175.288 E5.00981 ; perimeter
G1 X92.516 Y175.761 E5.05519 ; perimeter
G1 X92.596 Y176.254 E5.10057 ; perimeter
G1 X92.596 Y176.753 E5.14595 ; perimeter
G1 X92.516 Y177.245 E5.19133 ; perimeter
G1 X92.358 Y177.719 E5.23672 ; perimeter
G1 X92.126 Y178.161 E5.28210 ; perimeter
G1 X91.824 Y178.562 E5.32768 ; perimeter
G1 X91.432 Y178.929 E5.37654 ; perimeter
G1 X91.055 Y179.189 E5.41820 ; perimeter
G1 X90.604 Y179.403 E5.46358 ; perimeter
G1 X90.125 Y179.542 E5.50896 ; perimeter
G1 X89.629 Y179.602 E5.55434 ; perimeter
G1 X89.129 Y179.582 E5.59993 ; perimeter
G1 X88.603 Y179.468 E5.64879 ; perimeter
G1 X88.175 Y179.305 E5.69044 ; perimeter
G1 X87.743 Y179.056 E5.73582 ; perimeter
G1 X87.356 Y178.740 E5.78120 ; perimeter
G1 X87.024 Y178.365 E5.82679 ; perimeter
G1 X86.743 Y177.907 E5.87565 ; perimeter
G1 X86.563 Y177.485 E5.91730 ; perimeter
G1 X86.444 Y177.001 E5.96268 ; perimeter
G1 X86.403 Y176.501 E6.00827 ; perimeter
G1 X86.453 Y175.966 E6.05713 ; perimeter
G1 X86.563 Y175.521 E6.09878 ; perimeter
G1 X86.759 Y175.062 E6.14416 ; perimeter
G1 X87.025 Y174.640 E6.18955 ; perimeter
G1 X87.356 Y174.267 E6.23493 ; perimeter
G1 X87.743 Y173.951 E6.28031 ; perimeter
G1 X88.175 Y173.702 E6.32569 ; perimeter
G1 X88.588 Y173.545 E6.36582 ; perimeter
G1 X88.644 Y173.524 F12000.000 ; move inwards before travel
G10 ; retract extruder 0
G92 E0 ; reset extrusion distance
G1 X89.680 Y109.855 F12000.000 ; move to first perimeter point
G11 ; unretract extruder 0
G92 E0 ; reset extrusion distance
G1 F450
G1 X88.969 Y109.826 E0.06467 ; perimeter
G1 X88.247 Y109.669 E0.13188 ; perimeter
G1 X87.638 Y109.438 E0.19115 ; perimeter
G1 X87.031 Y109.087 E0.25487 ; perimeter
G1 X86.488 Y108.644 E0.31860 ; perimeter
G1 X86.016 Y108.112 E0.38328 ; perimeter
G1 X85.629 Y107.482 E0.45049 ; perimeter
G1 X85.374 Y106.882 E0.50975 ; perimeter
G1 X85.206 Y106.202 E0.57348 ; perimeter
G1 X85.150 Y105.503 E0.63721 ; perimeter
G1 X85.206 Y104.805 E0.70094 ; perimeter
G1 X85.374 Y104.124 E0.76467 ; perimeter
G1 X85.648 Y103.479 E0.82840 ; perimeter
G1 X86.023 Y102.887 E0.89212 ; perimeter
G1 X86.488 Y102.363 E0.95585 ; perimeter
G1 X87.031 Y101.919 E1.01958 ; perimeter
G1 X87.638 Y101.569 E1.08331 ; perimeter
G1 X88.303 Y101.317 E1.14799 ; perimeter
G1 X89.029 Y101.178 E1.21520 ; perimeter
G1 X89.680 Y101.152 E1.27446 ; perimeter
G1 X90.376 Y101.236 E1.33819 ; perimeter
G1 X91.049 Y101.431 E1.40192 ; perimeter
G1 X91.682 Y101.732 E1.46565 ; perimeter
G1 X92.267 Y102.136 E1.53032 ; perimeter
G1 X92.794 Y102.655 E1.59753 ; perimeter
G1 X93.185 Y103.176 E1.65679 ; perimeter
G1 X93.511 Y103.796 E1.72052 ; perimeter
G1 X93.733 Y104.461 E1.78425 ; perimeter
G1 X93.845 Y105.153 E1.84798 ; perimeter
G1 X93.845 Y105.854 E1.91171 ; perimeter
G1 X93.733 Y106.546 E1.97544 ; perimeter
G1 X93.511 Y107.210 E2.03917 ; perimeter
G1 X93.185 Y107.831 E2.10290 ; perimeter
G1 X92.758 Y108.400 E2.16757 ; perimeter
G1 X92.218 Y108.905 E2.23478 ; perimeter
G1 X91.682 Y109.275 E2.29404 ; perimeter
G1 X91.049 Y109.575 E2.35777 ; perimeter
G1 X90.376 Y109.770 E2.42150 ; perimeter
G1 X89.740 Y109.848 E2.47977 ; perimeter
G1 X89.655 Y109.228 F12000.000 ; move to first perimeter point
G1 F450
G1 X89.049 Y109.204 E2.53491 ; perimeter
G1 X88.425 Y109.068 E2.59294 ; perimeter
G1 X87.906 Y108.871 E2.64340 ; perimeter
G1 X87.387 Y108.571 E2.69795 ; perimeter
G1 X86.922 Y108.192 E2.75251 ; perimeter
G1 X86.520 Y107.738 E2.80764 ; perimeter
G1 X86.186 Y107.194 E2.86567 ; perimeter
G1 X85.968 Y106.684 E2.91613 ; perimeter
G1 X85.825 Y106.101 E2.97069 ; perimeter
G1 X85.777 Y105.503 E3.02524 ; perimeter
G1 X85.825 Y104.905 E3.07980 ; perimeter
G1 X85.968 Y104.323 E3.13435 ; perimeter
G1 X86.204 Y103.771 E3.18891 ; perimeter
G1 X86.524 Y103.264 E3.24346 ; perimeter
G1 X86.922 Y102.815 E3.29802 ; perimeter
G1 X87.387 Y102.435 E3.35257 ; perimeter
G1 X87.906 Y102.135 E3.40713 ; perimeter
G1 X88.473 Y101.920 E3.46226 ; perimeter
G1 X89.100 Y101.801 E3.52029 ; perimeter
G1 X89.655 Y101.778 E3.57075 ; perimeter
G1 X90.250 Y101.851 E3.62530 ; perimeter
G1 X90.827 Y102.018 E3.67986 ; perimeter
G1 X91.369 Y102.275 E3.73441 ; perimeter
G1 X91.868 Y102.619 E3.78955 ; perimeter
G1 X92.322 Y103.067 E3.84758 ; perimeter
G1 X92.656 Y103.511 E3.89804 ; perimeter
G1 X92.934 Y104.042 E3.95259 ; perimeter
G1 X93.124 Y104.611 E4.00715 ; perimeter
G1 X93.221 Y105.203 E4.06170 ; perimeter
G1 X93.221 Y105.803 E4.11626 ; perimeter
G1 X93.124 Y106.396 E4.17081 ; perimeter
G1 X92.934 Y106.965 E4.22537 ; perimeter
G1 X92.656 Y107.496 E4.27992 ; perimeter
G1 X92.291 Y107.981 E4.33505 ; perimeter
G1 X91.825 Y108.417 E4.39309 ; perimeter
G1 X91.369 Y108.732 E4.44355 ; perimeter
G1 X90.827 Y108.989 E4.49810 ; perimeter
G1 X90.250 Y109.156 E4.55266 ; perimeter
G1 X89.714 Y109.221 E4.60176 ; perimeter
G1 X89.629 Y108.602 F12000.000 ; move to first perimeter point
G1 F450
G1 X89.129 Y108.582 E4.64734 ; perimeter
G1 X88.603 Y108.468 E4.69620 ; perimeter
G1 X88.175 Y108.305 E4.73786 ; perimeter
G1 X87.743 Y108.056 E4.78324 ; perimeter
G1 X87.356 Y107.740 E4.82862 ; perimeter
G1 X87.024 Y107.365 E4.87421 ; perimeter
G1 X86.743 Y106.907 E4.92307 ; perimeter
G1 X86.563 Y106.485 E4.96472 ; perimeter
G1 X86.444 Y106.001 E5.01010 ; perimeter
G1 X86.403 Y105.503 E5.05548 ; perimeter
G1 X86.444 Y105.006 E5.10086 ; perimeter
G1 X86.563 Y104.521 E5.14624 ; perimeter
G1 X86.759 Y104.062 E5.19162 ; perimeter
G1 X87.025 Y103.640 E5.23700 ; perimeter
G1 X87.356 Y103.267 E5.28238 ; perimeter
G1 X87.743 Y102.951 E5.32776 ; perimeter
G1 X88.175 Y102.702 E5.37315 ; perimeter
G1 X88.644 Y102.524 E5.41873 ; perimeter
G1 X89.172 Y102.423 E5.46759 ; perimeter
G1 X89.629 Y102.405 E5.50925 ; perimeter
G1 X90.125 Y102.465 E5.55463 ; perimeter
G1 X90.604 Y102.604 E5.60001 ; perimeter
G1 X91.055 Y102.818 E5.64539 ; perimeter
G1 X91.468 Y103.102 E5.69098 ; perimeter
G1 X91.850 Y103.480 E5.73984 ; perimeter
G1 X92.126 Y103.846 E5.78149 ; perimeter
G1 X92.358 Y104.288 E5.82687 ; perimeter
G1 X92.516 Y104.761 E5.87225 ; perimeter
G1 X92.596 Y105.254 E5.91763 ; perimeter
G1 X92.596 Y105.753 E5.96301 ; perimeter
G1 X92.516 Y106.245 E6.00839 ; perimeter
G1 X92.358 Y106.719 E6.05377 ; perimeter
G1 X92.126 Y107.161 E6.09915 ; perimeter
G1 X91.824 Y107.562 E6.14474 ; perimeter
G1 X91.432 Y107.929 E6.19360 ; perimeter
G1 X91.055 Y108.189 E6.23525 ; perimeter
G1 X90.604 Y108.403 E6.28064 ; perimeter
G1 X90.125 Y108.542 E6.32602 ; perimeter
G1 X89.689 Y108.595 E6.36594 ; perimeter
G1 X89.629 Y108.602 F12000.000 ; move inwards before travel
G10 ; retract extruder 0
G92 E0 ; reset extrusion distance
G1 X38.104 Y98.904 F12000.000 ; move to first perimeter point
G11 ; unretract extruder 0
G92 E0 ; reset extrusion distance
G1 F2250
G1 X38.104 Y55.103 E3.98276 ; perimeter
G1 X84.905 Y55.103 E8.23830 ; perimeter
G1 X84.905 Y55.647 E8.28774 ; perimeter
G1 X92.495 Y97.612 E12.16554 ; perimeter
G1 X123.370 Y112.830 E15.29548 ; perimeter
G1 X124.704 Y113.528 E15.43240 ; perimeter
G1 X125.988 Y114.278 E15.56759 ; perimeter
G1 X127.179 Y115.052 E15.69672 ; perimeter
G1 X128.443 Y115.958 E15.83812 ; perimeter
G1 X129.606 Y116.881 E15.97317 ; perimeter
G1 X130.725 Y117.860 E16.10837 ; perimeter
G1 X131.797 Y118.890 E16.24356 ; perimeter
G1 X132.819 Y119.970 E16.37876 ; perimeter
G1 X133.788 Y121.097 E16.51395 ; perimeter
G1 X134.703 Y122.269 E16.64914 ; perimeter
G1 X135.523 Y123.429 E16.77827 ; perimeter
G1 X136.363 Y124.738 E16.91967 ; perimeter
G1 X137.102 Y126.026 E17.05472 ; perimeter
G1 X137.780 Y127.349 E17.18992 ; perimeter
G1 X138.395 Y128.703 E17.32511 ; perimeter
G1 X138.945 Y130.084 E17.46031 ; perimeter
G1 X139.429 Y131.490 E17.59550 ; perimeter
G1 X139.845 Y132.917 E17.73070 ; perimeter
G1 X140.194 Y134.363 E17.86589 ; perimeter
G1 X140.474 Y135.823 E18.00109 ; perimeter
G1 X140.685 Y137.295 E18.13628 ; perimeter
G1 X140.825 Y138.775 E18.27147 ; perimeter
G1 X140.896 Y140.260 E18.40667 ; perimeter
G1 X140.896 Y141.747 E18.54186 ; perimeter
G1 X140.825 Y143.232 E18.67706 ; perimeter
G1 X140.685 Y144.712 E18.81225 ; perimeter
G1 X140.474 Y146.184 E18.94745 ; perimeter
G1 X140.194 Y147.644 E19.08264 ; perimeter
G1 X139.845 Y149.089 E19.21784 ; perimeter
G1 X139.429 Y150.517 E19.35303 ; perimeter
G1 X138.945 Y151.922 E19.48823 ; perimeter
G1 X138.395 Y153.304 E19.62342 ; perimeter
G1 X137.780 Y154.658 E19.75862 ; perimeter
G1 X137.102 Y155.981 E19.89381 ; perimeter
G1 X136.362 Y157.270 E20.02900 ; perimeter
G1 X135.562 Y158.524 E20.16420 ; perimeter
G1 X134.703 Y159.737 E20.29939 ; perimeter
G1 X133.788 Y160.909 E20.43459 ; perimeter
G1 X132.819 Y162.036 E20.56978 ; perimeter
G1 X131.797 Y163.117 E20.70498 ; perimeter
G1 X130.725 Y164.147 E20.84017 ; perimeter
G1 X129.606 Y165.126 E20.97537 ; perimeter
G1 X128.441 Y166.050 E21.11056 ; perimeter
G1 X127.235 Y166.918 E21.24576 ; perimeter
G1 X125.988 Y167.729 E21.38095 ; perimeter
G1 X124.762 Y168.445 E21.51007 ; perimeter
