; generated by Slic3r 1.3.0 on 2020-03-12 at 14:36:40

; external perimeters extrusion width = 0.44mm (2.98mm^3/s)
; perimeters extrusion width = 0.56mm (7.76mm^3/s)
; infill extrusion width = 0.50mm (9.14mm^3/s)
; solid infill extrusion width = 0.56mm (2.07mm^3/s)
; top infill extrusion width = 0.56mm (1.55mm^3/s)

M107
M190 S65 ; set bed temperature and wait for it to be reached
M104 S200 ; set temperature
G28 ; home all axes
; Filament gcode

M109 S200 ; set temperature and wait for it to be reached
G21 ; set units to millimeters
G90 ; use absolute coordinates
M82 ; use absolute distances for extrusion
G92 E0
G10
G92 E0
G1 Z0.350 F12000.000
; OctoLapse Trigger
G4 P1
G1 X55.895 Y49.869 F12000.000
G11
G92 E0
G1 F1800
G1 X57.647 Y48.389 E0.20854
G1 X60.617 Y47.501 E0.49044
G1 X142.524 Y43.021 E7.94933
G1 X192.886 Y43.011 E12.52871
G1 X195.145 Y43.408 E12.73725
G1 X197.133 Y44.551 E12.94579
G1 X198.612 Y46.304 E13.15434
G1 X199.405 Y48.456 E13.36288
G1 X199.511 Y49.636 E13.47059
G1 X199.511 Y96.636 E17.74428
G1 X198.830 Y99.560 E18.01732
G1 X169.640 Y158.890 E24.02976
G1 X168.729 Y160.653 E24.21020
G1 X167.789 Y162.277 E24.38080
G1 X166.773 Y163.854 E24.55141
G1 X165.684 Y165.382 E24.72200
G1 X164.523 Y166.856 E24.89261
G1 X163.504 Y168.041 E25.03469
G1 X162.220 Y169.409 E25.20529
G1 X160.873 Y170.714 E25.37590
G1 X159.465 Y171.955 E25.54650
G1 X158.001 Y173.127 E25.71710
G1 X156.223 Y174.406 E25.91622
G1 X154.913 Y175.258 E26.05830
G1 X153.356 Y176.176 E26.22268
G1 X151.637 Y177.087 E26.39952
G1 X121.329 Y192.027 E29.47209
G1 X120.306 Y192.486 E29.57407
G1 X119.786 Y192.690 E29.62482
G1 X118.989 Y192.964 E29.70143
G1 X118.454 Y193.123 E29.75219
G1 X117.638 Y193.329 E29.82880
G1 X117.091 Y193.443 E29.87953
G1 X116.260 Y193.580 E29.95614
G1 X115.706 Y193.647 E30.00689
G1 X114.866 Y193.713 E30.08354
G1 X114.308 Y193.734 E30.13426
G1 X113.465 Y193.729 E30.21091
G1 X112.908 Y193.702 E30.26161
G1 X112.069 Y193.627 E30.33822
G1 X111.516 Y193.553 E30.38897
G1 X110.686 Y193.407 E30.46557
G1 X110.141 Y193.288 E30.51632
G1 X109.326 Y193.072 E30.59293
G1 X108.793 Y192.907 E30.64368
G1 X108.000 Y192.624 E30.72030
G1 X107.483 Y192.415 E30.77103
G1 X106.715 Y192.066 E30.84766
G1 X106.218 Y191.813 E30.89840
G1 X105.483 Y191.401 E30.97501
G1 X105.008 Y191.108 E31.02574
G1 X104.311 Y190.636 E31.10235
G1 X103.862 Y190.303 E31.15311
G1 X103.207 Y189.774 E31.22972
G1 X102.788 Y189.405 E31.28046
G1 X102.180 Y188.822 E31.35707
G1 X101.793 Y188.419 E31.40781
G1 X101.236 Y187.787 E31.48443
G1 X100.885 Y187.353 E31.53518
G1 X100.383 Y186.677 E31.61178
G1 X100.070 Y186.215 E31.66253
G1 X99.449 Y185.194 E31.77114
G1 X55.168 Y104.296 E40.15705
G1 X54.354 Y101.116 E40.45561
G1 X54.354 Y54.116 E44.72930
G1 X54.751 Y51.857 E44.93784
G1 X55.865 Y49.921 E45.14093
G10
G92 E0
G1 X114.155 Y172.764 F12000.000
G11
G92 E0
G1 F450
G1 X114.850 Y172.849 E0.06373
G1 X115.524 Y173.044 E0.12746
G1 X116.157 Y173.344 E0.19119
G1 X116.742 Y173.748 E0.25586
G1 X117.268 Y174.267 E0.32307
G1 X117.660 Y174.788 E0.38233
G1 X117.986 Y175.408 E0.44606
G1 X118.208 Y176.073 E0.50979
G1 X118.320 Y176.765 E0.57352
G1 X118.320 Y177.466 E0.63725
G1 X118.208 Y178.158 E0.70098
G1 X117.986 Y178.823 E0.76471
G1 X117.660 Y179.443 E0.82844
G1 X117.233 Y180.012 E0.89311
G1 X116.693 Y180.517 E0.96032
G1 X116.157 Y180.887 E1.01958
G1 X115.524 Y181.187 E1.08331
G1 X114.850 Y181.382 E1.14704
G1 X114.155 Y181.467 E1.21077
G1 X113.444 Y181.438 E1.27545
G1 X112.722 Y181.281 E1.34266
G1 X112.112 Y181.050 E1.40192
G1 X111.505 Y180.700 E1.46565
G1 X110.962 Y180.256 E1.52938
G1 X110.491 Y179.724 E1.59405
G1 X110.104 Y179.094 E1.66126
G1 X109.848 Y178.495 E1.72052
G1 X109.681 Y177.814 E1.78425
G1 X109.623 Y177.105 E1.84893
G1 X109.692 Y176.369 E1.91614
G1 X109.848 Y175.736 E1.97540
G1 X110.123 Y175.092 E2.03913
G1 X110.498 Y174.499 E2.10286
G1 X110.962 Y173.975 E2.16658
G1 X111.505 Y173.531 E2.23031
G1 X112.112 Y173.181 E2.29404
G1 X112.777 Y172.929 E2.35872
G1 X113.503 Y172.790 E2.42593
G1 X114.095 Y172.766 E2.47973
G1 X114.129 Y173.390 F12000.000
G1 F450
G1 X114.725 Y173.463 E2.53429
G1 X115.301 Y173.630 E2.58884
G1 X115.843 Y173.887 E2.64340
G1 X116.342 Y174.231 E2.69853
G1 X116.797 Y174.679 E2.75657
G1 X117.130 Y175.123 E2.80702
G1 X117.409 Y175.654 E2.86158
G1 X117.599 Y176.223 E2.91613
G1 X117.695 Y176.816 E2.97069
G1 X117.695 Y177.415 E3.02524
G1 X117.599 Y178.008 E3.07980
G1 X117.409 Y178.577 E3.13435
G1 X117.130 Y179.108 E3.18891
G1 X116.766 Y179.593 E3.24404
G1 X116.300 Y180.029 E3.30207
G1 X115.843 Y180.344 E3.35253
G1 X115.301 Y180.601 E3.40709
G1 X114.725 Y180.768 E3.46164
G1 X114.129 Y180.841 E3.51620
G1 X113.523 Y180.816 E3.57133
G1 X112.900 Y180.680 E3.62936
G1 X112.381 Y180.484 E3.67982
G1 X111.861 Y180.184 E3.73437
G1 X111.397 Y179.804 E3.78893
G1 X110.995 Y179.350 E3.84406
G1 X110.661 Y178.807 E3.90210
G1 X110.443 Y178.296 E3.95255
G1 X110.299 Y177.714 E4.00711
G1 X110.251 Y177.109 E4.06224
G1 X110.310 Y176.474 E4.12027
G1 X110.443 Y175.935 E4.17073
G1 X110.678 Y175.383 E4.22529
G1 X110.999 Y174.876 E4.27984
G1 X111.397 Y174.427 E4.33440
G1 X111.861 Y174.047 E4.38895
G1 X112.381 Y173.747 E4.44351
G1 X112.948 Y173.532 E4.49864
G1 X113.575 Y173.413 E4.55667
G1 X114.069 Y173.393 E4.60167
G1 X114.104 Y174.017 F12000.000
G1 F450
G1 X114.600 Y174.077 E4.64706
G1 X115.079 Y174.216 E4.69244
G1 X115.530 Y174.430 E4.73782
G1 X115.942 Y174.715 E4.78340
G1 X116.325 Y175.092 E4.83227
G1 X116.600 Y175.458 E4.87392
G1 X116.832 Y175.900 E4.91930
G1 X116.990 Y176.373 E4.96468
G1 X117.070 Y176.866 E5.01006
G1 X117.070 Y177.365 E5.05544
G1 X116.990 Y177.858 E5.10082
G1 X116.832 Y178.331 E5.14620
G1 X116.600 Y178.773 E5.19158
G1 X116.299 Y179.174 E5.23717
G1 X115.907 Y179.541 E5.28603
G1 X115.530 Y179.801 E5.32768
G1 X115.079 Y180.015 E5.37306
G1 X114.600 Y180.154 E5.41844
G1 X114.104 Y180.214 E5.46383
G1 X113.603 Y180.194 E5.50941
G1 X113.078 Y180.080 E5.55827
G1 X112.650 Y179.917 E5.59993
G1 X112.218 Y179.668 E5.64531
G1 X111.831 Y179.352 E5.69069
G1 X111.499 Y178.977 E5.73628
G1 X111.217 Y178.519 E5.78514
G1 X111.038 Y178.098 E5.82679
G1 X110.918 Y177.613 E5.87217
G1 X110.878 Y177.113 E5.91776
G1 X110.928 Y176.578 E5.96662
G1 X111.038 Y176.133 E6.00827
G1 X111.233 Y175.674 E6.05365
G1 X111.500 Y175.253 E6.09903
G1 X111.831 Y174.879 E6.14441
G1 X112.218 Y174.563 E6.18979
G1 X112.650 Y174.314 E6.23517
G1 X113.119 Y174.136 E6.28076
G1 X113.646 Y174.035 E6.32962
G1 X114.044 Y174.019 E6.36582
G1 X114.104 Y174.017 F12000.000
G10
G92 E0
G1 X113.612 Y173.367 F12000.000
G1 X113.973 Y170.513 F12000.000
G1 X115.697 Y170.276 F12000.000
G1 X118.650 Y170.316 F12000.000
G1 X121.046 Y170.727 F12000.000
G1 X125.252 Y171.991 F12000.000
G1 X143.311 Y163.749 F12000.000
G1 X147.507 Y161.388 F12000.000
G1 X150.274 Y159.229 F12000.000
G1 X151.693 Y157.740 F12000.000
G1 X153.782 Y155.136 F12000.000
G1 X155.068 Y153.060 F12000.000
G1 X156.022 Y151.001 F12000.000
G1 X157.166 Y147.633 F12000.000
G1 X157.797 Y144.369 F12000.000
G1 X157.963 Y141.048 F12000.000
G1 X157.334 Y136.163 F12000.000
G1 X156.239 Y132.715 F12000.000
G1 X155.046 Y130.183 F12000.000
G1 X153.885 Y128.240 F12000.000
G1 X152.565 Y126.443 F12000.000
G1 X150.123 Y123.866 F12000.000
G1 X148.048 Y122.208 F12000.000
G1 X144.271 Y119.958 F12000.000
G1 X125.248 Y111.265 F12000.000
G1 X122.398 Y112.203 F12000.000
G1 X119.636 Y112.793 F12000.000
G1 X116.044 Y113.006 F12000.000
G1 X114.744 Y112.877 F12000.000
G1 X114.131 Y109.876 F12000.000
G1 X114.155 Y110.467 F12000.000
G11
G92 E0
G1 F450
G1 X113.444 Y110.438 E0.06467
G1 X112.722 Y110.281 E0.13188
G1 X112.112 Y110.050 E0.19115
G1 X111.505 Y109.700 E0.25487
G1 X110.962 Y109.256 E0.31860
G1 X110.491 Y108.724 E0.38328
G1 X110.104 Y108.094 E0.45049
G1 X109.848 Y107.495 E0.50975
G1 X109.681 Y106.814 E0.57348
G1 X109.624 Y106.116 E0.63721
G1 X109.681 Y105.417 E0.70094
G1 X109.848 Y104.736 E0.76467
G1 X110.123 Y104.092 E0.82840
G1 X110.498 Y103.499 E0.89212
G1 X110.962 Y102.975 E0.95585
G1 X111.505 Y102.531 E1.01958
G1 X112.112 Y102.181 E1.08331
G1 X112.777 Y101.929 E1.14799
G1 X113.503 Y101.790 E1.21520
G1 X114.155 Y101.764 E1.27446
G1 X114.850 Y101.849 E1.33819
G1 X115.524 Y102.044 E1.40192
G1 X116.157 Y102.344 E1.46565
G1 X116.742 Y102.748 E1.53032
G1 X117.268 Y103.267 E1.59753
G1 X117.660 Y103.788 E1.65679
G1 X117.986 Y104.408 E1.72052
G1 X118.208 Y105.073 E1.78425
G1 X118.320 Y105.765 E1.84798
G1 X118.320 Y106.466 E1.91171
G1 X118.208 Y107.158 E1.97544
G1 X117.986 Y107.823 E2.03917
G1 X117.660 Y108.443 E2.10290
G1 X117.233 Y109.012 E2.16757
G1 X116.693 Y109.517 E2.23478
G1 X116.157 Y109.887 E2.29404
G1 X115.524 Y110.187 E2.35777
G1 X114.850 Y110.382 E2.42150
G1 X114.214 Y110.460 E2.47977
G1 X114.129 Y109.841 F12000.000
G1 F450
G1 X113.523 Y109.816 E2.53491
G1 X112.900 Y109.680 E2.59294
G1 X112.381 Y109.484 E2.64340
G1 X111.861 Y109.184 E2.69795
G1 X111.397 Y108.804 E2.75251
G1 X110.995 Y108.350 E2.80764
G1 X110.661 Y107.807 E2.86567
G1 X110.443 Y107.296 E2.91613
G1 X110.299 Y106.714 E2.97069
G1 X110.251 Y106.116 E3.02524
G1 X110.299 Y105.517 E3.07980
G1 X110.443 Y104.935 E3.13435
G1 X110.678 Y104.383 E3.18891
G1 X110.999 Y103.876 E3.24346
G1 X111.397 Y103.427 E3.29802
G1 X111.861 Y103.047 E3.35257
G1 X112.381 Y102.747 E3.40713
G1 X112.948 Y102.532 E3.46226
G1 X113.575 Y102.413 E3.52029
G1 X114.129 Y102.390 E3.57075
G1 X114.725 Y102.463 E3.62530
G1 X115.301 Y102.630 E3.67986
G1 X115.843 Y102.887 E3.73441
G1 X116.342 Y103.231 E3.78955
G1 X116.797 Y103.679 E3.84758
G1 X117.130 Y104.123 E3.89804
G1 X117.409 Y104.654 E3.95259
G1 X117.599 Y105.223 E4.00715
G1 X117.695 Y105.816 E4.06170
G1 X117.695 Y106.415 E4.11626
G1 X117.599 Y107.008 E4.17081
G1 X117.409 Y107.577 E4.22537
G1 X117.130 Y108.108 E4.27992
G1 X116.766 Y108.593 E4.33505
G1 X116.300 Y109.029 E4.39309
G1 X115.843 Y109.344 E4.44355
G1 X115.301 Y109.601 E4.49810
G1 X114.725 Y109.768 E4.55266
G1 X114.189 Y109.833 E4.60176
G1 X114.104 Y109.214 F12000.000
G1 F450
G1 X113.603 Y109.194 E4.64734
G1 X113.078 Y109.080 E4.69620
G1 X112.650 Y108.917 E4.73786
G1 X112.218 Y108.668 E4.78324
G1 X111.831 Y108.352 E4.82862
G1 X111.499 Y107.977 E4.87421
G1 X111.217 Y107.519 E4.92307
G1 X111.038 Y107.098 E4.96472
G1 X110.918 Y106.613 E5.01010
G1 X110.878 Y106.116 E5.05548
G1 X110.918 Y105.618 E5.10086
G1 X111.038 Y105.133 E5.14624
G1 X111.233 Y104.674 E5.19162
G1 X111.500 Y104.253 E5.23700
G1 X111.831 Y103.879 E5.28238
G1 X112.218 Y103.563 E5.32776
G1 X112.650 Y103.314 E5.37315
G1 X113.119 Y103.136 E5.41873
G1 X113.646 Y103.035 E5.46759
G1 X114.104 Y103.017 E5.50925
G1 X114.600 Y103.077 E5.55463
G1 X115.079 Y103.216 E5.60001
G1 X115.530 Y103.430 E5.64539
G1 X115.942 Y103.715 E5.69098
G1 X116.325 Y104.092 E5.73984
G1 X116.600 Y104.458 E5.78149
G1 X116.832 Y104.900 E5.82687
G1 X116.990 Y105.373 E5.87225
G1 X117.070 Y105.866 E5.91763
G1 X117.070 Y106.365 E5.96301
G1 X116.990 Y106.858 E6.00839
G1 X116.832 Y107.331 E6.05377
G1 X116.600 Y107.773 E6.09915
G1 X116.299 Y108.174 E6.14474
G1 X115.907 Y108.541 E6.19360
G1 X115.530 Y108.801 E6.23525
G1 X115.079 Y109.015 E6.28064
G1 X114.600 Y109.154 E6.32602
G1 X114.164 Y109.207 E6.36594
G1 X114.104 Y109.214 F12000.000
G10
G92 E0
G1 X62.579 Y99.516 F12000.000
G11
G92 E0
G1 F2250
G1 X62.579 Y55.715 E3.98276
G1 X109.379 Y55.715 E8.23830
G1 X109.379 Y56.259 E8.28774
G1 X116.970 Y98.224 E12.16554
G1 X147.844 Y113.442 E15.29548
G1 X149.179 Y114.140 E15.43240
G1 X150.463 Y114.890 E15.56759
G1 X151.653 Y115.664 E15.69672
G1 X152.917 Y116.570 E15.83812
G1 X154.080 Y117.493 E15.97317
G1 X155.200 Y118.472 E16.10837
G1 X156.272 Y119.502 E16.24356
G1 X157.293 Y120.582 E16.37876
G1 X158.263 Y121.710 E16.51395
G1 X159.178 Y122.881 E16.64914
G1 X159.998 Y124.041 E16.77827
G1 X160.838 Y125.350 E16.91967
G1 X161.577 Y126.638 E17.05472
G1 X162.255 Y127.961 E17.18992
G1 X162.869 Y129.315 E17.32511
G1 X163.419 Y130.696 E17.46031
G1 X163.903 Y132.102 E17.59550
G1 X164.320 Y133.529 E17.73070
G1 X164.669 Y134.975 E17.86589
G1 X164.949 Y136.435 E18.00109
G1 X165.159 Y137.907 E18.13628
G1 X165.300 Y139.387 E18.27147
G1 X165.370 Y140.872 E18.40667
G1 X165.370 Y142.359 E18.54186
G1 X165.300 Y143.844 E18.67706
G1 X165.159 Y145.324 E18.81225
G1 X164.949 Y146.796 E18.94745
G1 X164.669 Y148.256 E19.08264
G1 X164.320 Y149.702 E19.21784
G1 X163.903 Y151.129 E19.35303
G1 X163.419 Y152.535 E19.48823
G1 X162.869 Y153.916 E19.62342
G1 X162.255 Y155.270 E19.75862
G1 X161.577 Y156.593 E19.89381
G1 X160.837 Y157.883 E20.02900
G1 X160.037 Y159.136 E20.16420
G1 X159.178 Y160.350 E20.29939
G1 X158.263 Y161.521 E20.43459
G1 X157.293 Y162.649 E20.56978
G1 X156.272 Y163.729 E20.70498
G1 X155.200 Y164.759 E20.84017
G1 X154.080 Y165.738 E20.97537
G1 X152.916 Y166.662 E21.11056
G1 X151.709 Y167.531 E21.24576
G1 X150.463 Y168.341 E21.38095
G1 X149.237 Y169.057 E21.51007
G1 X147.843 Y169.789 E21.65320
G1 X117.723 Y184.635 E24.70660
G1 X117.045 Y184.935 E24.77401
G1 X116.376 Y185.165 E24.83835
G1 X115.690 Y185.338 E24.90269
G1 X114.992 Y185.453 E24.96703
G1 X114.286 Y185.509 E25.03137
G1 X113.579 Y185.505 E25.09571
G1 X112.874 Y185.441 E25.16005
G1 X112.177 Y185.319 E25.22439
G1 X111.493 Y185.138 E25.28873
G1 X110.859 Y184.912 E25.34997
G1 X110.180 Y184.606 E25.41765
G1 X109.565 Y184.261 E25.48174
G1 X108.980 Y183.864 E25.54608
G1 X108.429 Y183.419 E25.61041
G1 X107.918 Y182.930 E25.67476
G1 X107.451 Y182.399 E25.73910
G1 X107.029 Y181.831 E25.80343
G1 X106.657 Y181.229 E25.86777
G1 X106.336 Y180.598 E25.93211
G1 X106.083 Y179.974 E25.99336
G1 X105.860 Y179.264 E26.06104
G1 X105.708 Y178.576 E26.12512
G1 X105.615 Y177.874 E26.18946
G1 X105.581 Y177.168 E26.25380
G1 X105.605 Y176.494 E26.31505
G1 X105.691 Y175.755 E26.38273
G1 X105.835 Y175.065 E26.44681
G1 X106.036 Y174.387 E26.51115
G1 X106.294 Y173.728 E26.57549
G1 X106.606 Y173.093 E26.63983
G1 X106.971 Y172.487 E26.70417
G1 X107.386 Y171.913 E26.76851
G1 X107.847 Y171.377 E26.83285
G1 X108.352 Y170.881 E26.89719
G1 X108.896 Y170.429 E26.96153
G1 X109.477 Y170.025 E27.02587
G1 X110.090 Y169.671 E27.09021
G1 X110.761 Y169.356 E27.15762
G1 X140.426 Y156.912 E30.08275
G1 X141.441 Y156.445 E30.18442
G1 X142.447 Y155.894 E30.28861
G1 X143.411 Y155.276 E30.39280
G1 X144.331 Y154.593 E30.49699
G1 X145.202 Y153.848 E30.60118
G1 X146.019 Y153.045 E30.70537
G1 X146.779 Y152.187 E30.80956
G1 X147.477 Y151.279 E30.91375
G1 X148.112 Y150.325 E31.01794
G1 X148.679 Y149.329 E31.12213
G1 X149.176 Y148.297 E31.22631
G1 X149.601 Y147.233 E31.33050
G1 X149.951 Y146.142 E31.43469
G1 X150.225 Y145.029 E31.53888
G1 X150.422 Y143.900 E31.64307
G1 X150.540 Y142.761 E31.74726
G1 X150.580 Y141.616 E31.85145
G1 X150.540 Y140.470 E31.95564
G1 X150.422 Y139.331 E32.05983
G1 X150.225 Y138.202 E32.16402
G1 X149.951 Y137.089 E32.26820
G1 X149.601 Y135.998 E32.37239
G1 X149.194 Y134.978 E32.47225
G1 X148.680 Y133.904 E32.58055
G1 X148.112 Y132.906 E32.68495
G1 X147.477 Y131.952 E32.78914
G1 X146.779 Y131.044 E32.89333
G1 X146.019 Y130.186 E32.99752
G1 X145.202 Y129.383 E33.10171
G1 X144.331 Y128.638 E33.20590
G1 X143.411 Y127.955 E33.31008
G1 X142.406 Y127.310 E33.41868
G1 X141.439 Y126.785 E33.51871
G1 X140.426 Y126.319 E33.62015
G1 X110.761 Y113.875 E36.54529
G1 X110.092 Y113.560 E36.61251
G1 X109.481 Y113.208 E36.67667
G1 X108.642 Y112.625 E36.76949
G1 X66.221 Y99.516 E40.80685
G1 X62.639 Y99.516 E41.13254
G1 X61.954 Y100.141 F12000.000
G1 F2250
G1 X61.954 Y55.090 E45.22894
G1 X110.004 Y55.090 E49.59812
G1 X110.004 Y56.203 E49.69929
G1 X117.528 Y97.803 E53.54334
G1 X148.127 Y112.885 E56.64531
G1 X149.482 Y113.593 E56.78425
G1 X150.791 Y114.358 E56.92213
G1 X152.006 Y115.148 E57.05389
G1 X153.294 Y116.071 E57.19799
G1 X154.481 Y117.013 E57.33579
G1 X155.622 Y118.011 E57.47367
G1 X156.715 Y119.062 E57.61156
G1 X157.758 Y120.164 E57.74944
G1 X158.746 Y121.313 E57.88733
G1 X159.680 Y122.508 E58.02522
G1 X160.516 Y123.691 E58.15697
G1 X161.372 Y125.025 E58.30107
G1 X162.126 Y126.340 E58.43887
G1 X162.818 Y127.689 E58.57675
G1 X163.445 Y129.070 E58.71464
G1 X164.005 Y130.479 E58.85253
G1 X164.499 Y131.913 E58.99041
G1 X164.924 Y133.368 E59.12830
