;FLAVOR:Marlin
;TIME:8039
;Filament used: 5.13753m
;Layer height: 0.2
;MINX:58.547
;MINY:31.96
;MINZ:0.2
;MAXX:151.453
;MAXY:198.04
;MAXZ:3.2
;POSTPROCESSED
;Generated with Cura_SteamEngine master
M140 S60
M105
M190 S60
M104 S200
M105
M109 S200
M82 ;absolute extrusion mode
M201 X500.00 Y500.00 Z100.00 E5000.00 ;Setup machine max acceleration
M203 X500.00 Y500.00 Z10.00 E50.00 ;Setup machine max feedrate
M204 P500.00 R1000.00 T500.00 ;Setup Print/Retract/Travel acceleration
M205 X8.00 Y8.00 Z0.40 E5.00 ;Setup Jerk
M220 S100 ;Reset Feedrate
M221 S100 ;Reset Flowrate
; Home all axes
G28 X0 Y0
G28 Z0
; Set K-Factor
M900 K0.1
M141 S28
G92 E0
G92 E0
G1 F2700 E-2
;LAYER_COUNT:16
;LAYER:0
M107
G0 F6000 X60.053 Y37.829 Z0.2
;TYPE:SKIRT
G1 F2700 E0
G1 F1200 X60.56 Y37.013 E0.03262
G1 X61.133 Y36.242 E0.06523
G1 X61.769 Y35.522 E0.09785
G1 X62.462 Y34.857 E0.13046
G1 X63.208 Y34.252 E0.16307
G1 X64.002 Y33.711 E0.19569
G1 X64.838 Y33.238 E0.2283
G1 X65.71 Y32.836 E0.2609
G1 X66.613 Y32.508 E0.29352
G1 X67.54 Y32.256 E0.32614
G1 X68.485 Y32.082 E0.35876
G1 X69.774 Y31.974 E0.40268
G1 X70.094 Y31.965 E0.41355
G1 X70.418 Y31.96 E0.42455
G1 X79.182 Y31.96 E0.7221
G1 X79.346 Y31.961 E0.72767
G1 X80.05 Y31.971 E0.75158
G1 X80.375 Y31.98 E0.76261
G1 X81.22 Y32.016 E0.79133
G1 X83.734 Y32.087 E0.87672
G1 X86.264 Y32.087 E0.96262
G1 X88.766 Y32.016 E1.0476
G1 X89.275 Y31.991 E1.0649
G1 X89.503 Y31.982 E1.07265
G1 X90.075 Y31.965 E1.09208
G1 X90.418 Y31.96 E1.10372
G1 X99.182 Y31.96 E1.40128
G1 X99.346 Y31.961 E1.40685
G1 X100.05 Y31.971 E1.43075
G1 X100.375 Y31.98 E1.44179
G1 X101.22 Y32.016 E1.47051
G1 X103.734 Y32.087 E1.5559
G1 X106.264 Y32.087 E1.64179
G1 X108.766 Y32.016 E1.72678
G1 X109.275 Y31.991 E1.74408
G1 X109.503 Y31.982 E1.75182
G1 X110.075 Y31.965 E1.77125
G1 X110.418 Y31.96 E1.7829
G1 X119.182 Y31.96 E2.08046
G1 X119.346 Y31.961 E2.08602
G1 X120.05 Y31.971 E2.10993
G1 X120.375 Y31.98 E2.12097
G1 X121.22 Y32.016 E2.14968
G1 X123.734 Y32.087 E2.23507
G1 X126.264 Y32.087 E2.32097
G1 X128.766 Y32.016 E2.40595
G1 X129.275 Y31.991 E2.42325
G1 X129.503 Y31.982 E2.431
G1 X130.075 Y31.965 E2.45043
G1 X130.418 Y31.96 E2.46208
G1 X139.182 Y31.96 E2.75963
G1 X139.347 Y31.961 E2.76523
G1 X140.045 Y31.971 E2.78894
G1 X141.004 Y32.025 E2.82155
G1 X141.956 Y32.158 E2.85418
G1 X142.893 Y32.37 E2.8868
G1 X143.809 Y32.659 E2.91941
G1 X144.698 Y33.024 E2.95204
G1 X145.553 Y33.461 E2.98464
G1 X146.369 Y33.967 E3.01724
G1 X147.14 Y34.54 E3.04985
G1 X147.861 Y35.175 E3.08247
G1 X148.527 Y35.868 E3.11511
G1 X149.133 Y36.613 E3.14771
G1 X149.674 Y37.407 E3.18033
G1 X150.148 Y38.243 E3.21296
G1 X150.55 Y39.115 E3.24556
G1 X150.879 Y40.018 E3.27819
G1 X151.131 Y40.944 E3.31078
G1 X151.306 Y41.889 E3.34341
G1 X151.413 Y43.1 E3.38468
G1 X151.421 Y43.325 E3.39233
G1 X151.426 Y43.519 E3.39891
G1 X151.451 Y44.852 E3.44418
G1 X151.453 Y45.068 E3.45151
G1 X151.452 Y99.214 E5.28988
G1 X151.452 Y185.764 E8.22842
G1 X151.451 Y185.923 E8.23382
G1 X151.441 Y186.65 E8.2585
G1 X151.388 Y187.609 E8.29111
G1 X151.255 Y188.56 E8.32371
G1 X151.044 Y189.497 E8.35632
G1 X150.755 Y190.414 E8.38897
G1 X150.391 Y191.303 E8.42158
G1 X149.955 Y192.158 E8.45417
G1 X149.448 Y192.975 E8.48681
G1 X148.876 Y193.746 E8.51941
G1 X148.241 Y194.468 E8.55205
G1 X147.549 Y195.133 E8.58464
G1 X146.804 Y195.74 E8.61726
G1 X146.011 Y196.282 E8.64988
G1 X145.175 Y196.756 E8.6825
G1 X144.303 Y197.159 E8.71512
G1 X143.401 Y197.488 E8.74772
G1 X142.474 Y197.741 E8.78034
G1 X141.529 Y197.916 E8.81297
G1 X140.226 Y198.026 E8.85737
G1 X139.906 Y198.035 E8.86824
G1 X139.582 Y198.04 E8.87924
G1 X130.818 Y198.04 E9.17679
G1 X130.654 Y198.039 E9.18236
G1 X129.951 Y198.029 E9.20623
G1 X129.626 Y198.02 E9.21727
G1 X128.781 Y197.984 E9.24599
G1 X126.266 Y197.913 E9.33141
G1 X123.737 Y197.913 E9.41728
G1 X121.235 Y197.984 E9.50226
G1 X120.726 Y198.009 E9.51956
G1 X120.497 Y198.018 E9.52734
G1 X119.925 Y198.035 E9.54677
G1 X119.582 Y198.04 E9.55842
G1 X110.818 Y198.04 E9.85597
G1 X110.654 Y198.039 E9.86154
G1 X109.951 Y198.029 E9.88541
G1 X109.626 Y198.02 E9.89645
G1 X108.781 Y197.984 E9.92516
G1 X106.266 Y197.913 E10.01059
G1 X103.737 Y197.913 E10.09645
G1 X101.235 Y197.984 E10.18143
G1 X100.726 Y198.009 E10.19874
G1 X100.497 Y198.018 E10.20652
G1 X99.925 Y198.035 E10.22595
G1 X99.582 Y198.04 E10.23759
G1 X90.818 Y198.04 E10.53515
G1 X90.654 Y198.039 E10.54072
G1 X89.951 Y198.029 E10.56459
G1 X89.626 Y198.02 E10.57563
G1 X88.781 Y197.984 E10.60434
G1 X86.266 Y197.913 E10.68976
G1 X83.737 Y197.913 E10.77563
G1 X81.235 Y197.984 E10.86061
G1 X80.726 Y198.009 E10.87791
G1 X80.497 Y198.018 E10.88569
G1 X79.925 Y198.035 E10.90512
G1 X79.582 Y198.04 E10.91677
G1 X70.818 Y198.04 E11.21432
G1 X70.668 Y198.039 E11.21942
G1 X69.975 Y198.03 E11.24295
G1 X69.016 Y197.978 E11.27556
G1 X68.064 Y197.846 E11.30819
G1 X67.127 Y197.635 E11.3408
G1 X66.211 Y197.347 E11.3734
G1 X65.321 Y196.984 E11.40603
G1 X64.465 Y196.548 E11.43865
G1 X63.649 Y196.042 E11.47125
G1 X62.877 Y195.471 E11.50385
G1 X62.155 Y194.837 E11.53647
G1 X61.488 Y194.145 E11.5691
G1 X60.882 Y193.4 E11.60171
G1 X60.339 Y192.607 E11.63434
G1 X59.864 Y191.772 E11.66695
G1 X59.461 Y190.9 E11.69957
G1 X59.131 Y189.998 E11.73218
G1 X58.877 Y189.072 E11.76478
G1 X58.702 Y188.127 E11.79741
G1 X58.602 Y187.12 E11.83177
G1 X58.589 Y186.882 E11.83986
G1 X58.574 Y186.471 E11.85382
G1 X58.549 Y185.15 E11.89868
G1 X58.547 Y184.932 E11.90608
G1 X58.548 Y130.786 E13.74445
G1 X58.548 Y44.174 E16.68509
G1 X58.549 Y44 E16.691
G1 X58.559 Y43.335 E16.71358
G1 X58.614 Y42.376 E16.74619
G1 X58.748 Y41.425 E16.7788
G1 X58.96 Y40.488 E16.81142
G1 X59.25 Y39.573 E16.84401
G1 X59.615 Y38.684 E16.87664
G1 X60.053 Y37.829 E16.90925
G0 F6000 X60.49 Y37.951
G1 F1200 X60.996 Y37.156 E16.94125
G1 X61.567 Y36.407 E16.97322
G1 X62.2 Y35.709 E17.00522
G1 X62.89 Y35.068 E17.03719
G1 X63.632 Y34.487 E17.06919
G1 X64.42 Y33.971 E17.10117
G1 X65.25 Y33.524 E17.13318
G1 X66.114 Y33.149 E17.16515
G1 X67.007 Y32.848 E17.19715
G1 X67.922 Y32.624 E17.22913
G1 X68.853 Y32.479 E17.26112
G1 X69.786 Y32.413 E17.29288
G1 X70.106 Y32.404 E17.30375
G1 X70.418 Y32.4 E17.31434
G1 X79.182 Y32.4 E17.6119
G1 X79.34 Y32.401 E17.61726
G1 X80.044 Y32.411 E17.64117
G1 X80.357 Y32.42 E17.6518
G1 X81.119 Y32.452 E17.67769
G1 X83.758 Y32.527 E17.76733
G1 X86.24 Y32.527 E17.8516
G1 X88.849 Y32.453 E17.94021
G1 X89.297 Y32.431 E17.95544
G1 X89.516 Y32.422 E17.96288
G1 X90.088 Y32.405 E17.98231
G1 X90.418 Y32.4 E17.99352
G1 X99.182 Y32.4 E18.29107
G1 X99.34 Y32.401 E18.29644
G1 X100.044 Y32.411 E18.32034
G1 X100.357 Y32.42 E18.33097
G1 X101.119 Y32.452 E18.35687
G1 X103.758 Y32.527 E18.4465
G1 X106.24 Y32.527 E18.53077
G1 X108.849 Y32.453 E18.61939
G1 X109.297 Y32.431 E18.63462
G1 X109.516 Y32.422 E18.64206
G1 X110.088 Y32.405 E18.66149
G1 X110.418 Y32.4 E18.67269
G1 X119.182 Y32.4 E18.97025
G1 X119.34 Y32.401 E18.97561
G1 X120.044 Y32.411 E18.99952
G1 X120.357 Y32.42 E19.01015
G1 X121.119 Y32.452 E19.03604
G1 X123.758 Y32.527 E19.12568
G1 X126.24 Y32.527 E19.20995
G1 X128.849 Y32.453 E19.29856
G1 X129.297 Y32.431 E19.31379
G1 X129.516 Y32.422 E19.32123
G1 X130.088 Y32.405 E19.34066
G1 X130.418 Y32.4 E19.35187
G1 X139.182 Y32.4 E19.64942
G1 X139.341 Y32.401 E19.65482
G1 X140.039 Y32.411 E19.67852
G1 X140.98 Y32.465 E19.71052
G1 X141.912 Y32.598 E19.74249
G1 X142.83 Y32.809 E19.77447
G1 X143.727 Y33.098 E19.80646
G1 X144.596 Y33.462 E19.83845
G1 X145.431 Y33.898 E19.87043
G1 X146.226 Y34.403 E19.90241
G1 X146.976 Y34.974 E19.93441
G1 X147.674 Y35.607 E19.96641
G1 X148.316 Y36.296 E19.99838
G1 X148.898 Y37.037 E20.03037
G1 X149.414 Y37.825 E20.06235
G1 X149.862 Y38.654 E20.09434
G1 X150.237 Y39.518 E20.12632
G1 X150.539 Y40.411 E20.15833
G1 X150.763 Y41.326 E20.19031
G1 X150.909 Y42.257 E20.22231
G1 X150.973 Y43.116 E20.25155
G1 X150.981 Y43.341 E20.2592
G1 X150.986 Y43.527 E20.26551
G1 X151.011 Y44.86 E20.31078
G1 X151.013 Y45.068 E20.31784
G1 X151.012 Y99.214 E22.15621
G1 X151.012 Y185.764 E25.09475
G1 X151.011 Y185.917 E25.09994
G1 X151.001 Y186.644 E25.12463
G1 X150.948 Y187.584 E25.15659
G1 X150.816 Y188.517 E25.18858
G1 X150.604 Y189.435 E25.22057
G1 X150.316 Y190.332 E25.25256
G1 X149.953 Y191.201 E25.28453
G1 X149.517 Y192.037 E25.31655
G1 X149.012 Y192.832 E25.34852
G1 X148.442 Y193.582 E25.38051
G1 X147.81 Y194.281 E25.4125
G1 X147.121 Y194.923 E25.44447
G1 X146.38 Y195.505 E25.47647
G1 X145.592 Y196.022 E25.50846
G1 X144.763 Y196.47 E25.54046
G1 X143.9 Y196.846 E25.57242
G1 X143.007 Y197.148 E25.60442
G1 X142.092 Y197.373 E25.63642
G1 X141.162 Y197.519 E25.66838
G1 X140.214 Y197.587 E25.70065
G1 X139.894 Y197.596 E25.71152
G1 X139.582 Y197.6 E25.72211
G1 X130.818 Y197.6 E26.01966
G1 X130.66 Y197.599 E26.02503
G1 X129.957 Y197.589 E26.0489
G1 X129.645 Y197.58 E26.0595
G1 X128.885 Y197.548 E26.08532
G1 X126.242 Y197.473 E26.17509
G1 X123.761 Y197.473 E26.25933
G1 X121.153 Y197.547 E26.34791
G1 X120.704 Y197.569 E26.36317
G1 X120.484 Y197.578 E26.37065
G1 X119.912 Y197.595 E26.39008
G1 X119.582 Y197.6 E26.40128
G1 X110.818 Y197.6 E26.69884
G1 X110.66 Y197.599 E26.7042
G1 X109.957 Y197.589 E26.72807
G1 X109.645 Y197.58 E26.73867
G1 X108.885 Y197.548 E26.7645
G1 X106.242 Y197.473 E26.85427
G1 X103.761 Y197.473 E26.9385
G1 X101.153 Y197.547 E27.02709
G1 X100.704 Y197.569 E27.04235
G1 X100.484 Y197.578 E27.04982
G1 X99.912 Y197.595 E27.06925
G1 X99.582 Y197.6 E27.08046
G1 X90.818 Y197.6 E27.37801
G1 X90.66 Y197.599 E27.38338
G1 X89.957 Y197.589 E27.40725
G1 X89.645 Y197.58 E27.41785
G1 X88.885 Y197.548 E27.44367
G1 X86.242 Y197.473 E27.53344
G1 X83.761 Y197.473 E27.61768
G1 X81.153 Y197.547 E27.70626
G1 X80.704 Y197.569 E27.72152
G1 X80.484 Y197.578 E27.729
G1 X79.912 Y197.595 E27.74843
G1 X79.582 Y197.6 E27.75963
G1 X70.818 Y197.6 E28.05719
G1 X70.674 Y197.599 E28.06208
G1 X69.981 Y197.59 E28.08561
G1 X69.04 Y197.538 E28.11761
G1 X68.107 Y197.406 E28.1496
G1 X67.189 Y197.196 E28.18157
G1 X66.292 Y196.908 E28.21356
G1 X65.422 Y196.546 E28.24555
G1 X64.587 Y196.111 E28.27752
G1 X63.791 Y195.606 E28.30952
G1 X63.041 Y195.036 E28.34151
G1 X62.342 Y194.405 E28.37348
G1 X61.698 Y193.716 E28.4055
G1 X61.116 Y192.976 E28.43746
G1 X60.599 Y192.188 E28.46946
G1 X60.15 Y191.36 E28.50144
G1 X59.773 Y190.497 E28.53341
G1 X59.471 Y189.604 E28.56542
G1 X59.245 Y188.69 E28.59739
G1 X59.098 Y187.759 E28.62939
G1 X59.042 Y187.096 E28.65198
G1 X59.029 Y186.858 E28.66007
G1 X59.014 Y186.463 E28.67349
G1 X58.989 Y185.142 E28.71835
G1 X58.987 Y184.932 E28.72548
G1 X58.988 Y130.786 E30.56384
G1 X58.988 Y44.174 E33.50449
G1 X58.989 Y44.007 E33.51016
G1 X58.999 Y43.342 E33.53274
G1 X59.053 Y42.402 E33.56471
G1 X59.187 Y41.469 E33.59671
G1 X59.399 Y40.551 E33.6287
G1 X59.689 Y39.654 E33.6607
G1 X60.053 Y38.786 E33.69266
G1 X60.49 Y37.951 E33.72466
G0 F6000 X60.927 Y38.075
G1 F1200 X61.431 Y37.302 E33.75599
G1 X62.001 Y36.576 E33.78733
G1 X62.631 Y35.901 E33.81868
G1 X63.317 Y35.283 E33.85002
G1 X64.055 Y34.728 E33.88138
G1 X64.837 Y34.238 E33.91271
G1 X65.659 Y33.817 E33.94406
G1 X66.514 Y33.469 E33.97541
G1 X67.397 Y33.197 E34.00678
G1 X68.299 Y33.002 E34.03811
G1 X69.215 Y32.886 E34.06946
G1 X69.798 Y32.853 E34.08928
G1 X70.118 Y32.844 E34.10015
G1 X70.418 Y32.84 E34.11034
G1 X79.182 Y32.84 E34.40789
G1 X79.333 Y32.841 E34.41302
G1 X80.037 Y32.851 E34.43692
G1 X80.338 Y32.86 E34.44715
G1 X81.086 Y32.892 E34.47257
G1 X83.746 Y32.967 E34.56291
G1 X86.252 Y32.967 E34.648
G1 X88.837 Y32.894 E34.7358
G1 X89.319 Y32.87 E34.75218
G1 X89.529 Y32.862 E34.75932
G1 X90.101 Y32.845 E34.77875
G1 X90.418 Y32.84 E34.78951
G1 X99.182 Y32.84 E35.08707
G1 X99.333 Y32.841 E35.09219
G1 X100.037 Y32.851 E35.1161
G1 X100.338 Y32.86 E35.12632
G1 X101.086 Y32.892 E35.15174
G1 X103.746 Y32.967 E35.24209
G1 X106.252 Y32.967 E35.32717
G1 X108.837 Y32.894 E35.41497
G1 X109.319 Y32.87 E35.43136
G1 X109.529 Y32.862 E35.43849
G1 X110.101 Y32.845 E35.45792
G1 X110.418 Y32.84 E35.46869
G1 X119.182 Y32.84 E35.76624
G1 X119.333 Y32.841 E35.77137
G1 X120.037 Y32.851 E35.79527
G1 X120.338 Y32.86 E35.8055
G1 X121.086 Y32.892 E35.83092
G1 X123.746 Y32.967 E35.92127
G1 X126.252 Y32.967 E36.00635
G1 X128.837 Y32.894 E36.09415
G1 X129.319 Y32.87 E36.11053
G1 X129.529 Y32.862 E36.11767
G1 X130.101 Y32.845 E36.1371
G1 X130.418 Y32.84 E36.14786
G1 X139.182 Y32.84 E36.44542
G1 X139.335 Y32.841 E36.45061
G1 X140.033 Y32.851 E36.47431
G1 X140.954 Y32.904 E36.50564
G1 X141.868 Y33.037 E36.53699
G1 X142.767 Y33.248 E36.56835
G1 X143.644 Y33.537 E36.5997
G1 X144.493 Y33.9 E36.63105
G1 X145.307 Y34.335 E36.66238
G1 X146.081 Y34.839 E36.69374
G1 X146.808 Y35.408 E36.72509
G1 X147.483 Y36.038 E36.75643
G1 X148.101 Y36.724 E36.78778
G1 X148.657 Y37.46 E36.8191
G1 X149.148 Y38.243 E36.85048
G1 X149.569 Y39.064 E36.8818
G1 X149.917 Y39.919 E36.91315
G1 X150.19 Y40.801 E36.94449
G1 X150.386 Y41.703 E36.97583
G1 X150.503 Y42.619 E37.00719
G1 X150.533 Y43.131 E37.0246
G1 X150.541 Y43.356 E37.03224
G1 X150.546 Y43.535 E37.03832
G1 X150.571 Y44.868 E37.08359
G1 X150.573 Y45.068 E37.09038
G1 X150.572 Y99.214 E38.92874
G1 X150.572 Y185.764 E41.86728
G1 X150.571 Y185.911 E41.87227
G1 X150.561 Y186.638 E41.89696
G1 X150.508 Y187.559 E41.92828
G1 X150.376 Y188.473 E41.95963
G1 X150.165 Y189.372 E41.99099
G1 X149.878 Y190.249 E42.02232
G1 X149.515 Y191.098 E42.05367
G1 X149.08 Y191.913 E42.08503
G1 X148.577 Y192.687 E42.11637
G1 X148.008 Y193.414 E42.14772
G1 X147.379 Y194.089 E42.17904
G1 X146.693 Y194.708 E42.21041
G1 X145.957 Y195.265 E42.24175
G1 X145.175 Y195.756 E42.2731
G1 X144.353 Y196.177 E42.30446
G1 X143.498 Y196.526 E42.33581
G1 X142.617 Y196.8 E42.36714
G1 X141.715 Y196.996 E42.39847
G1 X140.799 Y197.113 E42.42983
G1 X140.202 Y197.147 E42.45013
G1 X139.882 Y197.156 E42.461
G1 X139.582 Y197.16 E42.47118
G1 X130.818 Y197.16 E42.76874
G1 X130.666 Y197.159 E42.7739
G1 X129.963 Y197.149 E42.79777
G1 X129.664 Y197.14 E42.80793
G1 X128.918 Y197.108 E42.83328
G1 X126.254 Y197.033 E42.92376
G1 X123.748 Y197.033 E43.00885
G1 X121.166 Y197.106 E43.09655
G1 X120.682 Y197.13 E43.113
G1 X120.471 Y197.138 E43.12017
G1 X119.899 Y197.155 E43.1396
G1 X119.582 Y197.16 E43.15036
G1 X110.818 Y197.16 E43.44792
G1 X110.666 Y197.159 E43.45308
G1 X109.963 Y197.149 E43.47695
G1 X109.664 Y197.14 E43.4871
G1 X108.918 Y197.108 E43.51245
G1 X106.254 Y197.033 E43.60294
G1 X103.748 Y197.033 E43.68802
G1 X101.166 Y197.106 E43.77572
G1 X100.682 Y197.13 E43.79217
G1 X100.471 Y197.138 E43.79934
G1 X99.899 Y197.155 E43.81877
G1 X99.582 Y197.16 E43.82954
G1 X90.818 Y197.16 E44.12709
G1 X90.666 Y197.159 E44.13225
G1 X89.963 Y197.149 E44.15612
G1 X89.664 Y197.14 E44.16628
G1 X88.918 Y197.108 E44.19163
G1 X86.254 Y197.033 E44.28211
G1 X83.748 Y197.033 E44.3672
G1 X81.166 Y197.106 E44.4549
G1 X80.682 Y197.13 E44.47135
G1 X80.471 Y197.138 E44.47852
G1 X79.899 Y197.155 E44.49795
G1 X79.582 Y197.16 E44.50871
G1 X70.818 Y197.16 E44.80627
G1 X70.68 Y197.159 E44.81095
G1 X69.987 Y197.15 E44.83448
G1 X69.065 Y197.098 E44.86584
G1 X68.151 Y196.967 E44.89718
G1 X67.252 Y196.757 E44.92853
G1 X66.374 Y196.469 E44.9599
G1 X65.525 Y196.107 E44.99124
G1 X64.71 Y195.673 E45.02259
G1 X63.936 Y195.17 E45.05393
G1 X63.208 Y194.602 E45.08528
G1 X62.532 Y193.973 E45.11663
G1 X61.913 Y193.288 E45.14797
G1 X61.356 Y192.552 E45.17931
G1 X60.864 Y191.771 E45.21065
G1 X60.442 Y190.95 E45.24199
G1 X60.093 Y190.095 E45.27335
G1 X59.819 Y189.214 E45.30467
G1 X59.622 Y188.312 E45.33602
G1 X59.481 Y187.072 E45.37839
G1 X59.468 Y186.834 E45.38648
G1 X59.454 Y186.455 E45.39936
G1 X59.429 Y185.134 E45.44422
G1 X59.427 Y184.932 E45.45108
G1 X59.428 Y130.786 E47.28944
G1 X59.428 Y44.174 E50.23008
G1 X59.429 Y44.014 E50.23552
G1 X59.439 Y43.349 E50.2581
G1 X59.493 Y42.427 E50.28946
G1 X59.626 Y41.513 E50.32081
G1 X59.838 Y40.615 E50.35214
G1 X60.127 Y39.738 E50.38349
G1 X60.491 Y38.889 E50.41485
G1 X60.927 Y38.075 E50.44621
G0 F6000 X61.364 Y38.203
G1 F1200 X61.867 Y37.452 E50.4769
G1 X62.434 Y36.748 E50.50759
G1 X63.062 Y36.097 E50.5383
G1 X63.744 Y35.504 E50.56898
G1 X64.476 Y34.974 E50.59966
G1 X65.252 Y34.511 E50.63034
