;FLAVOR:Marlin
;TIME:16181
;Filament used: 13.6182m
;Layer height: 0.2
;MINX:24.547
;MINY:3.46
;MINZ:0.2
;MAXX:197.453
;MAXY:226.54
;MAXZ:3.2
;POSTPROCESSED
;Generated with Cura_SteamEngine master
M140 S60
M105
M190 S60
M104 S200
M105
M109 S200
M82 ;absolute extrusion mode
M201 X500.00 Y500.00 Z100.00 E5000.00 ;Setup machine max acceleration
M203 X500.00 Y500.00 Z10.00 E50.00 ;Setup machine max feedrate
M204 P500.00 R1000.00 T500.00 ;Setup Print/Retract/Travel acceleration
M205 X8.00 Y8.00 Z0.40 E5.00 ;Setup Jerk
M220 S100 ;Reset Feedrate
M221 S100 ;Reset Flowrate
; Home all axes
G28 X0 Y0
G28 Z0
; Set K-Factor
M900 K0.1
M141 S28
G92 E0
G92 E0
G1 F2700 E-2
;LAYER_COUNT:16
;LAYER:0
M107
G0 F6000 X25.615 Y10.185 Z0.2
;TYPE:SKIRT
G1 F2700 E0
G1 F1200 X26.053 Y9.33 E0.03262
G1 X26.56 Y8.514 E0.06523
G1 X27.133 Y7.743 E0.09785
G1 X27.769 Y7.023 E0.13046
G1 X28.462 Y6.358 E0.16307
G1 X29.208 Y5.752 E0.19571
G1 X30.002 Y5.211 E0.22833
G1 X30.838 Y4.738 E0.26094
G1 X31.711 Y4.337 E0.29356
G1 X32.614 Y4.009 E0.32617
G1 X33.541 Y3.757 E0.35879
G1 X34.485 Y3.583 E0.39138
G1 X35.741 Y3.476 E0.43418
G1 X36.064 Y3.466 E0.44515
G1 X36.421 Y3.46 E0.45727
G1 X45.182 Y3.46 E0.75473
G1 X45.344 Y3.461 E0.76023
G1 X46.056 Y3.471 E0.7844
G1 X46.384 Y3.48 E0.79554
G1 X47.229 Y3.516 E0.82426
G1 X49.74 Y3.587 E0.90955
G1 X52.269 Y3.587 E0.99541
G1 X54.756 Y3.517 E1.07988
G1 X55.267 Y3.491 E1.09725
G1 X55.504 Y3.482 E1.10531
G1 X56.081 Y3.465 E1.12491
G1 X56.421 Y3.46 E1.13645
G1 X65.182 Y3.46 E1.4339
G1 X65.347 Y3.461 E1.43951
G1 X66.047 Y3.471 E1.46327
G1 X66.368 Y3.48 E1.47418
G1 X67.169 Y3.514 E1.5014
G1 X69.683 Y3.584 E1.58679
G1 X72.212 Y3.584 E1.67265
G1 X74.749 Y3.511 E1.75882
G1 X75.144 Y3.492 E1.77225
G1 X75.363 Y3.483 E1.77969
G1 X75.966 Y3.465 E1.80017
G1 X76.31 Y3.46 E1.81185
G1 X85.071 Y3.46 E2.10931
G1 X85.233 Y3.461 E2.11481
G1 X85.945 Y3.471 E2.13898
G1 X86.273 Y3.48 E2.15012
G1 X87.118 Y3.516 E2.17884
G1 X89.629 Y3.587 E2.26413
G1 X92.159 Y3.587 E2.35002
G1 X94.642 Y3.517 E2.43436
G1 X95.155 Y3.491 E2.4518
G1 X95.393 Y3.482 E2.45989
G1 X95.97 Y3.465 E2.47948
G1 X96.31 Y3.46 E2.49103
G1 X105.071 Y3.46 E2.78848
G1 X105.233 Y3.461 E2.79398
G1 X105.945 Y3.471 E2.81816
G1 X106.273 Y3.48 E2.8293
G1 X107.118 Y3.516 E2.85801
G1 X109.629 Y3.587 E2.9433
G1 X112.159 Y3.587 E3.0292
G1 X114.642 Y3.517 E3.11354
G1 X115.155 Y3.491 E3.13098
G1 X115.393 Y3.482 E3.13906
G1 X115.97 Y3.465 E3.15866
G1 X116.31 Y3.46 E3.17021
G1 X125.071 Y3.46 E3.46766
G1 X125.233 Y3.461 E3.47316
G1 X125.945 Y3.471 E3.49734
G1 X126.273 Y3.48 E3.50848
G1 X127.118 Y3.516 E3.53719
G1 X129.629 Y3.587 E3.62248
G1 X132.159 Y3.587 E3.70838
G1 X134.642 Y3.517 E3.79271
G1 X135.155 Y3.491 E3.81015
G1 X135.393 Y3.482 E3.81824
G1 X135.97 Y3.465 E3.83784
G1 X136.31 Y3.46 E3.84938
G1 X145.071 Y3.46 E4.14684
G1 X145.239 Y3.461 E4.15254
G1 X145.927 Y3.471 E4.1759
G1 X146.247 Y3.48 E4.18677
G1 X147.163 Y3.519 E4.2179
G1 X149.681 Y3.59 E4.30342
G1 X152.211 Y3.59 E4.38932
G1 X154.716 Y3.519 E4.47441
G1 X155.284 Y3.491 E4.49371
G1 X155.508 Y3.482 E4.50133
G1 X156.075 Y3.465 E4.52059
G1 X156.421 Y3.46 E4.53233
G1 X165.182 Y3.46 E4.82979
G1 X165.344 Y3.461 E4.83529
G1 X166.056 Y3.471 E4.85946
G1 X166.384 Y3.48 E4.8706
G1 X167.229 Y3.516 E4.89932
G1 X169.74 Y3.587 E4.98461
G1 X172.27 Y3.587 E5.07051
G1 X174.753 Y3.517 E5.15484
G1 X175.266 Y3.491 E5.17228
G1 X175.504 Y3.482 E5.18037
G1 X176.081 Y3.465 E5.19997
G1 X176.421 Y3.46 E5.21151
G1 X185.182 Y3.46 E5.50896
G1 X185.347 Y3.461 E5.51457
G1 X186.045 Y3.471 E5.53827
G1 X187.004 Y3.525 E5.57088
G1 X187.956 Y3.658 E5.60351
G1 X188.893 Y3.87 E5.63613
G1 X189.809 Y4.159 E5.66874
G1 X190.698 Y4.524 E5.70137
G1 X191.553 Y4.961 E5.73397
G1 X192.369 Y5.467 E5.76657
G1 X193.14 Y6.04 E5.79919
G1 X193.861 Y6.675 E5.83181
G1 X194.527 Y7.368 E5.86444
G1 X195.133 Y8.113 E5.89704
G1 X195.674 Y8.907 E5.92966
G1 X196.148 Y9.743 E5.96229
G1 X196.55 Y10.615 E5.99489
G1 X196.879 Y11.518 E6.02752
G1 X197.131 Y12.444 E6.06011
G1 X197.306 Y13.389 E6.09274
G1 X197.401 Y14.345 E6.12535
G1 X197.416 Y14.605 E6.1342
G1 X197.434 Y15.111 E6.15139
G1 X197.452 Y16.42 E6.19583
G1 X197.453 Y16.579 E6.20123
G1 X197.453 Y179.518 E11.73333
G1 X197.452 Y214.264 E12.91302
G1 X197.451 Y214.423 E12.91842
G1 X197.441 Y215.15 E12.94311
G1 X197.388 Y216.109 E12.97572
G1 X197.255 Y217.06 E13.00832
G1 X197.044 Y217.997 E13.04093
G1 X196.755 Y218.914 E13.07357
G1 X196.391 Y219.803 E13.10619
G1 X195.955 Y220.658 E13.13877
G1 X195.448 Y221.475 E13.17142
G1 X194.876 Y222.246 E13.20401
G1 X194.241 Y222.968 E13.23666
G1 X193.549 Y223.633 E13.26924
G1 X192.804 Y224.24 E13.30187
G1 X192.011 Y224.782 E13.33448
G1 X191.175 Y225.256 E13.36711
G1 X190.303 Y225.659 E13.39973
G1 X189.401 Y225.988 E13.43232
G1 X188.474 Y226.241 E13.46495
G1 X187.529 Y226.416 E13.49758
G1 X186.226 Y226.526 E13.54198
G1 X185.906 Y226.535 E13.55284
G1 X185.582 Y226.54 E13.56385
G1 X176.818 Y226.54 E13.8614
G1 X176.654 Y226.539 E13.86697
G1 X175.951 Y226.529 E13.89084
G1 X175.626 Y226.52 E13.90188
G1 X174.781 Y226.484 E13.93059
G1 X172.266 Y226.413 E14.01602
G1 X169.737 Y226.413 E14.10188
G1 X167.235 Y226.484 E14.18686
G1 X166.726 Y226.509 E14.20417
G1 X166.497 Y226.518 E14.21195
G1 X165.925 Y226.535 E14.23138
G1 X165.582 Y226.54 E14.24302
G1 X156.818 Y226.54 E14.54058
G1 X156.656 Y226.539 E14.54608
G1 X155.942 Y226.529 E14.57032
G1 X155.612 Y226.52 E14.58153
G1 X154.726 Y226.482 E14.61164
G1 X152.207 Y226.41 E14.6972
G1 X149.715 Y226.41 E14.78181
G1 X147.148 Y226.482 E14.869
G1 X146.58 Y226.51 E14.8883
G1 X146.351 Y226.519 E14.89609
G1 X145.817 Y226.535 E14.91422
G1 X145.471 Y226.54 E14.92597
G1 X136.707 Y226.54 E15.22353
G1 X136.543 Y226.539 E15.2291
G1 X135.84 Y226.529 E15.25297
G1 X135.515 Y226.52 E15.26401
G1 X134.67 Y226.484 E15.29272
G1 X132.155 Y226.413 E15.37814
G1 X129.626 Y226.413 E15.46401
G1 X127.124 Y226.484 E15.54899
G1 X126.615 Y226.509 E15.56629
G1 X126.386 Y226.518 E15.57407
G1 X125.814 Y226.535 E15.5935
G1 X125.471 Y226.54 E15.60515
G1 X116.707 Y226.54 E15.9027
G1 X116.543 Y226.539 E15.90827
G1 X115.84 Y226.529 E15.93214
G1 X115.515 Y226.52 E15.94318
G1 X114.67 Y226.484 E15.9719
G1 X112.155 Y226.413 E16.05732
G1 X109.626 Y226.413 E16.14318
G1 X107.124 Y226.484 E16.22817
G1 X106.615 Y226.509 E16.24547
G1 X106.386 Y226.518 E16.25325
G1 X105.814 Y226.535 E16.27268
G1 X105.471 Y226.54 E16.28433
G1 X96.707 Y226.54 E16.58188
G1 X96.543 Y226.539 E16.58745
G1 X95.84 Y226.529 E16.61132
G1 X95.515 Y226.52 E16.62236
G1 X94.67 Y226.484 E16.65107
G1 X92.155 Y226.413 E16.7365
G1 X89.626 Y226.413 E16.82236
G1 X87.124 Y226.484 E16.90734
G1 X86.615 Y226.509 E16.92465
G1 X86.386 Y226.518 E16.93243
G1 X85.814 Y226.535 E16.95186
G1 X85.471 Y226.54 E16.9635
G1 X76.707 Y226.54 E17.26106
G1 X76.549 Y226.539 E17.26642
G1 X75.82 Y226.529 E17.29118
G1 X75.486 Y226.519 E17.30252
G1 X74.78 Y226.489 E17.32651
G1 X72.206 Y226.416 E17.41394
G1 X69.677 Y226.416 E17.4998
G1 X67.166 Y226.487 E17.58509
G1 X66.753 Y226.508 E17.59913
G1 X66.503 Y226.518 E17.60763
G1 X65.917 Y226.535 E17.62753
G1 X65.582 Y226.54 E17.63891
G1 X56.818 Y226.54 E17.93646
G1 X56.654 Y226.539 E17.94203
G1 X55.951 Y226.529 E17.9659
G1 X55.626 Y226.52 E17.97694
G1 X54.781 Y226.484 E18.00565
G1 X52.266 Y226.413 E18.09108
G1 X49.737 Y226.413 E18.17694
G1 X47.235 Y226.484 E18.26192
G1 X46.726 Y226.509 E18.27923
G1 X46.497 Y226.518 E18.28701
G1 X45.925 Y226.535 E18.30644
G1 X45.582 Y226.54 E18.31808
G1 X36.818 Y226.54 E18.61564
G1 X36.669 Y226.539 E18.6207
G1 X35.971 Y226.53 E18.6444
G1 X35.012 Y226.478 E18.677
G1 X34.06 Y226.346 E18.70964
G1 X33.123 Y226.135 E18.74225
G1 X32.207 Y225.847 E18.77485
G1 X31.317 Y225.484 E18.80748
G1 X30.461 Y225.048 E18.8401
G1 X29.644 Y224.543 E18.87271
G1 X28.872 Y223.971 E18.90533
G1 X28.151 Y223.337 E18.93792
G1 X27.484 Y222.646 E18.97053
G1 X26.877 Y221.901 E19.00316
G1 X26.335 Y221.108 E19.03577
G1 X25.86 Y220.273 E19.06839
G1 X25.456 Y219.401 E19.10102
G1 X25.126 Y218.499 E19.13363
G1 X24.872 Y217.573 E19.16623
G1 X24.697 Y216.628 E19.19886
G1 X24.597 Y215.622 E19.23318
G1 X24.582 Y215.348 E19.2425
G1 X24.566 Y214.877 E19.2585
G1 X24.548 Y213.581 E19.3025
G1 X24.547 Y213.421 E19.30794
G1 X24.547 Y50.482 E24.84003
G1 X24.548 Y15.674 E26.02183
G1 X24.549 Y15.5 E26.02774
G1 X24.559 Y14.836 E26.05029
G1 X24.614 Y13.877 E26.0829
G1 X24.748 Y12.926 E26.11551
G1 X24.96 Y11.989 E26.14812
G1 X25.25 Y11.073 E26.18075
G1 X25.615 Y10.185 E26.21334
G0 F6000 X26.053 Y10.286
G1 F1200 X26.49 Y9.452 E26.24531
G1 X26.996 Y8.657 E26.27731
G1 X27.567 Y7.908 E26.30928
G1 X28.2 Y7.21 E26.34127
G1 X28.89 Y6.569 E26.37325
G1 X29.632 Y5.988 E26.40525
G1 X30.42 Y5.472 E26.43723
G1 X31.25 Y5.025 E26.46923
G1 X32.114 Y4.65 E26.50121
G1 X33.007 Y4.349 E26.53321
G1 X33.922 Y4.125 E26.56519
G1 X34.853 Y3.98 E26.59718
G1 X35.755 Y3.915 E26.62789
G1 X36.078 Y3.905 E26.63886
G1 X36.421 Y3.9 E26.6505
G1 X45.182 Y3.9 E26.94796
G1 X45.338 Y3.901 E26.95325
G1 X46.05 Y3.911 E26.97743
G1 X46.366 Y3.92 E26.98816
G1 X47.129 Y3.952 E27.01409
G1 X49.764 Y4.027 E27.10359
G1 X52.246 Y4.027 E27.18786
G1 X54.836 Y3.954 E27.27583
G1 X55.289 Y3.931 E27.29123
G1 X55.517 Y3.922 E27.29898
G1 X56.094 Y3.905 E27.31858
G1 X56.421 Y3.9 E27.32968
G1 X65.182 Y3.9 E27.62713
G1 X65.341 Y3.901 E27.63253
G1 X66.041 Y3.911 E27.6563
G1 X66.35 Y3.92 E27.66679
G1 X67.069 Y3.95 E27.69123
G1 X69.707 Y4.024 E27.78083
G1 X72.225 Y4.024 E27.86632
G1 X74.734 Y3.952 E27.95154
G1 X75.166 Y3.931 E27.96622
G1 X75.376 Y3.923 E27.97336
G1 X75.979 Y3.905 E27.99384
G1 X76.31 Y3.9 E28.00508
G1 X85.071 Y3.9 E28.30253
G1 X85.227 Y3.901 E28.30783
G1 X85.939 Y3.911 E28.33201
G1 X86.255 Y3.92 E28.34274
G1 X87.018 Y3.952 E28.36867
G1 X89.653 Y4.027 E28.45817
G1 X92.135 Y4.027 E28.54244
G1 X94.723 Y3.954 E28.63034
G1 X95.177 Y3.931 E28.64577
G1 X95.406 Y3.922 E28.65355
G1 X95.983 Y3.905 E28.67315
G1 X96.31 Y3.9 E28.68426
G1 X105.071 Y3.9 E28.98171
G1 X105.227 Y3.901 E28.98701
G1 X105.939 Y3.911 E29.01118
G1 X106.255 Y3.92 E29.02191
G1 X107.018 Y3.952 E29.04784
G1 X109.653 Y4.027 E29.13734
G1 X112.135 Y4.027 E29.22161
G1 X114.723 Y3.954 E29.30951
G1 X115.177 Y3.931 E29.32495
G1 X115.406 Y3.922 E29.33273
G1 X115.983 Y3.905 E29.35233
G1 X116.31 Y3.9 E29.36343
G1 X125.071 Y3.9 E29.66088
G1 X125.227 Y3.901 E29.66618
G1 X125.939 Y3.911 E29.69036
G1 X126.255 Y3.92 E29.70109
G1 X127.018 Y3.952 E29.72702
G1 X129.653 Y4.027 E29.81652
G1 X132.135 Y4.027 E29.90079
G1 X134.723 Y3.954 E29.98869
G1 X135.177 Y3.931 E30.00412
G1 X135.406 Y3.922 E30.0119
G1 X135.983 Y3.905 E30.0315
G1 X136.31 Y3.9 E30.04261
G1 X145.071 Y3.9 E30.34006
G1 X145.232 Y3.901 E30.34553
G1 X145.92 Y3.911 E30.36889
G1 X146.228 Y3.92 E30.37935
G1 X147.059 Y3.955 E30.40759
G1 X149.705 Y4.03 E30.49746
G1 X152.187 Y4.03 E30.58173
G1 X154.796 Y3.956 E30.67035
G1 X155.305 Y3.931 E30.68765
G1 X155.521 Y3.922 E30.69499
G1 X156.088 Y3.905 E30.71425
G1 X156.421 Y3.9 E30.72555
G1 X165.182 Y3.9 E31.02301
G1 X165.338 Y3.901 E31.0283
G1 X166.05 Y3.911 E31.05248
G1 X166.366 Y3.92 E31.06321
G1 X167.129 Y3.952 E31.08914
G1 X169.764 Y4.027 E31.17864
G1 X172.246 Y4.027 E31.26291
G1 X174.834 Y3.954 E31.35081
G1 X175.288 Y3.931 E31.36625
G1 X175.517 Y3.922 E31.37403
G1 X176.094 Y3.905 E31.39363
G1 X176.421 Y3.9 E31.40473
G1 X185.182 Y3.9 E31.70218
G1 X185.341 Y3.901 E31.70758
G1 X186.039 Y3.911 E31.73128
G1 X186.98 Y3.965 E31.76328
G1 X187.912 Y4.098 E31.79525
G1 X188.83 Y4.309 E31.82723
G1 X189.727 Y4.598 E31.85922
G1 X190.596 Y4.962 E31.89121
G1 X191.431 Y5.398 E31.92319
G1 X192.226 Y5.903 E31.95517
G1 X192.976 Y6.474 E31.98718
G1 X193.674 Y7.107 E32.01917
G1 X194.316 Y7.796 E32.05114
G1 X194.898 Y8.537 E32.08313
G1 X195.414 Y9.325 E32.11511
G1 X195.862 Y10.154 E32.14711
G1 X196.237 Y11.018 E32.17908
G1 X196.539 Y11.911 E32.21109
G1 X196.763 Y12.826 E32.24307
G1 X196.909 Y13.757 E32.27507
G1 X196.962 Y14.371 E32.29599
G1 X196.977 Y14.631 E32.30484
G1 X196.994 Y15.117 E32.32135
G1 X197.012 Y16.426 E32.36579
G1 X197.013 Y16.579 E32.37099
G1 X197.013 Y179.518 E37.90308
G1 X197.012 Y214.264 E39.08278
G1 X197.011 Y214.417 E39.08797
G1 X197.001 Y215.144 E39.11266
G1 X196.948 Y216.084 E39.14462
G1 X196.816 Y217.017 E39.17662
G1 X196.604 Y217.935 E39.2086
G1 X196.316 Y218.832 E39.24059
G1 X195.953 Y219.701 E39.27257
G1 X195.517 Y220.537 E39.30458
G1 X195.012 Y221.332 E39.33656
G1 X194.442 Y222.082 E39.36854
G1 X193.81 Y222.781 E39.40053
G1 X193.121 Y223.423 E39.43251
G1 X192.38 Y224.005 E39.4645
G1 X191.592 Y224.522 E39.4965
G1 X190.763 Y224.97 E39.52849
G1 X189.9 Y225.346 E39.56045
G1 X189.007 Y225.648 E39.59246
G1 X188.092 Y225.873 E39.62445
G1 X187.162 Y226.019 E39.65641
G1 X186.214 Y226.087 E39.68868
G1 X185.894 Y226.096 E39.69955
G1 X185.582 Y226.1 E39.71014
G1 X176.818 Y226.1 E40.0077
G1 X176.66 Y226.099 E40.01306
G1 X175.957 Y226.089 E40.03693
G1 X175.645 Y226.08 E40.04753
G1 X174.885 Y226.048 E40.07336
G1 X172.242 Y225.973 E40.16313
G1 X169.761 Y225.973 E40.24736
G1 X167.153 Y226.047 E40.33594
G1 X166.704 Y226.069 E40.35121
G1 X166.484 Y226.078 E40.35868
G1 X165.912 Y226.095 E40.37811
G1 X165.582 Y226.1 E40.38932
G1 X156.818 Y226.1 E40.68687
G1 X156.663 Y226.099 E40.69213
G1 X155.949 Y226.089 E40.71638
G1 X155.631 Y226.08 E40.72718
G1 X154.757 Y226.043 E40.75688
G1 X152.22 Y225.97 E40.84305
G1 X149.703 Y225.97 E40.92851
G1 X147.113 Y226.042 E41.01648
G1 X146.558 Y226.07 E41.03535
G1 X146.337 Y226.079 E41.04285
G1 X145.803 Y226.095 E41.06099
G1 X145.471 Y226.1 E41.07227
G1 X136.707 Y226.1 E41.36982
G1 X136.549 Y226.099 E41.37519
G1 X135.846 Y226.089 E41.39906
G1 X135.534 Y226.08 E41.40965
G1 X134.774 Y226.048 E41.43548
G1 X132.131 Y225.973 E41.52525
G1 X129.65 Y225.973 E41.60949
G1 X127.042 Y226.047 E41.69807
G1 X126.593 Y226.069 E41.71333
G1 X126.373 Y226.078 E41.72081
G1 X125.801 Y226.095 E41.74024
G1 X125.471 Y226.1 E41.75144
G1 X116.707 Y226.1 E42.049
G1 X116.549 Y226.099 E42.05436
G1 X115.846 Y226.089 E42.07823
G1 X115.534 Y226.08 E42.08883
G1 X114.774 Y226.048 E42.11466
G1 X112.131 Y225.973 E42.20443
G1 X109.65 Y225.973 E42.28866
G1 X107.042 Y226.047 E42.37724
G1 X106.593 Y226.069 E42.39251
G1 X106.373 Y226.078 E42.39998
G1 X105.801 Y226.095 E42.41941
G1 X105.471 Y226.1 E42.43062
G1 X96.707 Y226.1 E42.72817
G1 X96.549 Y226.099 E42.73354
G1 X95.846 Y226.089 E42.75741
G1 X95.534 Y226.08 E42.768
G1 X94.774 Y226.048 E42.79383
G1 X92.131 Y225.973 E42.8836
G1 X89.65 Y225.973 E42.96784
G1 X87.042 Y226.047 E43.05642
G1 X86.593 Y226.069 E43.07168
G1 X86.373 Y226.078 E43.07916
G1 X85.801 Y226.095 E43.09859
G1 X85.471 Y226.1 E43.10979
G1 X76.707 Y226.1 E43.40735
G1 X76.555 Y226.099 E43.41251
G1 X75.826 Y226.089 E43.43726
G1 X75.504 Y226.08 E43.4482
G1 X74.81 Y226.05 E43.47178
G1 X72.182 Y225.976 E43.56104
G1 X69.701 Y225.976 E43.64528
G1 X67.131 Y226.049 E43.73257
G1 X66.731 Y226.069 E43.74617
G1 X66.49 Y226.078 E43.75436
G1 X65.904 Y226.095 E43.77426
G1 X65.582 Y226.1 E43.78519
G1 X56.818 Y226.1 E44.08275
G1 X56.66 Y226.099 E44.08811
G1 X55.957 Y226.089 E44.11198
G1 X55.645 Y226.08 E44.12258
G1 X54.885 Y226.048 E44.14841
G1 X52.242 Y225.973 E44.23818
G1 X49.761 Y225.973 E44.32241
G1 X47.153 Y226.047 E44.411
G1 X46.704 Y226.069 E44.42626
G1 X46.484 Y226.078 E44.43373
G1 X45.912 Y226.095 E44.45316
G1 X45.582 Y226.1 E44.46437
G1 X36.818 Y226.1 E44.76192
G1 X36.675 Y226.099 E44.76678
G1 X35.977 Y226.09 E44.79048
G1 X35.036 Y226.038 E44.82248
G1 X34.103 Y225.906 E44.85447
G1 X33.185 Y225.696 E44.88644
G1 X32.288 Y225.408 E44.91843
G1 X31.418 Y225.046 E44.95042
G1 X30.582 Y224.611 E44.98242
G1 X29.787 Y224.107 E45.01438
G1 X29.036 Y223.537 E45.04639
G1 X28.337 Y222.905 E45.07838
G1 X27.694 Y222.217 E45.11035
G1 X27.112 Y221.476 E45.14234
G1 X26.594 Y220.689 E45.17433
G1 X26.145 Y219.861 E45.20631
G1 X25.768 Y218.997 E45.23832
G1 X25.466 Y218.105 E45.27029
G1 X25.24 Y217.191 E45.30226
G1 X25.093 Y216.26 E45.33426
G1 X25.037 Y215.598 E45.35682
G1 X25.022 Y215.324 E45.36613
G1 X25.006 Y214.871 E45.38152
G1 X24.988 Y213.575 E45.42553
G1 X24.987 Y213.421 E45.43076
G1 X24.987 Y50.482 E50.96285
G1 X24.988 Y15.674 E52.14465
G1 X24.989 Y15.507 E52.15032
