;FLAVOR:Marlin
;TIME:23936
;Filament used: 24.1862m
;Layer height: 0.2
;MINX:43.215
;MINY:53.72
;MINZ:0.2
;MAXX:186.785
;MAXY:187.641
;MAXZ:26.4
;POSTPROCESSED
;Generated with Cura_SteamEngine master
M140 S60
M105
M190 S60
M104 S200
M105
M109 S200
M82 ;absolute extrusion mode
M201 X500.00 Y500.00 Z100.00 E5000.00 ;Setup machine max acceleration
M203 X500.00 Y500.00 Z10.00 E50.00 ;Setup machine max feedrate
M204 P500.00 R1000.00 T500.00 ;Setup Print/Retract/Travel acceleration
M205 X8.00 Y8.00 Z0.40 E5.00 ;Setup Jerk
M220 S100 ;Reset Feedrate
M221 S100 ;Reset Flowrate
; Home all axes
G28 X0 Y0
G28 Z0
; Set K-Factor
M900 K0.1
M141 S28
G92 E0
G92 E0
G1 F2700 E-3
;LAYER_COUNT:132
;LAYER:0
M107
G0 F6000 X47.13 Y56.858 Z0.2
;TYPE:SKIRT
G1 F2700 E0
G1 F1200 X47.876 Y56.253 E0.03261
G1 X48.67 Y55.712 E0.06523
G1 X49.506 Y55.239 E0.09784
G1 X50.379 Y54.837 E0.13047
G1 X51.282 Y54.51 E0.16308
G1 X52.209 Y54.258 E0.1957
G1 X53.154 Y54.084 E0.22832
G1 X54.376 Y53.978 E0.26997
G1 X54.701 Y53.967 E0.28101
G1 X55.091 Y53.96 E0.29425
G1 X174.537 Y53.96 E4.34967
G1 X174.702 Y53.961 E4.35528
G1 X175.4 Y53.971 E4.37898
G1 X176.359 Y54.025 E4.41159
G1 X177.311 Y54.158 E4.44423
G1 X178.248 Y54.37 E4.47684
G1 X179.164 Y54.659 E4.50945
G1 X180.053 Y55.024 E4.54208
G1 X180.908 Y55.461 E4.57468
G1 X181.724 Y55.967 E4.60728
G1 X182.495 Y56.54 E4.6399
G1 X183.216 Y57.175 E4.67252
G1 X183.882 Y57.868 E4.70515
G1 X184.488 Y58.613 E4.73775
G1 X185.029 Y59.407 E4.77038
G1 X185.503 Y60.243 E4.803
G1 X185.905 Y61.115 E4.8356
G1 X186.234 Y62.018 E4.86823
G1 X186.486 Y62.944 E4.90082
G1 X186.661 Y63.889 E4.93345
G1 X186.77 Y65.186 E4.97764
G1 X186.779 Y65.506 E4.98851
G1 X186.784 Y65.83 E4.99951
G1 X186.785 Y151.898 E7.92169
G1 X186.784 Y172.764 E8.63013
G1 X186.783 Y172.923 E8.63552
G1 X186.773 Y173.65 E8.66021
G1 X186.718 Y174.624 E8.69333
G1 X186.696 Y174.847 E8.70094
G1 X186.631 Y175.378 E8.7191
G1 X186.565 Y175.831 E8.73465
G1 X186.387 Y176.775 E8.76726
G1 X186.132 Y177.701 E8.79987
G1 X185.794 Y178.615 E8.83296
G1 X185.53 Y179.247 E8.85621
G1 X185.123 Y180.117 E8.88882
G1 X184.646 Y180.951 E8.92144
G1 X184.016 Y181.852 E8.95877
G1 X183.738 Y182.212 E8.97421
G1 X183.635 Y182.343 E8.97987
G1 X183.495 Y182.519 E8.98751
G1 X182.866 Y183.245 E9.02012
G1 X182.179 Y183.917 E9.05275
G1 X181.721 Y184.308 E9.07319
G1 X181.538 Y184.456 E9.08118
G1 X181.136 Y184.766 E9.09842
G1 X180.811 Y185.006 E9.11214
G1 X180.015 Y185.544 E9.14476
G1 X178.878 Y186.161 E9.18868
G1 X178.632 Y186.277 E9.19791
G1 X177.987 Y186.557 E9.22179
G1 X177.586 Y186.717 E9.23644
G1 X176.679 Y187.036 E9.26909
G1 X175.75 Y187.278 E9.30168
G1 X175.129 Y187.395 E9.32314
G1 X174.866 Y187.437 E9.33218
G1 X174.396 Y187.502 E9.34829
G1 X173.963 Y187.553 E9.36309
G1 X172.951 Y187.627 E9.39754
G1 X172.712 Y187.634 E9.40566
G1 X172.374 Y187.639 E9.41714
G1 X80.431 Y187.641 E12.53878
G1 X58.089 Y187.64 E13.29734
G1 X57.928 Y187.639 E13.3028
G1 X57.356 Y187.631 E13.32222
G1 X56.302 Y187.568 E13.35807
G1 X55.565 Y187.49 E13.38324
G1 X54.615 Y187.349 E13.41584
G1 X53.68 Y187.13 E13.44845
G1 X53.184 Y186.979 E13.46605
G1 X52.876 Y186.878 E13.47706
G1 X51.976 Y186.541 E13.50968
G1 X51.586 Y186.376 E13.52406
G1 X50.717 Y185.965 E13.5567
G1 X49.886 Y185.484 E13.5893
G1 X49.35 Y185.121 E13.61128
G1 X49.13 Y184.963 E13.62047
G1 X48.791 Y184.71 E13.63484
G1 X48.555 Y184.527 E13.64498
G1 X47.821 Y183.907 E13.6776
G1 X47.308 Y183.405 E13.70197
G1 X47.083 Y183.171 E13.71299
G1 X46.202 Y182.141 E13.75901
G1 X45.921 Y181.77 E13.77481
G1 X45.373 Y180.98 E13.80745
G1 X44.893 Y180.148 E13.84006
G1 X44.633 Y179.618 E13.86011
G1 X44.543 Y179.422 E13.86743
G1 X44.333 Y178.937 E13.88537
G1 X44.167 Y178.527 E13.90039
G1 X43.844 Y177.622 E13.93301
G1 X43.514 Y176.282 E13.97987
G1 X43.471 Y176.048 E13.98795
G1 X43.367 Y175.368 E14.0113
G1 X43.312 Y174.92 E14.02663
G1 X43.228 Y173.731 E14.0671
G1 X43.217 Y173.145 E14.087
G1 X43.215 Y172.928 E14.09436
G1 X43.215 Y87.101 E17.00836
G1 X43.216 Y66.174 E17.71887
G1 X43.217 Y66 E17.72478
G1 X43.227 Y65.337 E17.74729
G1 X43.282 Y64.378 E17.7799
G1 X43.416 Y63.427 E17.81251
G1 X43.628 Y62.49 E17.84513
G1 X43.918 Y61.574 E17.87775
G1 X44.283 Y60.685 E17.91038
G1 X44.721 Y59.83 E17.94299
G1 X45.228 Y59.015 E17.97558
G1 X45.802 Y58.244 E18.00822
G1 X46.437 Y57.523 E18.04084
G1 X47.13 Y56.858 E18.07345
G0 F6000 X47.558 Y57.069
G1 F1200 X48.3 Y56.489 E18.10542
G1 X49.089 Y55.973 E18.13743
G1 X49.918 Y55.526 E18.16941
G1 X50.782 Y55.151 E18.20139
G1 X51.675 Y54.85 E18.23338
G1 X52.59 Y54.626 E18.26536
G1 X53.521 Y54.481 E18.29735
G1 X54.391 Y54.417 E18.32697
G1 X54.716 Y54.406 E18.33801
G1 X55.091 Y54.4 E18.35075
G1 X174.537 Y54.4 E22.40617
G1 X174.696 Y54.401 E22.41157
G1 X175.394 Y54.411 E22.43527
G1 X176.335 Y54.465 E22.46727
G1 X177.267 Y54.598 E22.49924
G1 X178.185 Y54.809 E22.53122
G1 X179.082 Y55.098 E22.56321
G1 X179.951 Y55.462 E22.5952
G1 X180.786 Y55.898 E22.62718
G1 X181.581 Y56.403 E22.65916
G1 X182.331 Y56.974 E22.69116
G1 X183.029 Y57.607 E22.72316
G1 X183.671 Y58.296 E22.75513
G1 X184.253 Y59.037 E22.78712
G1 X184.769 Y59.825 E22.8191
G1 X185.217 Y60.654 E22.85109
G1 X185.592 Y61.518 E22.88307
G1 X185.894 Y62.411 E22.91508
G1 X186.118 Y63.326 E22.94706
G1 X186.264 Y64.257 E22.97906
G1 X186.331 Y65.198 E23.01109
G1 X186.34 Y65.518 E23.02196
G1 X186.344 Y65.83 E23.03255
G1 X186.345 Y151.898 E25.95473
G1 X186.344 Y172.764 E26.66317
G1 X186.343 Y172.917 E26.66836
G1 X186.333 Y173.644 E26.69305
G1 X186.28 Y174.581 E26.72491
G1 X186.258 Y174.804 E26.73252
G1 X186.196 Y175.314 E26.74996
G1 X186.13 Y175.767 E26.7655
G1 X185.955 Y176.693 E26.7975
G1 X185.702 Y177.6 E26.82947
G1 X185.388 Y178.445 E26.86008
G1 X185.124 Y179.077 E26.88333
G1 X184.725 Y179.931 E26.91533
G1 X184.254 Y180.747 E26.94732
G1 X183.667 Y181.583 E26.98201
G1 X183.389 Y181.943 E26.99745
G1 X183.291 Y182.069 E27.00287
G1 X183.151 Y182.245 E27.0105
G1 X182.534 Y182.957 E27.04249
G1 X181.858 Y183.614 E27.0745
G1 X181.444 Y183.966 E27.09295
G1 X181.261 Y184.114 E27.10094
G1 X180.875 Y184.412 E27.11749
G1 X180.55 Y184.652 E27.13121
G1 X179.769 Y185.179 E27.1632
G1 X178.69 Y185.763 E27.20486
G1 X178.444 Y185.879 E27.21409
G1 X177.824 Y186.149 E27.23705
G1 X177.423 Y186.309 E27.25171
G1 X176.533 Y186.62 E27.28372
G1 X175.621 Y186.856 E27.3157
G1 X175.059 Y186.96 E27.33511
G1 X174.796 Y187.002 E27.34415
G1 X174.344 Y187.065 E27.35964
G1 X173.911 Y187.116 E27.37445
G1 X172.938 Y187.187 E27.40757
G1 X172.699 Y187.194 E27.41569
G1 X172.374 Y187.199 E27.42672
G1 X80.431 Y187.201 E30.54837
G1 X58.089 Y187.2 E31.30692
G1 X57.934 Y187.199 E31.31218
G1 X57.362 Y187.191 E31.33161
G1 X56.349 Y187.13 E31.36606
G1 X55.612 Y187.052 E31.39122
G1 X54.68 Y186.914 E31.42321
G1 X53.321 Y186.561 E31.47088
G1 X53.013 Y186.46 E31.48189
G1 X52.147 Y186.136 E31.51328
G1 X51.757 Y185.971 E31.52766
G1 X50.906 Y185.567 E31.55964
G1 X50.092 Y185.093 E31.59162
G1 X49.607 Y184.764 E31.61152
G1 X49.387 Y184.606 E31.62072
G1 X49.06 Y184.362 E31.63457
G1 X48.824 Y184.179 E31.64471
G1 X48.105 Y183.57 E31.6767
G1 X47.625 Y183.101 E31.69949
G1 X47.4 Y182.867 E31.71051
G1 X46.553 Y181.875 E31.75479
G1 X46.272 Y181.504 E31.7706
G1 X45.735 Y180.729 E31.80261
G1 X45.266 Y179.912 E31.83459
G1 X45.033 Y179.434 E31.85265
G1 X44.943 Y179.238 E31.85997
G1 X44.741 Y178.772 E31.87721
G1 X44.575 Y178.362 E31.89223
G1 X44.259 Y177.474 E31.92423
G1 X43.947 Y176.202 E31.9687
G1 X43.904 Y175.968 E31.97678
G1 X43.804 Y175.315 E31.99921
G1 X43.749 Y174.867 E32.01453
G1 X43.668 Y173.722 E32.0535
G1 X43.657 Y173.136 E32.0734
G1 X43.655 Y172.928 E32.08047
G1 X43.655 Y87.101 E34.99446
G1 X43.656 Y66.174 E35.70497
G1 X43.657 Y66.007 E35.71064
G1 X43.667 Y65.344 E35.73315
G1 X43.721 Y64.403 E35.76516
G1 X43.855 Y63.47 E35.79716
G1 X44.068 Y62.553 E35.82912
G1 X44.357 Y61.656 E35.86112
G1 X44.721 Y60.787 E35.8931
G1 X45.158 Y59.952 E35.9251
G1 X45.664 Y59.158 E35.95707
G1 X46.236 Y58.409 E35.98907
G1 X46.869 Y57.711 E36.02106
G1 X47.558 Y57.069 E36.05303
G0 F6000 X47.986 Y57.285
G1 F1200 X48.723 Y56.729 E36.08438
G1 X49.506 Y56.239 E36.11574
G1 X50.328 Y55.819 E36.14708
G1 X51.183 Y55.471 E36.17842
G1 X52.065 Y55.199 E36.20976
G1 X52.967 Y55.004 E36.24109
G1 X53.883 Y54.888 E36.27244
G1 X54.405 Y54.857 E36.29019
G1 X54.73 Y54.846 E36.30123
G1 X55.091 Y54.84 E36.31349
G1 X174.537 Y54.84 E40.36892
G1 X174.69 Y54.841 E40.37411
G1 X175.388 Y54.851 E40.39781
G1 X176.309 Y54.904 E40.42913
G1 X177.223 Y55.037 E40.46049
G1 X178.122 Y55.248 E40.49184
G1 X178.999 Y55.537 E40.52319
G1 X179.848 Y55.9 E40.55454
G1 X180.662 Y56.335 E40.58588
G1 X181.436 Y56.839 E40.61724
G1 X182.163 Y57.408 E40.64858
G1 X182.838 Y58.038 E40.67993
G1 X183.456 Y58.724 E40.71128
G1 X184.012 Y59.46 E40.7426
G1 X184.503 Y60.243 E40.77398
G1 X184.924 Y61.064 E40.8053
G1 X185.272 Y61.919 E40.83664
G1 X185.545 Y62.801 E40.86799
G1 X185.741 Y63.703 E40.89933
G1 X185.858 Y64.619 E40.93068
G1 X185.891 Y65.21 E40.95078
G1 X185.9 Y65.53 E40.96165
G1 X185.904 Y65.83 E40.97183
G1 X185.905 Y151.898 E43.89401
G1 X185.904 Y172.764 E44.60245
G1 X185.903 Y172.911 E44.60744
G1 X185.893 Y173.638 E44.63213
G1 X185.843 Y174.538 E44.66273
G1 X185.821 Y174.761 E44.67034
G1 X185.761 Y175.251 E44.6871
G1 X185.695 Y175.704 E44.70264
G1 X185.522 Y176.611 E44.73399
G1 X185.272 Y177.5 E44.76535
G1 X184.982 Y178.276 E44.79347
G1 X184.718 Y178.908 E44.81673
G1 X184.326 Y179.744 E44.84808
G1 X183.863 Y180.542 E44.8794
G1 X183.319 Y181.314 E44.91147
G1 X183.041 Y181.674 E44.92691
G1 X182.947 Y181.795 E44.93211
G1 X182.807 Y181.971 E44.93975
G1 X182.201 Y182.668 E44.9711
G1 X181.537 Y183.31 E45.00246
G1 X181.167 Y183.624 E45.01894
G1 X180.984 Y183.772 E45.02693
G1 X180.613 Y184.058 E45.04283
G1 X180.288 Y184.298 E45.05655
G1 X179.523 Y184.814 E45.08788
G1 X178.503 Y185.365 E45.12724
G1 X178.257 Y185.481 E45.13648
G1 X177.661 Y185.74 E45.15854
G1 X177.26 Y185.9 E45.1732
G1 X176.388 Y186.205 E45.20456
G1 X175.493 Y186.433 E45.23592
G1 X174.99 Y186.526 E45.25329
G1 X174.727 Y186.568 E45.26233
G1 X174.293 Y186.628 E45.27721
G1 X173.86 Y186.679 E45.29201
G1 X172.925 Y186.747 E45.32384
G1 X172.686 Y186.754 E45.33196
G1 X172.374 Y186.759 E45.34255
G1 X80.431 Y186.761 E48.46419
G1 X58.089 Y186.76 E49.22275
G1 X57.94 Y186.759 E49.22781
G1 X57.368 Y186.751 E49.24723
G1 X56.395 Y186.693 E49.28032
G1 X55.658 Y186.615 E49.30549
G1 X54.745 Y186.478 E49.33683
G1 X53.458 Y186.143 E49.38198
G1 X53.15 Y186.042 E49.39299
G1 X52.318 Y185.731 E49.42314
G1 X51.928 Y185.566 E49.43752
G1 X51.095 Y185.169 E49.46885
G1 X50.298 Y184.702 E49.50021
G1 X49.864 Y184.406 E49.51805
G1 X49.644 Y184.248 E49.52725
G1 X49.33 Y184.014 E49.54054
G1 X49.094 Y183.831 E49.55068
G1 X48.389 Y183.234 E49.58205
G1 X47.942 Y182.796 E49.6033
G1 X47.717 Y182.562 E49.61432
G1 X46.903 Y181.609 E49.65687
G1 X46.622 Y181.238 E49.67267
G1 X46.097 Y180.479 E49.704
G1 X45.64 Y179.677 E49.73534
G1 X45.432 Y179.25 E49.75147
G1 X45.342 Y179.054 E49.75879
G1 X45.149 Y178.607 E49.77532
G1 X44.983 Y178.197 E49.79034
G1 X44.674 Y177.327 E49.82169
G1 X44.38 Y176.123 E49.86377
G1 X44.337 Y175.889 E49.87184
G1 X44.24 Y175.261 E49.89342
G1 X44.185 Y174.813 E49.90874
G1 X44.108 Y173.714 E49.94615
G1 X44.097 Y173.128 E49.96605
G1 X44.095 Y172.928 E49.97284
G1 X44.095 Y87.101 E52.88683
G1 X44.096 Y66.174 E53.59734
G1 X44.097 Y66.013 E53.60281
G1 X44.107 Y65.35 E53.62532
G1 X44.161 Y64.429 E53.65665
G1 X44.295 Y63.515 E53.68801
G1 X44.507 Y62.616 E53.71937
G1 X44.795 Y61.74 E53.75068
G1 X45.159 Y60.891 E53.78204
G1 X45.595 Y60.077 E53.81339
G1 X46.1 Y59.304 E53.84474
G1 X46.669 Y58.577 E53.87609
G1 X47.3 Y57.903 E53.90743
G1 X47.986 Y57.285 E53.93878
G0 F6000 X47.73 Y58.099
G1 F1200 X48.412 Y57.506 E53.96947
G1 X49.145 Y56.976 E54.00018
G1 X49.921 Y56.513 E54.03086
G1 X50.735 Y56.12 E54.06155
G1 X51.581 Y55.8 E54.09226
G1 X52.451 Y55.557 E54.12293
G1 X53.34 Y55.391 E54.15363
G1 X54.42 Y55.297 E54.19044
G1 X54.745 Y55.286 E54.20148
G1 X55.091 Y55.28 E54.21323
G1 X174.537 Y55.28 E58.26865
G1 X174.683 Y55.281 E58.27361
G1 X175.381 Y55.291 E58.29731
G1 X176.284 Y55.344 E58.32802
G1 X177.178 Y55.476 E58.3587
G1 X178.057 Y55.687 E58.38939
G1 X178.914 Y55.975 E58.42009
G1 X179.742 Y56.338 E58.45078
G1 X180.535 Y56.772 E58.48148
G1 X181.287 Y57.274 E58.51218
G1 X181.991 Y57.841 E58.54287
G1 X182.642 Y58.468 E58.57355
G1 X183.235 Y59.15 E58.60424
G1 X183.766 Y59.882 E58.63494
G1 X184.23 Y60.658 E58.66564
G1 X184.623 Y61.472 E58.69633
G1 X184.943 Y62.317 E58.727
G1 X185.188 Y63.188 E58.75772
G1 X185.354 Y64.076 E58.7884
G1 X185.451 Y65.223 E58.82748
G1 X185.46 Y65.543 E58.83835
G1 X185.464 Y65.83 E58.84809
G1 X185.465 Y151.898 E61.77027
G1 X185.464 Y172.764 E62.47871
G1 X185.463 Y172.905 E62.4835
G1 X185.453 Y173.632 E62.50818
G1 X185.405 Y174.494 E62.53749
G1 X185.383 Y174.717 E62.5451
G1 X185.325 Y175.187 E62.56118
G1 X185.259 Y175.64 E62.57672
G1 X185.089 Y176.528 E62.60742
G1 X184.842 Y177.398 E62.63813
G1 X184.576 Y178.106 E62.6638
G1 X184.312 Y178.738 E62.68706
G1 X183.927 Y179.556 E62.71775
G1 X183.472 Y180.337 E62.74844
G1 X182.971 Y181.045 E62.77789
G1 X182.693 Y181.405 E62.79333
G1 X182.602 Y181.521 E62.79834
G1 X182.462 Y181.697 E62.80597
G1 X181.869 Y182.379 E62.83666
G1 X180.891 Y183.281 E62.88183
G1 X180.708 Y183.429 E62.88982
G1 X180.352 Y183.704 E62.90509
G1 X180.027 Y183.944 E62.91881
G1 X179.277 Y184.449 E62.94951
G1 X178.315 Y184.967 E62.9866
G1 X178.069 Y185.083 E62.99584
G1 X177.497 Y185.331 E63.01701
G1 X177.096 Y185.491 E63.03166
G1 X176.243 Y185.789 E63.06234
G1 X175.366 Y186.01 E63.09305
G1 X174.921 Y186.091 E63.10841
G1 X174.658 Y186.133 E63.11745
G1 X174.241 Y186.191 E63.13174
G1 X173.808 Y186.242 E63.14654
G1 X172.912 Y186.308 E63.17705
G1 X172.673 Y186.315 E63.18517
G1 X172.374 Y186.319 E63.19532
G1 X80.431 Y186.321 E66.31696
G1 X58.089 Y186.32 E67.07552
G1 X57.946 Y186.319 E67.08037
G1 X57.374 Y186.311 E67.09979
G1 X56.441 Y186.255 E67.13153
G1 X55.704 Y186.177 E67.15669
G1 X54.81 Y186.042 E67.18739
G1 X53.595 Y185.725 E67.23002
G1 X53.287 Y185.624 E67.24103
G1 X52.49 Y185.325 E67.26993
G1 X52.1 Y185.16 E67.2843
G1 X51.284 Y184.772 E67.31498
G1 X50.505 Y184.312 E67.3457
G1 X50.12 Y184.049 E67.36153
G1 X49.9 Y183.891 E67.37072
G1 X49.599 Y183.666 E67.38348
G1 X49.363 Y183.483 E67.39362
G1 X48.674 Y182.898 E67.42431
G1 X48.259 Y182.491 E67.44404
G1 X48.034 Y182.257 E67.45507
G1 X47.254 Y181.344 E67.49584
G1 X46.973 Y180.973 E67.51164
G1 X46.46 Y180.229 E67.54232
G1 X45.832 Y179.067 E67.58717
G1 X45.742 Y178.871 E67.59449
G1 X45.557 Y178.441 E67.61038
G1 X45.391 Y178.031 E67.6254
G1 X45.089 Y177.179 E67.65609
G1 X44.812 Y176.043 E67.69579
G1 X44.769 Y175.809 E67.70387
G1 X44.677 Y175.207 E67.72454
G1 X44.622 Y174.759 E67.73987
G1 X44.548 Y173.706 E67.77571
G1 X44.537 Y173.12 E67.79561
G1 X44.535 Y172.928 E67.80213
G1 X44.535 Y87.101 E70.71612
G1 X44.536 Y66.174 E71.42663
G1 X44.537 Y66.02 E71.43186
G1 X44.547 Y65.357 E71.45437
G1 X44.601 Y64.454 E71.48509
G1 X44.734 Y63.56 E71.51577
G1 X44.946 Y62.681 E71.54647
G1 X45.234 Y61.825 E71.57714
G1 X45.597 Y60.997 E71.60783
G1 X46.032 Y60.204 E71.63854
G1 X46.535 Y59.453 E71.66923
G1 X47.102 Y58.75 E71.69989
G1 X47.73 Y58.099 E71.73061
G1 F2700 E68.73061
;MESH:New_Bottom_Drawer.stl
G0 F6000 X80.431 Y175.001
;TYPE:WALL-INNER
G1 F2700 E71.73061
G1 F1200 X57.445 Y175 E72.51102
G1 X56.979 Y174.936 E72.52699
G1 X56.617 Y174.785 E72.54031
G1 X56.302 Y174.544 E72.55378
G1 X56.065 Y174.235 E72.567
G1 X55.916 Y173.881 E72.58004
G1 X55.855 Y173.426 E72.59563
G1 X55.855 Y87.101 E75.52653
G1 X55.856 Y66.6 E76.22258
G1 X174.144 Y66.6 E80.23868
G1 X174.145 Y151.899 E83.13475
G1 X174.144 Y173.43 E83.86577
G1 X174.08 Y173.888 E83.88147
G1 X173.929 Y174.246 E83.89466
G1 X173.688 Y174.554 E83.90794
G1 X173.371 Y174.791 E83.92138
G1 X173.004 Y174.94 E83.93483
G1 X172.547 Y175.001 E83.95048
G1 X80.431 Y175.001 E87.078
G0 F6000 X80.431 Y175.441
G1 F1200 X57.421 Y175.44 E87.85923
G1 X56.878 Y175.371 E87.87782
G1 X56.81 Y175.342 E87.88033
G1 X56.402 Y175.176 E87.89528
G1 X56.348 Y175.133 E87.89763
G1 X55.996 Y174.869 E87.91257
