;FLAVOR:Marlin
;TIME:12973
;Filament used: 14.3399m
;Layer height: 0.2
;MINX:51.734
;MINY:53.72
;MINZ:0.2
;MAXX:178.266
;MAXY:187.641
;MAXZ:18
;POSTPROCESSED
;Generated with Cura_SteamEngine master
M140 S60
M105
M190 S60
M104 S200
M105
M109 S200
M82 ;absolute extrusion mode
M201 X500.00 Y500.00 Z100.00 E5000.00 ;Setup machine max acceleration
M203 X500.00 Y500.00 Z10.00 E50.00 ;Setup machine max feedrate
M204 P500.00 R1000.00 T500.00 ;Setup Print/Retract/Travel acceleration
M205 X8.00 Y8.00 Z0.40 E5.00 ;Setup Jerk
M220 S100 ;Reset Feedrate
M221 S100 ;Reset Flowrate
; Home all axes
G28 X0 Y0
G28 Z0
; Set K-Factor
M900 K0.1
M141 S28
G92 E0
G92 E0
G1 F2700 E-2
;LAYER_COUNT:90
;LAYER:0
M107
G0 F6000 X54.956 Y57.523 Z0.2
;TYPE:SKIRT
G1 F2700 E0
G1 F1200 X55.649 Y56.858 E0.03261
G1 X56.395 Y56.253 E0.06522
G1 X57.189 Y55.712 E0.09784
G1 X58.025 Y55.239 E0.13045
G1 X58.898 Y54.837 E0.16308
G1 X59.801 Y54.51 E0.19569
G1 X60.728 Y54.258 E0.22831
G1 X61.673 Y54.084 E0.26093
G1 X62.895 Y53.978 E0.30258
G1 X63.22 Y53.967 E0.31362
G1 X63.61 Y53.96 E0.32686
G1 X90.824 Y53.96 E1.25083
G1 X93.465 Y53.923 E1.3405
G1 X94.287 Y53.891 E1.36843
G1 X94.538 Y53.884 E1.37696
G1 X95.851 Y53.862 E1.42154
G1 X96.044 Y53.86 E1.4281
G1 X118.856 Y53.86 E2.20261
G1 X119.017 Y53.861 E2.20808
G1 X119.733 Y53.871 E2.23239
G1 X119.817 Y53.873 E2.23524
G1 X123.909 Y53.96 E2.3742
G1 X166.018 Y53.96 E3.80389
G1 X166.183 Y53.961 E3.80949
G1 X166.881 Y53.971 E3.83319
G1 X167.84 Y54.025 E3.8658
G1 X168.792 Y54.158 E3.89844
G1 X169.729 Y54.37 E3.93105
G1 X170.645 Y54.659 E3.96366
G1 X171.534 Y55.024 E3.99629
G1 X172.389 Y55.461 E4.02889
G1 X173.205 Y55.967 E4.06149
G1 X173.976 Y56.54 E4.09411
G1 X174.697 Y57.175 E4.12673
G1 X175.363 Y57.868 E4.15936
G1 X175.969 Y58.613 E4.19196
G1 X176.51 Y59.407 E4.22459
G1 X176.984 Y60.243 E4.25721
G1 X177.386 Y61.115 E4.28982
G1 X177.715 Y62.018 E4.32245
G1 X177.967 Y62.944 E4.35503
G1 X178.142 Y63.889 E4.38766
G1 X178.251 Y65.186 E4.43185
G1 X178.26 Y65.506 E4.44272
G1 X178.265 Y65.83 E4.45372
G1 X178.266 Y151.898 E7.3759
G1 X178.265 Y172.764 E8.08434
G1 X178.264 Y172.922 E8.0897
G1 X178.254 Y173.652 E8.11449
G1 X178.2 Y174.618 E8.14734
G1 X178.177 Y174.853 E8.15535
G1 X178.114 Y175.372 E8.1731
G1 X178.051 Y175.81 E8.18813
G1 X177.875 Y176.754 E8.22073
G1 X177.621 Y177.681 E8.25337
G1 X177.399 Y178.313 E8.27611
G1 X177.317 Y178.526 E8.28386
G1 X177.162 Y178.907 E8.29782
G1 X176.985 Y179.322 E8.31314
G1 X176.572 Y180.189 E8.34575
G1 X176.088 Y181.019 E8.37837
G1 X175.532 Y181.812 E8.41125
G1 X175.123 Y182.346 E8.43409
G1 X174.507 Y183.084 E8.46673
G1 X173.833 Y183.768 E8.49933
G1 X173.288 Y184.244 E8.5239
G1 X173.114 Y184.387 E8.53154
G1 X172.655 Y184.746 E8.55133
G1 X172.285 Y185.02 E8.56696
G1 X171.49 Y185.559 E8.59957
G1 X170.652 Y186.03 E8.63221
G1 X170.109 Y186.289 E8.65263
G1 X169.909 Y186.378 E8.66007
G1 X169.521 Y186.542 E8.67437
G1 X169.113 Y186.706 E8.6893
G1 X168.207 Y187.027 E8.72193
G1 X167.278 Y187.272 E8.75455
G1 X166.732 Y187.378 E8.77343
G1 X166.519 Y187.414 E8.78077
G1 X165.963 Y187.494 E8.79984
G1 X165.502 Y187.549 E8.8156
G1 X164.545 Y187.623 E8.84819
G1 X164.292 Y187.632 E8.85679
G1 X163.981 Y187.639 E8.86735
G1 X163.747 Y187.641 E8.87529
G1 X85.526 Y187.641 E11.53105
G1 X66.58 Y187.64 E12.1743
G1 X66.415 Y187.639 E12.17991
G1 X65.715 Y187.629 E12.20367
G1 X64.762 Y187.576 E12.23608
G1 X64.536 Y187.554 E12.24379
G1 X64.029 Y187.493 E12.26113
G1 X63.586 Y187.43 E12.27632
G1 X62.642 Y187.255 E12.30892
G1 X61.715 Y187.003 E12.34153
G1 X61.072 Y186.777 E12.36467
G1 X60.856 Y186.694 E12.37253
G1 X60.446 Y186.528 E12.38755
G1 X60.031 Y186.35 E12.40288
G1 X59.165 Y185.935 E12.43548
G1 X58.336 Y185.449 E12.46811
G1 X57.836 Y185.108 E12.48866
G1 X57.668 Y184.987 E12.49569
G1 X57.278 Y184.694 E12.51225
G1 X56.908 Y184.403 E12.52823
G1 X56.178 Y183.778 E12.56086
G1 X55.503 Y183.095 E12.59346
G1 X55.097 Y182.623 E12.6146
G1 X54.956 Y182.45 E12.62218
G1 X54.639 Y182.042 E12.63972
G1 X54.367 Y181.676 E12.6552
G1 X53.826 Y180.882 E12.68782
G1 X53.354 Y180.046 E12.72042
G1 X53.062 Y179.432 E12.7435
G1 X52.972 Y179.227 E12.7511
G1 X52.828 Y178.883 E12.76376
G1 X52.662 Y178.469 E12.77891
G1 X52.342 Y177.563 E12.81153
G1 X52.098 Y176.634 E12.84414
G1 X51.977 Y175.993 E12.86629
G1 X51.943 Y175.78 E12.87361
G1 X51.881 Y175.331 E12.889
G1 X51.826 Y174.871 E12.90473
G1 X51.75 Y173.875 E12.93864
G1 X51.742 Y173.628 E12.94704
G1 X51.736 Y173.354 E12.95634
G1 X51.734 Y173.123 E12.96418
G1 X51.734 Y87.101 E15.8848
G1 X51.735 Y66.174 E16.59531
G1 X51.736 Y66 E16.60122
G1 X51.746 Y65.337 E16.62373
G1 X51.801 Y64.378 E16.65634
G1 X51.935 Y63.427 E16.68895
G1 X52.147 Y62.49 E16.72157
G1 X52.437 Y61.574 E16.75419
G1 X52.802 Y60.685 E16.78682
G1 X53.24 Y59.83 E16.81943
G1 X53.747 Y59.015 E16.85202
G1 X54.321 Y58.244 E16.88466
G1 X54.956 Y57.523 E16.91728
G0 F6000 X55.388 Y57.711
G1 F1200 X56.077 Y57.069 E16.94925
G1 X56.819 Y56.489 E16.98123
G1 X57.608 Y55.973 E17.01323
G1 X58.437 Y55.526 E17.04521
G1 X59.301 Y55.151 E17.07719
G1 X60.194 Y54.85 E17.10919
G1 X61.109 Y54.626 E17.14117
G1 X62.04 Y54.481 E17.17316
G1 X62.91 Y54.417 E17.20278
G1 X63.235 Y54.406 E17.21382
G1 X63.61 Y54.4 E17.22655
G1 X90.83 Y54.4 E18.15072
G1 X93.448 Y54.363 E18.23962
G1 X94.304 Y54.33 E18.2687
G1 X94.545 Y54.324 E18.27689
G1 X95.858 Y54.302 E18.32147
G1 X96.044 Y54.3 E18.32779
G1 X118.856 Y54.3 E19.1023
G1 X119.011 Y54.301 E19.10756
G1 X119.727 Y54.311 E19.13187
G1 X119.808 Y54.313 E19.13463
G1 X123.9 Y54.4 E19.27359
G1 X166.018 Y54.4 E20.70358
G1 X166.177 Y54.401 E20.70898
G1 X166.875 Y54.411 E20.73268
G1 X167.816 Y54.465 E20.76468
G1 X168.748 Y54.598 E20.79664
G1 X169.666 Y54.809 E20.82862
G1 X170.563 Y55.098 E20.86062
G1 X171.432 Y55.462 E20.89261
G1 X172.267 Y55.898 E20.92459
G1 X173.062 Y56.403 E20.95657
G1 X173.812 Y56.974 E20.98857
G1 X174.51 Y57.607 E21.02056
G1 X175.152 Y58.296 E21.05254
G1 X175.734 Y59.037 E21.08453
G1 X176.25 Y59.825 E21.11651
G1 X176.698 Y60.654 E21.1485
G1 X177.073 Y61.518 E21.18048
G1 X177.375 Y62.411 E21.21248
G1 X177.599 Y63.326 E21.24447
G1 X177.745 Y64.257 E21.27646
G1 X177.812 Y65.198 E21.30849
G1 X177.821 Y65.518 E21.31936
G1 X177.825 Y65.83 E21.32996
G1 X177.826 Y151.898 E24.25213
G1 X177.825 Y172.764 E24.96057
G1 X177.824 Y172.916 E24.96573
G1 X177.814 Y173.646 E24.99052
G1 X177.762 Y174.575 E25.02211
G1 X177.739 Y174.81 E25.03013
G1 X177.679 Y175.309 E25.04719
G1 X177.616 Y175.747 E25.06222
G1 X177.442 Y176.673 E25.09421
G1 X177.191 Y177.581 E25.12619
G1 X176.988 Y178.155 E25.14686
G1 X176.906 Y178.368 E25.15461
G1 X176.757 Y178.735 E25.16806
G1 X176.58 Y179.15 E25.18338
G1 X176.174 Y180 E25.21536
G1 X175.697 Y180.812 E25.24733
G1 X175.182 Y181.544 E25.27772
G1 X174.773 Y182.078 E25.30056
G1 X174.169 Y182.801 E25.33254
G1 X173.506 Y183.471 E25.36455
G1 X173.009 Y183.905 E25.38695
G1 X172.835 Y184.048 E25.3946
G1 X172.393 Y184.392 E25.41361
G1 X172.023 Y184.666 E25.42924
G1 X171.243 Y185.194 E25.46122
G1 X170.42 Y185.654 E25.49323
G1 X169.93 Y185.887 E25.51166
G1 X169.73 Y185.976 E25.51909
G1 X169.357 Y186.134 E25.53284
G1 X168.949 Y186.298 E25.54777
G1 X168.061 Y186.612 E25.57975
G1 X167.149 Y186.85 E25.61175
G1 X166.659 Y186.944 E25.62869
G1 X166.446 Y186.98 E25.63602
G1 X165.911 Y187.057 E25.65438
G1 X165.45 Y187.112 E25.67014
G1 X164.53 Y187.183 E25.70147
G1 X164.277 Y187.192 E25.71006
G1 X163.977 Y187.199 E25.72025
G1 X163.743 Y187.201 E25.7282
G1 X85.526 Y187.201 E28.38382
G1 X66.58 Y187.2 E29.02707
G1 X66.421 Y187.199 E29.03247
G1 X65.721 Y187.189 E29.05624
G1 X64.805 Y187.138 E29.08738
G1 X64.579 Y187.116 E29.09509
G1 X64.091 Y187.057 E29.11178
G1 X63.648 Y186.994 E29.12698
G1 X62.722 Y186.822 E29.15895
G1 X61.814 Y186.572 E29.19093
G1 X61.23 Y186.366 E29.21195
G1 X61.014 Y186.283 E29.21981
G1 X60.62 Y186.123 E29.23425
G1 X60.205 Y185.945 E29.24958
G1 X59.355 Y185.537 E29.28159
G1 X58.544 Y185.059 E29.31355
G1 X58.093 Y184.751 E29.3321
G1 X57.925 Y184.63 E29.33912
G1 X57.55 Y184.348 E29.35505
G1 X57.18 Y184.057 E29.37104
G1 X56.465 Y183.444 E29.40301
G1 X55.804 Y182.772 E29.43502
G1 X55.438 Y182.345 E29.45411
G1 X55.297 Y182.172 E29.46169
G1 X54.992 Y181.78 E29.47855
G1 X54.72 Y181.414 E29.49403
G1 X54.191 Y180.635 E29.526
G1 X53.729 Y179.813 E29.55802
G1 X53.465 Y179.255 E29.57898
G1 X53.375 Y179.05 E29.58658
G1 X53.236 Y178.719 E29.59877
G1 X53.07 Y178.305 E29.61391
G1 X52.757 Y177.416 E29.64591
G1 X52.52 Y176.505 E29.67787
G1 X52.412 Y175.924 E29.69793
G1 X52.378 Y175.711 E29.70526
G1 X52.318 Y175.279 E29.72007
G1 X52.263 Y174.819 E29.73579
G1 X52.19 Y173.86 E29.76845
G1 X52.182 Y173.613 E29.77684
G1 X52.176 Y173.35 E29.78577
G1 X52.174 Y173.119 E29.79361
G1 X52.174 Y87.101 E32.71409
G1 X52.175 Y66.174 E33.4246
G1 X52.176 Y66.007 E33.43027
G1 X52.186 Y65.344 E33.45279
G1 X52.24 Y64.403 E33.48479
G1 X52.374 Y63.47 E33.51679
G1 X52.587 Y62.553 E33.54875
G1 X52.876 Y61.656 E33.58075
G1 X53.24 Y60.787 E33.61274
G1 X53.677 Y59.952 E33.64474
G1 X54.183 Y59.158 E33.6767
G1 X54.755 Y58.409 E33.7087
G1 X55.388 Y57.711 E33.74069
G0 F6000 X55.819 Y57.903
G1 F1200 X56.505 Y57.285 E33.77204
G1 X57.242 Y56.729 E33.80339
G1 X58.025 Y56.239 E33.83475
G1 X58.847 Y55.819 E33.86609
G1 X59.702 Y55.471 E33.89743
G1 X60.584 Y55.199 E33.92877
G1 X61.486 Y55.004 E33.9601
G1 X62.402 Y54.888 E33.99145
G1 X62.924 Y54.857 E34.0092
G1 X63.249 Y54.846 E34.02024
G1 X63.61 Y54.84 E34.0325
G1 X90.836 Y54.84 E34.95687
G1 X93.471 Y54.803 E35.04635
G1 X94.321 Y54.77 E35.07523
G1 X94.552 Y54.763 E35.08307
G1 X95.865 Y54.741 E35.12766
G1 X96.044 Y54.74 E35.13374
G1 X118.856 Y54.74 E35.90825
G1 X119.005 Y54.741 E35.91331
G1 X119.721 Y54.751 E35.93762
G1 X119.799 Y54.752 E35.94027
G1 X123.938 Y54.84 E36.08083
G1 X166.018 Y54.84 E37.50953
G1 X166.171 Y54.841 E37.51472
G1 X166.869 Y54.851 E37.53842
G1 X167.79 Y54.904 E37.56974
G1 X168.704 Y55.037 E37.6011
G1 X169.603 Y55.248 E37.63245
G1 X170.48 Y55.537 E37.6638
G1 X171.329 Y55.9 E37.69515
G1 X172.143 Y56.335 E37.72649
G1 X172.917 Y56.839 E37.75785
G1 X173.644 Y57.408 E37.78919
G1 X174.319 Y58.038 E37.82054
G1 X174.937 Y58.724 E37.85189
G1 X175.493 Y59.46 E37.88321
G1 X175.984 Y60.243 E37.91459
G1 X176.405 Y61.064 E37.94591
G1 X176.753 Y61.919 E37.97725
G1 X177.026 Y62.801 E38.0086
G1 X177.222 Y63.703 E38.03994
G1 X177.339 Y64.619 E38.07129
G1 X177.372 Y65.21 E38.09139
G1 X177.381 Y65.53 E38.10226
G1 X177.385 Y65.83 E38.11244
G1 X177.386 Y151.898 E41.03462
G1 X177.385 Y172.764 E41.74306
G1 X177.384 Y172.91 E41.74802
G1 X177.374 Y173.64 E41.77281
G1 X177.324 Y174.532 E41.80314
G1 X177.301 Y174.767 E41.81116
G1 X177.243 Y175.247 E41.82757
G1 X177.18 Y175.685 E41.8426
G1 X177.01 Y176.592 E41.87393
G1 X176.761 Y177.481 E41.90527
G1 X176.577 Y177.997 E41.92387
G1 X176.495 Y178.21 E41.93162
G1 X176.352 Y178.562 E41.94452
G1 X176.175 Y178.977 E41.95984
G1 X175.777 Y179.81 E41.99118
G1 X175.308 Y180.605 E42.02252
G1 X174.833 Y181.277 E42.05046
G1 X174.424 Y181.811 E42.0733
G1 X173.831 Y182.519 E42.10465
G1 X173.18 Y183.173 E42.13598
G1 X172.729 Y183.565 E42.15627
G1 X172.555 Y183.708 E42.16392
G1 X172.131 Y184.039 E42.18218
G1 X171.761 Y184.313 E42.19781
G1 X170.996 Y184.83 E42.22916
G1 X170.189 Y185.278 E42.2605
G1 X169.751 Y185.485 E42.27695
G1 X169.551 Y185.574 E42.28438
G1 X169.193 Y185.726 E42.29758
G1 X168.785 Y185.89 E42.31251
G1 X167.914 Y186.197 E42.34387
G1 X166.585 Y186.51 E42.39023
G1 X166.372 Y186.546 E42.39756
G1 X165.859 Y186.62 E42.41516
G1 X165.398 Y186.675 E42.43092
G1 X164.514 Y186.743 E42.46102
G1 X164.261 Y186.752 E42.46962
G1 X163.973 Y186.759 E42.4794
G1 X163.739 Y186.761 E42.48734
G1 X85.526 Y186.761 E45.14283
G1 X66.58 Y186.76 E45.78608
G1 X66.428 Y186.759 E45.79124
G1 X65.728 Y186.749 E45.81501
G1 X64.847 Y186.7 E45.84497
G1 X64.621 Y186.678 E45.85268
G1 X64.153 Y186.622 E45.86868
G1 X63.71 Y186.559 E45.88387
G1 X62.803 Y186.389 E45.9152
G1 X61.913 Y186.142 E45.94656
G1 X61.387 Y185.956 E45.96551
G1 X61.171 Y185.873 E45.97336
G1 X60.793 Y185.719 E45.98722
G1 X60.378 Y185.541 E46.00255
G1 X59.546 Y185.141 E46.03389
G1 X58.752 Y184.67 E46.06524
G1 X58.35 Y184.394 E46.08179
G1 X58.182 Y184.273 E46.08882
G1 X57.822 Y184.002 E46.10412
G1 X57.452 Y183.711 E46.1201
G1 X56.752 Y183.109 E46.15145
G1 X56.106 Y182.449 E46.18281
G1 X55.779 Y182.067 E46.19988
G1 X55.638 Y181.894 E46.20746
G1 X55.345 Y181.518 E46.22364
G1 X55.073 Y181.152 E46.23912
G1 X54.555 Y180.387 E46.27049
G1 X54.105 Y179.581 E46.30183
G1 X53.868 Y179.078 E46.32071
G1 X53.778 Y178.873 E46.32831
G1 X53.645 Y178.555 E46.34002
G1 X53.479 Y178.141 E46.35516
G1 X53.173 Y177.27 E46.3865
G1 X52.943 Y176.376 E46.41784
G1 X52.846 Y175.854 E46.43587
G1 X52.812 Y175.641 E46.44319
G1 X52.754 Y175.227 E46.45739
G1 X52.699 Y174.767 E46.47312
G1 X52.63 Y173.846 E46.50447
G1 X52.622 Y173.599 E46.51286
G1 X52.616 Y173.346 E46.52146
G1 X52.614 Y173.115 E46.5293
G1 X52.614 Y87.101 E49.44964
G1 X52.615 Y66.174 E50.16016
G1 X52.616 Y66.013 E50.16562
G1 X52.626 Y65.35 E50.18813
G1 X52.68 Y64.429 E50.21946
G1 X52.814 Y63.515 E50.25082
G1 X53.026 Y62.616 E50.28218
G1 X53.314 Y61.74 E50.31349
G1 X53.678 Y60.891 E50.34485
G1 X54.114 Y60.077 E50.3762
G1 X54.619 Y59.304 E50.40755
G1 X55.188 Y58.577 E50.4389
G1 X55.819 Y57.903 E50.47024
G0 F6000 X55.621 Y58.75
G1 F1200 X56.249 Y58.099 E50.50096
G1 X56.931 Y57.506 E50.53164
G1 X57.664 Y56.976 E50.56235
G1 X58.44 Y56.513 E50.59303
G1 X59.254 Y56.12 E50.62372
G1 X60.1 Y55.8 E50.65443
G1 X60.97 Y55.557 E50.6851
G1 X61.859 Y55.391 E50.7158
G1 X62.939 Y55.297 E50.75261
G1 X63.264 Y55.286 E50.76365
G1 X63.61 Y55.28 E50.7754
G1 X90.842 Y55.28 E51.69998
G1 X93.494 Y55.242 E51.79003
G1 X94.338 Y55.21 E51.8187
G1 X94.56 Y55.203 E51.82625
G1 X95.873 Y55.181 E51.87083
G1 X96.044 Y55.18 E51.87664
G1 X118.856 Y55.18 E52.65115
G1 X118.999 Y55.181 E52.656
G1 X119.715 Y55.191 E52.68032
G1 X119.789 Y55.192 E52.68283
G1 X123.928 Y55.28 E52.82339
G1 X166.018 Y55.28 E54.25242
G1 X166.164 Y55.281 E54.25738
G1 X166.862 Y55.291 E54.28108
G1 X167.765 Y55.344 E54.31179
G1 X168.659 Y55.476 E54.34248
G1 X169.538 Y55.687 E54.37317
G1 X170.395 Y55.975 E54.40386
G1 X171.223 Y56.338 E54.43456
G1 X172.016 Y56.772 E54.46525
G1 X172.768 Y57.274 E54.49595
G1 X173.472 Y57.841 E54.52664
G1 X174.123 Y58.468 E54.55733
G1 X174.716 Y59.15 E54.58801
G1 X175.247 Y59.882 E54.61871
G1 X175.711 Y60.658 E54.64941
G1 X176.104 Y61.472 E54.6801
G1 X176.424 Y62.317 E54.71078
G1 X176.669 Y63.188 E54.7415
G1 X176.835 Y64.076 E54.77217
G1 X176.932 Y65.223 E54.81125
G1 X176.941 Y65.543 E54.82212
G1 X176.945 Y65.83 E54.83187
G1 X176.946 Y151.898 E57.75404
G1 X176.945 Y172.764 E58.46248
G1 X176.944 Y172.904 E58.46724
G1 X176.934 Y173.634 E58.49202
G1 X176.886 Y174.489 E58.5211
G1 X176.863 Y174.724 E58.52912
G1 X176.808 Y175.184 E58.54484
G1 X176.745 Y175.622 E58.55987
G1 X176.577 Y176.51 E58.59055
G1 X176.331 Y177.38 E58.62125
G1 X176.167 Y177.839 E58.6378
G1 X176.085 Y178.052 E58.64555
G1 X175.948 Y178.389 E58.6579
G1 X175.771 Y178.804 E58.67322
G1 X175.38 Y179.619 E58.70391
G1 X174.918 Y180.397 E58.73463
G1 X174.484 Y181.009 E58.7601
G1 X174.075 Y181.543 E58.78294
G1 X173.494 Y182.236 E58.81364
G1 X172.854 Y182.875 E58.84435
G1 X172.45 Y183.225 E58.8625
G1 X172.276 Y183.368 E58.87014
G1 X171.869 Y183.685 E58.88766
G1 X171.499 Y183.959 E58.90329
G1 X170.75 Y184.464 E58.93396
G1 X169.572 Y185.083 E58.97914
G1 X169.372 Y185.172 E58.98657
G1 X169.029 Y185.318 E58.99923
G1 X168.621 Y185.482 E59.01416
G1 X167.768 Y185.781 E59.04485
G1 X166.512 Y186.076 E59.08865
G1 X166.299 Y186.112 E59.09599
G1 X165.807 Y186.183 E59.11286
G1 X165.346 Y186.238 E59.12863
G1 X164.498 Y186.304 E59.1575
G1 X164.245 Y186.313 E59.1661
G1 X163.969 Y186.319 E59.17547
G1 X163.735 Y186.321 E59.18342
G1 X85.526 Y186.321 E61.83877
G1 X66.58 Y186.32 E62.48202
G1 X66.434 Y186.319 E62.48698
G1 X65.734 Y186.309 E62.51075
G1 X64.89 Y186.262 E62.53945
G1 X64.664 Y186.24 E62.54715
G1 X64.215 Y186.186 E62.56251
G1 X63.772 Y186.123 E62.5777
G1 X62.884 Y185.956 E62.60838
G1 X62.013 Y185.712 E62.63909
G1 X61.545 Y185.545 E62.65596
G1 X61.329 Y185.462 E62.66382
