;FLAVOR:Marlin
;TIME:13000
;Filament used: 14.3369m
;Layer height: 0.2
;MINX:51.735
;MINY:53.72
;MINZ:0.2
;MAXX:178.266
;MAXY:187.641
;MAXZ:18
;POSTPROCESSED
;Generated with Cura_SteamEngine master
M140 S60
M105
M190 S60
M104 S200
M105
M109 S200
M82 ;absolute extrusion mode
M201 X500.00 Y500.00 Z100.00 E5000.00 ;Setup machine max acceleration
M203 X500.00 Y500.00 Z10.00 E50.00 ;Setup machine max feedrate
M204 P500.00 R1000.00 T500.00 ;Setup Print/Retract/Travel acceleration
M205 X8.00 Y8.00 Z0.40 E5.00 ;Setup Jerk
M220 S100 ;Reset Feedrate
M221 S100 ;Reset Flowrate
; Home all axes
G28 X0 Y0
G28 Z0
; Set K-Factor
M900 K0.1
M141 S28
G92 E0
G92 E0
G1 F2700 E-2
;LAYER_COUNT:90
;LAYER:0
M107
G0 F6000 X54.956 Y57.522 Z0.2
;TYPE:SKIRT
G1 F2700 E0
G1 F1200 X55.649 Y56.857 E0.03261
G1 X56.395 Y56.252 E0.06522
G1 X57.189 Y55.711 E0.09784
G1 X58.025 Y55.238 E0.13045
G1 X58.897 Y54.836 E0.16305
G1 X59.8 Y54.508 E0.19567
G1 X60.727 Y54.256 E0.22829
G1 X61.672 Y54.082 E0.26091
G1 X62.961 Y53.974 E0.30483
G1 X63.281 Y53.965 E0.3157
G1 X63.605 Y53.96 E0.3267
G1 X106.057 Y53.96 E1.76803
G1 X110.873 Y53.862 E1.93157
G1 X111.108 Y53.86 E1.93955
G1 X134.106 Y53.86 E2.72038
G1 X134.269 Y53.861 E2.72591
G1 X134.975 Y53.871 E2.74989
G1 X135.138 Y53.875 E2.75542
G1 X137.811 Y53.951 E2.84621
G1 X139.136 Y53.96 E2.8912
G1 X166.018 Y53.96 E3.8039
G1 X166.183 Y53.961 E3.8095
G1 X166.881 Y53.971 E3.8332
G1 X167.84 Y54.025 E3.86581
G1 X168.792 Y54.158 E3.89845
G1 X169.729 Y54.37 E3.93106
G1 X170.645 Y54.659 E3.96367
G1 X171.534 Y55.024 E3.9963
G1 X172.389 Y55.461 E4.0289
G1 X173.205 Y55.967 E4.0615
G1 X173.976 Y56.54 E4.09412
G1 X174.697 Y57.175 E4.12674
G1 X175.363 Y57.868 E4.15937
G1 X175.969 Y58.613 E4.19198
G1 X176.51 Y59.407 E4.2246
G1 X176.984 Y60.243 E4.25723
G1 X177.386 Y61.115 E4.28983
G1 X177.715 Y62.018 E4.32246
G1 X177.967 Y62.944 E4.35504
G1 X178.142 Y63.889 E4.38767
G1 X178.251 Y65.186 E4.43186
G1 X178.26 Y65.506 E4.44273
G1 X178.265 Y65.83 E4.45373
G1 X178.266 Y172.768 E8.08448
G1 X178.265 Y172.928 E8.08992
G1 X178.255 Y173.647 E8.11433
G1 X178.205 Y174.566 E8.14558
G1 X178.185 Y174.779 E8.15284
G1 X178.118 Y175.343 E8.17213
G1 X178.055 Y175.781 E8.18715
G1 X177.879 Y176.725 E8.21975
G1 X177.625 Y177.652 E8.25239
G1 X177.375 Y178.354 E8.27769
G1 X177.176 Y178.861 E8.29618
G1 X177.041 Y179.191 E8.30828
G1 X176.984 Y179.324 E8.3132
G1 X176.569 Y180.19 E8.3458
G1 X176.084 Y181.019 E8.37841
G1 X175.659 Y181.635 E8.40382
G1 X175.379 Y182.014 E8.41982
G1 X175.155 Y182.308 E8.43237
G1 X175.035 Y182.46 E8.43894
G1 X174.408 Y183.188 E8.47156
G1 X173.724 Y183.862 E8.50417
G1 X173.166 Y184.337 E8.52905
G1 X172.734 Y184.681 E8.54779
G1 X171.958 Y185.247 E8.58041
G1 X171.138 Y185.747 E8.61301
G1 X170.652 Y186.001 E8.63163
G1 X170.111 Y186.268 E8.65211
G1 X169.29 Y186.635 E8.68265
G1 X169.12 Y186.703 E8.68886
G1 X168.214 Y187.022 E8.72148
G1 X167.284 Y187.265 E8.75411
G1 X166.54 Y187.401 E8.77979
G1 X165.958 Y187.488 E8.79977
G1 X164.847 Y187.6 E8.83768
G1 X164.382 Y187.624 E8.85349
G1 X163.787 Y187.639 E8.8737
G1 X66.582 Y187.641 E12.174
G1 X66.416 Y187.64 E12.17963
G1 X65.72 Y187.63 E12.20327
G1 X64.797 Y187.58 E12.23465
G1 X64.586 Y187.56 E12.24184
G1 X64.014 Y187.491 E12.26141
G1 X63.574 Y187.427 E12.2765
G1 X62.63 Y187.249 E12.30912
G1 X61.704 Y186.993 E12.34174
G1 X61.023 Y186.751 E12.36627
G1 X60.518 Y186.553 E12.38469
G1 X60.184 Y186.416 E12.39695
G1 X60.051 Y186.359 E12.40186
G1 X59.185 Y185.944 E12.43446
G1 X58.356 Y185.459 E12.46707
G1 X57.74 Y185.034 E12.49248
G1 X57.361 Y184.754 E12.50848
G1 X57.067 Y184.53 E12.52103
G1 X56.915 Y184.41 E12.52761
G1 X56.187 Y183.783 E12.56023
G1 X55.513 Y183.099 E12.59283
G1 X55.038 Y182.541 E12.61771
G1 X54.694 Y182.109 E12.63646
G1 X54.128 Y181.333 E12.66907
G1 X53.628 Y180.513 E12.70168
G1 X53.37 Y180.02 E12.72057
G1 X53.1 Y179.472 E12.74131
G1 X52.733 Y178.647 E12.77197
G1 X52.668 Y178.484 E12.77793
G1 X52.349 Y177.577 E12.81057
G1 X52.108 Y176.648 E12.84315
G1 X51.975 Y175.923 E12.86818
G1 X51.887 Y175.337 E12.8883
G1 X51.773 Y174.199 E12.92713
G1 X51.75 Y173.739 E12.94277
G1 X51.736 Y173.163 E12.96233
G1 X51.735 Y66.174 E16.59481
G1 X51.736 Y66 E16.60072
G1 X51.746 Y65.335 E16.6233
G1 X51.801 Y64.376 E16.65592
G1 X51.935 Y63.425 E16.68852
G1 X52.147 Y62.488 E16.72114
G1 X52.437 Y61.573 E16.75373
G1 X52.802 Y60.684 E16.78636
G1 X53.24 Y59.829 E16.81897
G1 X53.747 Y59.013 E16.85159
G1 X54.32 Y58.242 E16.8842
G1 X54.956 Y57.522 E16.91682
G0 F6000 X55.387 Y57.709
G1 F1200 X56.077 Y57.068 E16.9488
G1 X56.819 Y56.487 E16.98079
G1 X57.607 Y55.971 E17.01277
G1 X58.437 Y55.524 E17.04478
G1 X59.301 Y55.149 E17.07676
G1 X60.194 Y54.848 E17.10875
G1 X61.109 Y54.624 E17.14074
G1 X62.04 Y54.479 E17.17273
G1 X62.973 Y54.413 E17.20448
G1 X63.293 Y54.404 E17.21535
G1 X63.605 Y54.4 E17.22595
G1 X106.066 Y54.4 E18.66758
G1 X110.882 Y54.302 E18.83113
G1 X111.108 Y54.3 E18.8388
G1 X134.106 Y54.3 E19.61963
G1 X134.263 Y54.301 E19.62496
G1 X134.969 Y54.311 E19.64893
G1 X135.126 Y54.314 E19.65426
G1 X137.843 Y54.391 E19.74655
G1 X139.132 Y54.4 E19.79031
G1 X166.018 Y54.4 E20.70314
G1 X166.177 Y54.401 E20.70854
G1 X166.875 Y54.411 E20.73224
G1 X167.816 Y54.465 E20.76424
G1 X168.748 Y54.598 E20.79621
G1 X169.666 Y54.809 E20.82819
G1 X170.563 Y55.098 E20.86019
G1 X171.432 Y55.462 E20.89217
G1 X172.267 Y55.898 E20.92416
G1 X173.062 Y56.403 E20.95613
G1 X173.812 Y56.974 E20.98814
G1 X174.51 Y57.607 E21.02013
G1 X175.152 Y58.296 E21.0521
G1 X175.734 Y59.037 E21.08409
G1 X176.25 Y59.825 E21.11607
G1 X176.698 Y60.654 E21.14807
G1 X177.073 Y61.518 E21.18004
G1 X177.375 Y62.411 E21.21205
G1 X177.599 Y63.326 E21.24403
G1 X177.745 Y64.257 E21.27603
G1 X177.812 Y65.198 E21.30806
G1 X177.821 Y65.518 E21.31893
G1 X177.825 Y65.83 E21.32952
G1 X177.826 Y172.768 E24.96027
G1 X177.825 Y172.922 E24.9655
G1 X177.815 Y173.641 E24.98992
G1 X177.767 Y174.525 E25.01998
G1 X177.747 Y174.738 E25.02724
G1 X177.683 Y175.28 E25.04577
G1 X177.62 Y175.718 E25.06079
G1 X177.446 Y176.644 E25.09278
G1 X177.195 Y177.552 E25.12477
G1 X176.966 Y178.194 E25.14791
G1 X176.767 Y178.701 E25.1664
G1 X176.637 Y179.018 E25.17803
G1 X176.58 Y179.151 E25.18295
G1 X176.172 Y180 E25.21493
G1 X175.694 Y180.812 E25.24692
G1 X175.305 Y181.374 E25.27012
G1 X175.025 Y181.753 E25.28612
G1 X174.809 Y182.035 E25.29818
G1 X174.689 Y182.187 E25.30476
G1 X174.075 Y182.901 E25.33673
G1 X173.402 Y183.56 E25.36871
G1 X172.891 Y183.992 E25.39143
G1 X172.459 Y184.336 E25.41018
G1 X171.698 Y184.891 E25.44216
G1 X170.893 Y185.38 E25.47414
G1 X170.457 Y185.607 E25.49083
G1 X169.916 Y185.874 E25.51131
G1 X169.126 Y186.226 E25.54067
G1 X168.956 Y186.294 E25.54689
G1 X168.068 Y186.607 E25.57886
G1 X167.156 Y186.843 E25.61084
G1 X166.475 Y186.966 E25.63434
G1 X165.893 Y187.053 E25.65432
G1 X164.824 Y187.16 E25.69079
G1 X164.359 Y187.184 E25.7066
G1 X163.787 Y187.199 E25.72603
G1 X66.582 Y187.201 E29.02633
G1 X66.423 Y187.2 E29.03173
G1 X65.727 Y187.19 E29.05536
G1 X64.839 Y187.141 E29.08555
G1 X64.628 Y187.121 E29.09275
G1 X64.077 Y187.055 E29.11159
G1 X63.637 Y186.991 E29.12669
G1 X62.712 Y186.816 E29.15865
G1 X61.804 Y186.563 E29.19065
G1 X61.183 Y186.341 E29.21304
G1 X60.678 Y186.143 E29.23146
G1 X60.357 Y186.012 E29.24323
G1 X60.224 Y185.955 E29.24814
G1 X59.375 Y185.547 E29.28012
G1 X58.563 Y185.069 E29.31212
G1 X58.001 Y184.68 E29.33532
G1 X57.622 Y184.4 E29.35132
G1 X57.34 Y184.184 E29.36338
G1 X57.188 Y184.064 E29.36996
G1 X56.474 Y183.45 E29.40193
G1 X55.815 Y182.777 E29.43391
G1 X55.383 Y182.266 E29.45663
G1 X55.039 Y181.834 E29.47538
G1 X54.484 Y181.073 E29.50735
G1 X53.995 Y180.268 E29.53933
G1 X53.765 Y179.826 E29.55625
G1 X53.495 Y179.278 E29.57699
G1 X53.142 Y178.484 E29.60649
G1 X53.077 Y178.321 E29.61245
G1 X52.765 Y177.431 E29.64447
G1 X52.53 Y176.519 E29.67645
G1 X52.41 Y175.857 E29.69929
G1 X52.322 Y175.271 E29.71941
G1 X52.213 Y174.177 E29.75674
G1 X52.19 Y173.717 E29.77237
G1 X52.176 Y173.163 E29.79119
G1 X52.175 Y66.174 E33.42367
G1 X52.176 Y66.007 E33.42934
G1 X52.186 Y65.342 E33.45192
G1 X52.24 Y64.402 E33.48389
G1 X52.374 Y63.469 E33.51589
G1 X52.586 Y62.551 E33.54788
G1 X52.876 Y61.654 E33.57989
G1 X53.24 Y60.786 E33.61185
G1 X53.677 Y59.951 E33.64384
G1 X54.183 Y59.156 E33.67584
G1 X54.754 Y58.407 E33.70782
G1 X55.387 Y57.709 E33.73981
G0 F6000 X55.818 Y57.901
G1 F1200 X56.504 Y57.283 E33.77116
G1 X57.242 Y56.728 E33.80251
G1 X58.024 Y56.238 E33.83384
G1 X58.846 Y55.817 E33.8652
G1 X59.701 Y55.469 E33.89654
G1 X60.584 Y55.197 E33.92791
G1 X61.486 Y55.002 E33.95924
G1 X62.402 Y54.886 E33.99059
G1 X62.985 Y54.853 E34.01041
G1 X63.305 Y54.844 E34.02128
G1 X63.605 Y54.84 E34.03147
G1 X106.075 Y54.84 E35.47341
G1 X110.891 Y54.742 E35.63695
G1 X111.108 Y54.74 E35.64432
G1 X134.106 Y54.74 E36.42515
G1 X134.257 Y54.741 E36.43028
G1 X134.963 Y54.751 E36.45425
G1 X135.114 Y54.754 E36.45938
G1 X137.828 Y54.831 E36.55156
G1 X139.129 Y54.84 E36.59573
G1 X166.018 Y54.84 E37.50867
G1 X166.171 Y54.841 E37.51386
G1 X166.869 Y54.851 E37.53756
G1 X167.79 Y54.904 E37.56888
G1 X168.704 Y55.037 E37.60024
G1 X169.603 Y55.248 E37.63159
G1 X170.48 Y55.537 E37.66294
G1 X171.329 Y55.9 E37.69429
G1 X172.143 Y56.335 E37.72563
G1 X172.917 Y56.839 E37.75699
G1 X173.644 Y57.408 E37.78833
G1 X174.319 Y58.038 E37.81968
G1 X174.937 Y58.724 E37.85103
G1 X175.493 Y59.46 E37.88235
G1 X175.984 Y60.243 E37.91373
G1 X176.405 Y61.064 E37.94505
G1 X176.753 Y61.919 E37.97639
G1 X177.026 Y62.801 E38.00774
G1 X177.222 Y63.703 E38.03908
G1 X177.339 Y64.619 E38.07043
G1 X177.372 Y65.21 E38.09053
G1 X177.381 Y65.53 E38.1014
G1 X177.385 Y65.83 E38.11158
G1 X177.386 Y172.768 E41.74234
G1 X177.385 Y172.916 E41.74736
G1 X177.375 Y173.635 E41.77178
G1 X177.329 Y174.484 E41.80064
G1 X177.309 Y174.697 E41.80791
G1 X177.247 Y175.218 E41.82572
G1 X177.184 Y175.656 E41.84075
G1 X177.014 Y176.563 E41.87208
G1 X176.765 Y177.452 E41.90342
G1 X176.556 Y178.033 E41.92438
G1 X176.357 Y178.54 E41.94288
G1 X176.232 Y178.844 E41.95404
G1 X176.175 Y178.977 E41.95895
G1 X175.775 Y179.809 E41.99029
G1 X175.304 Y180.604 E42.02167
G1 X174.951 Y181.112 E42.04267
G1 X174.671 Y181.491 E42.05867
G1 X174.464 Y181.762 E42.07025
G1 X174.344 Y181.914 E42.07682
G1 X173.741 Y182.614 E42.10819
G1 X173.08 Y183.258 E42.13952
G1 X172.617 Y183.648 E42.16007
G1 X172.185 Y183.992 E42.17882
G1 X171.439 Y184.535 E42.21015
G1 X170.263 Y185.212 E42.25622
G1 X169.722 Y185.479 E42.27671
G1 X168.963 Y185.818 E42.30493
G1 X168.793 Y185.886 E42.31115
G1 X167.922 Y186.191 E42.34248
G1 X167.027 Y186.42 E42.37384
G1 X166.41 Y186.531 E42.39513
G1 X165.828 Y186.618 E42.41511
G1 X164.801 Y186.721 E42.45015
G1 X164.336 Y186.745 E42.46596
G1 X163.787 Y186.759 E42.48461
G1 X66.582 Y186.761 E45.7849
G1 X66.429 Y186.76 E45.7901
G1 X65.733 Y186.75 E45.81373
G1 X64.88 Y186.703 E45.84274
G1 X64.669 Y186.683 E45.84993
G1 X64.141 Y186.62 E45.86799
G1 X63.701 Y186.556 E45.88308
G1 X62.794 Y186.384 E45.91443
G1 X61.905 Y186.133 E45.94579
G1 X61.344 Y185.931 E45.96603
G1 X60.839 Y185.733 E45.98445
G1 X60.531 Y185.607 E45.99575
G1 X60.398 Y185.55 E46.00066
G1 X59.566 Y185.15 E46.032
G1 X58.771 Y184.679 E46.06338
G1 X58.263 Y184.326 E46.08438
G1 X57.884 Y184.046 E46.10038
G1 X57.613 Y183.839 E46.11196
G1 X57.461 Y183.719 E46.11853
G1 X56.761 Y183.116 E46.1499
G1 X56.117 Y182.455 E46.18123
G1 X55.727 Y181.992 E46.20179
G1 X55.383 Y181.56 E46.22054
G1 X54.84 Y180.814 E46.25186
G1 X54.16 Y179.631 E46.29819
G1 X53.89 Y179.083 E46.31893
G1 X53.55 Y178.321 E46.34726
G1 X53.485 Y178.158 E46.35322
G1 X53.181 Y177.286 E46.38457
G1 X52.953 Y176.391 E46.41593
G1 X52.845 Y175.792 E46.4366
G1 X52.757 Y175.206 E46.45672
G1 X52.652 Y174.155 E46.49258
G1 X52.629 Y173.695 E46.50821
G1 X52.616 Y173.163 E46.52628
G1 X52.615 Y66.174 E50.15877
G1 X52.616 Y66.014 E50.1642
G1 X52.626 Y65.349 E50.18678
G1 X52.68 Y64.427 E50.21814
G1 X52.813 Y63.513 E50.2495
G1 X53.025 Y62.615 E50.28082
G1 X53.314 Y61.738 E50.31217
G1 X53.678 Y60.889 E50.34354
G1 X54.114 Y60.075 E50.37489
G1 X54.618 Y59.302 E50.40622
G1 X55.188 Y58.576 E50.43756
G1 X55.818 Y57.901 E50.46891
G0 F6000 X55.621 Y58.748
G1 F1200 X56.249 Y58.097 E50.49962
G1 X56.931 Y57.504 E50.5303
G1 X57.663 Y56.974 E50.56098
G1 X58.439 Y56.511 E50.59166
G1 X59.253 Y56.118 E50.62235
G1 X60.099 Y55.798 E50.65306
G1 X60.97 Y55.555 E50.68377
G1 X61.858 Y55.389 E50.71444
G1 X62.998 Y55.293 E50.75328
G1 X63.318 Y55.284 E50.76415
G1 X63.605 Y55.28 E50.77389
G1 X106.084 Y55.28 E52.21614
G1 X110.9 Y55.182 E52.37968
G1 X111.108 Y55.18 E52.38675
G1 X134.106 Y55.18 E53.16757
G1 X134.251 Y55.181 E53.1725
G1 X134.957 Y55.191 E53.19647
G1 X135.101 Y55.194 E53.20136
G1 X137.812 Y55.271 E53.29344
G1 X139.126 Y55.28 E53.33805
G1 X166.018 Y55.28 E54.25109
G1 X166.164 Y55.281 E54.25605
G1 X166.862 Y55.291 E54.27975
G1 X167.765 Y55.344 E54.31046
G1 X168.659 Y55.476 E54.34114
G1 X169.538 Y55.687 E54.37183
G1 X170.395 Y55.975 E54.40253
G1 X171.223 Y56.338 E54.43322
G1 X172.016 Y56.772 E54.46392
G1 X172.768 Y57.274 E54.49461
G1 X173.472 Y57.841 E54.5253
G1 X174.123 Y58.468 E54.55599
G1 X174.716 Y59.15 E54.58668
G1 X175.247 Y59.882 E54.61738
G1 X175.711 Y60.658 E54.64808
G1 X176.104 Y61.472 E54.67877
G1 X176.424 Y62.317 E54.70944
G1 X176.669 Y63.188 E54.74016
G1 X176.835 Y64.076 E54.77083
G1 X176.932 Y65.223 E54.80992
G1 X176.941 Y65.543 E54.82079
G1 X176.945 Y65.83 E54.83053
G1 X176.946 Y172.768 E58.46128
G1 X176.945 Y172.91 E58.46611
G1 X176.935 Y173.629 E58.49052
G1 X176.891 Y174.442 E58.51816
G1 X176.871 Y174.655 E58.52543
G1 X176.812 Y175.155 E58.54252
G1 X176.749 Y175.593 E58.55754
G1 X176.581 Y176.481 E58.58823
G1 X176.335 Y177.351 E58.61892
G1 X176.146 Y177.872 E58.63774
G1 X175.947 Y178.379 E58.65623
G1 X175.828 Y178.671 E58.66694
G1 X175.771 Y178.804 E58.67185
G1 X175.378 Y179.618 E58.70254
G1 X174.915 Y180.395 E58.73325
G1 X174.597 Y180.851 E58.75213
G1 X174.317 Y181.23 E58.76812
G1 X174.119 Y181.49 E58.77922
G1 X173.999 Y181.642 E58.78579
G1 X173.408 Y182.326 E58.81649
G1 X172.758 Y182.955 E58.8472
G1 X172.343 Y183.304 E58.86561
G1 X171.911 Y183.648 E58.88436
G1 X171.18 Y184.179 E58.91503
G1 X170.068 Y184.818 E58.95858
G1 X169.527 Y185.085 E58.97906
G1 X168.8 Y185.409 E59.00608
G1 X168.63 Y185.477 E59.0123
G1 X167.776 Y185.775 E59.04301
G1 X166.9 Y185.997 E59.07369
G1 X166.345 Y186.096 E59.09283
G1 X165.763 Y186.183 E59.11281
G1 X164.779 Y186.281 E59.14638
G1 X164.314 Y186.305 E59.16219
G1 X163.787 Y186.319 E59.18009
G1 X66.582 Y186.321 E62.48039
G1 X66.435 Y186.32 E62.48538
G1 X65.739 Y186.31 E62.50901
G1 X64.922 Y186.265 E62.5368
G1 X64.711 Y186.245 E62.54399
G1 X64.204 Y186.185 E62.56133
G1 X63.764 Y186.121 E62.57642
G1 X62.876 Y185.951 E62.60712
G1 X62.006 Y185.704 E62.63782
G1 X61.504 Y185.522 E62.65595
G1 X60.999 Y185.324 E62.67437
G1 X60.704 Y185.203 E62.6852
G1 X60.571 Y185.146 E62.69011
G1 X59.757 Y184.753 E62.7208
G1 X58.98 Y184.29 E62.75151
G1 X58.524 Y183.972 E62.77038
G1 X58.145 Y183.692 E62.78638
G1 X57.885 Y183.494 E62.79748
G1 X57.733 Y183.374 E62.80405
G1 X57.049 Y182.783 E62.83474
G1 X56.42 Y182.133 E62.86545
G1 X56.071 Y181.718 E62.88386
G1 X55.727 Y181.286 E62.90261
G1 X55.196 Y180.555 E62.93329
G1 X54.554 Y179.437 E62.97706
G1 X54.284 Y178.889 E62.9978
G1 X53.959 Y178.158 E63.02496
G1 X53.894 Y177.995 E63.03092
G1 X53.597 Y177.141 E63.06162
G1 X53.376 Y176.264 E63.09232
G1 X53.28 Y175.727 E63.11085
G1 X53.192 Y175.141 E63.13096
G1 X53.092 Y174.133 E63.16536
G1 X53.069 Y173.673 E63.18099
G1 X53.056 Y173.163 E63.19831
G1 X53.055 Y66.174 E66.8308
G1 X53.056 Y66.02 E66.83603
G1 X53.066 Y65.355 E66.85861
G1 X53.12 Y64.453 E66.88929
G1 X53.253 Y63.559 E66.91998
G1 X53.464 Y62.68 E66.95067
G1 X53.753 Y61.823 E66.98137
G1 X54.116 Y60.995 E67.01207
G1 X54.551 Y60.203 E67.04275
G1 X55.054 Y59.452 E67.07344
G1 X55.621 Y58.748 E67.10413
G1 F2700 E65.10413
;MESH:New_Top_Drawer.stl
G0 F6000 X65.94 Y175.001
;TYPE:WALL-INNER
G1 F2700 E67.10413
G1 F1200 X65.491 Y174.943 E67.1195
G1 X65.126 Y174.791 E67.13292
G1 X64.818 Y174.555 E67.1461
G1 X64.584 Y174.249 E67.15917
G1 X64.432 Y173.88 E67.17272
G1 X64.375 Y173.437 E67.18789
