;FLAVOR:Marlin
;TIME:14378
;Filament used: 12.0825m
;Layer height: 0.2
;MINX:37.25
;MINY:42
;MINZ:0.2
;MAXX:197.75
;MAXY:193
;MAXZ:4
;Generated with Cura_SteamEngine 4.6.1
M82 ;absolute extrusion mode
M201 X500 Y500 Z100 E5000 ;Setup machine max acceleration
M203 X500 Y500 Z10 E50 ;Setup machine max feedrate
M204 P500 T500 ;Setup Print/Travel acceleration
M205 X10 Y10 Z0.4 E5 ;Setup Jerk
;M207 F45 S1.0 Z0.2 ;Setup firmware-based retraction
;M208 F45 S0 ;Setup firmware-based retraction (recovery)
;M209 S0 ;Disable Auto Retract
M104 S205.0 ;Start heating extruder
M140 S60 ;Start heating bed
G28 ;Home all axes
G29 J ;Adjust the existing mesh to the bed tilt
G0 X255 F5000 ;Move over purge bucket
M109 S205.0 ;Wait for extruder to reach temp before proceeding
G92 E0 ;Zero the extruded length
G1 E15 F50 ;Purge nozzle
G92 E0 ;Zero the extruded length again
G12 ;Clean the nozzle
M190 S60 ;Wait for bed to reach temp before proceeding
M109 S205.0 ; Wait for extruder to reach temp before proceeding
M220 S100 ;Reset Feedrate
M221 S100 ;Reset Flowrate
G92 E0
G92 E0
G1 F2700 E-1
;LAYER_COUNT:20
;LAYER:0
M107
G0 F6000 X186.887 Y42.811 Z0.2
;TYPE:SKIRT
G1 F2700 E0
G1 F1200 X187.789 Y42.864 E0.03005
G1 X188.682 Y42.996 E0.06008
G1 X189.56 Y43.207 E0.09011
G1 X190.416 Y43.495 E0.12015
G1 X191.243 Y43.857 E0.15018
G1 X192.035 Y44.292 E0.18023
G1 X192.786 Y44.794 E0.21027
G1 X193.489 Y45.361 E0.24031
G1 X194.139 Y45.988 E0.27035
G1 X194.731 Y46.67 E0.30039
G1 X195.261 Y47.401 E0.33042
G1 X195.723 Y48.177 E0.36046
G1 X196.116 Y48.99 E0.39049
G1 X196.434 Y49.835 E0.42052
G1 X196.677 Y50.705 E0.45056
G1 X196.842 Y51.593 E0.4806
G1 X196.937 Y52.723 E0.51832
G1 X196.95 Y53.33 E0.53851
G1 X196.95 Y129.293 E3.06505
G1 X196.949 Y129.438 E3.06988
G1 X196.939 Y130.143 E3.09333
G1 X196.924 Y130.569 E3.10751
G1 X196.781 Y133.119 E3.19245
G1 X196.709 Y135.667 E3.27723
G1 X196.709 Y138.201 E3.36151
G1 X196.782 Y140.797 E3.44789
G1 X196.848 Y142.113 E3.49172
G1 X196.935 Y143.691 E3.54428
G1 X196.95 Y144.33 E3.56554
G1 X196.949 Y181.39 E4.79816
G1 X196.94 Y182.117 E4.82234
G1 X196.889 Y183.019 E4.85239
G1 X196.758 Y183.913 E4.88244
G1 X196.549 Y184.791 E4.91246
G1 X196.263 Y185.648 E4.94251
G1 X195.902 Y186.476 E4.97255
G1 X195.47 Y187.268 E5.00256
G1 X194.969 Y188.02 E5.03261
G1 X194.403 Y188.724 E5.06266
G1 X193.778 Y189.375 E5.09267
G1 X193.097 Y189.969 E5.12273
G1 X192.366 Y190.5 E5.15278
G1 X191.592 Y190.964 E5.1828
G1 X190.779 Y191.358 E5.21284
G1 X189.935 Y191.678 E5.24287
G1 X189.065 Y191.923 E5.27293
G1 X188.178 Y192.089 E5.30294
G1 X187.027 Y192.187 E5.34136
G1 X186.42 Y192.2 E5.36156
G1 X83.007 Y192.2 E8.80109
G1 X82.177 Y192.19 E8.82869
G1 X81.276 Y192.139 E8.85871
G1 X80.382 Y192.007 E8.88877
G1 X79.504 Y191.798 E8.91878
G1 X78.647 Y191.511 E8.94884
G1 X77.82 Y191.15 E8.97886
G1 X77.027 Y190.717 E9.00891
G1 X76.276 Y190.216 E9.03893
G1 X75.572 Y189.65 E9.06898
G1 X74.921 Y189.024 E9.09902
G1 X74.328 Y188.343 E9.12905
G1 X73.798 Y187.612 E9.15908
G1 X73.334 Y186.837 E9.18913
G1 X72.94 Y186.024 E9.21917
G1 X72.62 Y185.18 E9.2492
G1 X72.376 Y184.31 E9.27925
G1 X72.21 Y183.422 E9.3093
G1 X72.113 Y182.267 E9.34785
G1 X72.1 Y181.658 E9.36811
G1 X72.1 Y138.23 E10.81253
G1 X72.063 Y135.624 E10.89921
G1 X71.954 Y133.056 E10.9847
G1 X71.777 Y130.554 E11.06813
G1 X71.528 Y128.041 E11.15212
G1 X71.2 Y125.478 E11.23806
G1 X70.809 Y122.993 E11.32173
G1 X70.349 Y120.517 E11.40549
G1 X69.804 Y117.983 E11.4917
G1 X69.21 Y115.565 E11.57451
G1 X68.53 Y113.089 E11.65991
G1 X67.796 Y110.692 E11.74329
G1 X66.971 Y108.247 E11.82912
G1 X66.098 Y105.879 E11.91306
G1 X65.158 Y103.538 E11.99696
G1 X64.131 Y101.179 E12.08254
G1 X63.063 Y98.9 E12.16625
G1 X61.902 Y96.593 E12.25215
G1 X60.717 Y94.401 E12.33502
G1 X59.446 Y92.197 E12.41965
G1 X58.098 Y90.006 E12.50521
G1 X56.726 Y87.911 E12.5885
G1 X55.259 Y85.804 E12.67389
G1 X53.762 Y83.778 E12.75767
G1 X52.197 Y81.781 E12.84206
G1 X50.554 Y79.803 E12.92759
G1 X48.889 Y77.91 E13.01144
G1 X47.159 Y76.049 E13.09595
G1 X45.393 Y74.256 E13.17965
G1 X43.542 Y72.481 E13.26495
G1 X41.355 Y70.499 E13.36312
G1 X40.718 Y69.859 E13.39315
G1 X40.14 Y69.165 E13.42319
G1 X39.626 Y68.423 E13.45321
G1 X39.179 Y67.638 E13.48326
G1 X38.804 Y66.816 E13.51331
G1 X38.502 Y65.965 E13.54334
G1 X38.277 Y65.09 E13.57339
G1 X38.131 Y64.199 E13.60342
G1 X38.063 Y63.277 E13.63417
G1 X38.05 Y62.67 E13.65436
G1 X38.051 Y53.536 E13.95816
G1 X38.06 Y52.871 E13.98028
G1 X38.112 Y51.969 E14.01033
G1 X38.244 Y51.076 E14.04035
G1 X38.454 Y50.198 E14.07038
G1 X38.741 Y49.341 E14.10044
G1 X39.103 Y48.514 E14.13047
G1 X39.536 Y47.722 E14.16049
G1 X40.038 Y46.971 E14.19053
G1 X40.605 Y46.267 E14.2206
G1 X41.231 Y45.617 E14.25061
G1 X41.912 Y45.024 E14.28065
G1 X42.644 Y44.494 E14.3107
G1 X43.419 Y44.031 E14.34073
G1 X44.232 Y43.638 E14.37077
G1 X45.077 Y43.318 E14.40082
G1 X45.946 Y43.075 E14.43083
G1 X46.834 Y42.909 E14.46088
G1 X47.973 Y42.813 E14.49889
G1 X48.58 Y42.8 E14.51909
G1 X186.043 Y42.8 E19.09113
G1 X186.189 Y42.801 E19.09598
G1 X186.887 Y42.811 E19.1192
G0 F6000 X186.893 Y42.411
G1 F1200 X187.812 Y42.464 E19.14982
G1 X188.723 Y42.597 E19.18044
G1 X189.619 Y42.808 E19.21105
G1 X190.493 Y43.096 E19.24166
G1 X191.34 Y43.459 E19.27231
G1 X192.151 Y43.894 E19.30292
G1 X192.921 Y44.398 E19.33353
G1 X193.645 Y44.967 E19.36415
G1 X194.317 Y45.597 E19.39479
G1 X194.932 Y46.282 E19.42541
G1 X195.485 Y47.018 E19.45603
G1 X195.972 Y47.799 E19.48664
G1 X196.389 Y48.62 E19.51727
G1 X196.734 Y49.474 E19.5479
G1 X197.003 Y50.354 E19.57851
G1 X197.195 Y51.255 E19.60915
G1 X197.308 Y52.168 E19.63975
G1 X197.337 Y52.712 E19.65787
G1 X197.35 Y53.33 E19.67843
G1 X197.35 Y129.293 E22.20497
G1 X197.349 Y129.443 E22.20995
G1 X197.339 Y130.148 E22.23341
G1 X197.323 Y130.591 E22.24815
G1 X197.182 Y133.115 E22.33223
G1 X197.109 Y135.679 E22.41754
G1 X197.109 Y138.19 E22.50106
G1 X197.182 Y140.765 E22.58674
G1 X197.252 Y142.172 E22.63359
G1 X197.335 Y143.679 E22.68379
G1 X197.35 Y144.33 E22.70545
G1 X197.349 Y181.395 E23.93824
G1 X197.34 Y182.122 E23.96242
G1 X197.289 Y183.041 E23.99303
G1 X197.158 Y183.953 E24.02368
G1 X196.948 Y184.849 E24.05429
G1 X196.662 Y185.724 E24.0849
G1 X196.301 Y186.571 E24.11553
G1 X195.867 Y187.383 E24.14615
G1 X195.365 Y188.155 E24.17678
G1 X194.797 Y188.88 E24.20741
G1 X194.169 Y189.553 E24.23803
G1 X193.485 Y190.169 E24.26864
G1 X192.75 Y190.723 E24.29925
G1 X191.97 Y191.212 E24.32987
G1 X191.15 Y191.631 E24.3605
G1 X190.297 Y191.977 E24.39112
G1 X189.417 Y192.248 E24.42174
G1 X188.517 Y192.441 E24.45236
G1 X187.603 Y192.556 E24.483
G1 X187.038 Y192.587 E24.50182
G1 X186.42 Y192.6 E24.52238
G1 X83.007 Y192.6 E27.96191
G1 X82.172 Y192.59 E27.98968
G1 X81.253 Y192.538 E28.0203
G1 X80.342 Y192.407 E28.05091
G1 X79.446 Y192.197 E28.08152
G1 X78.571 Y191.91 E28.11214
G1 X77.724 Y191.548 E28.14278
G1 X76.912 Y191.114 E28.1734
G1 X76.141 Y190.612 E28.204
G1 X75.416 Y190.044 E28.23464
G1 X74.743 Y189.415 E28.26527
G1 X74.128 Y188.731 E28.29587
G1 X73.574 Y187.996 E28.32648
G1 X73.086 Y187.215 E28.35711
G1 X72.667 Y186.395 E28.38774
G1 X72.321 Y185.542 E28.41835
G1 X72.051 Y184.662 E28.44897
G1 X71.858 Y183.761 E28.47962
G1 X71.744 Y182.848 E28.51022
G1 X71.713 Y182.277 E28.52924
G1 X71.7 Y181.658 E28.54983
G1 X71.7 Y138.236 E29.99405
G1 X71.663 Y135.611 E30.08137
G1 X71.556 Y133.103 E30.16486
G1 X71.378 Y130.582 E30.24892
G1 X71.128 Y128.064 E30.33308
G1 X70.807 Y125.553 E30.41728
G1 X70.42 Y123.091 E30.50017
G1 X69.951 Y120.569 E30.58549
G1 X69.418 Y118.09 E30.66982
G1 X68.822 Y115.661 E30.75301
G1 X68.15 Y113.217 E30.83731
G1 X67.407 Y110.79 E30.92174
G1 X66.589 Y108.365 E31.00686
G1 X65.728 Y106.03 E31.08963
G1 X64.779 Y103.668 E31.17429
G1 X63.78 Y101.373 E31.25754
G1 X62.694 Y99.056 E31.34265
G1 X61.558 Y96.798 E31.42672
G1 X60.361 Y94.584 E31.51043
G1 X59.093 Y92.385 E31.59486
G1 X57.782 Y90.254 E31.67808
G1 X56.391 Y88.13 E31.76252
G1 X54.929 Y86.031 E31.8476
G1 X53.441 Y84.017 E31.93089
G1 X51.873 Y82.016 E32.01544
G1 X50.279 Y80.097 E32.09841
G1 X48.595 Y78.181 E32.18326
G1 X46.864 Y76.32 E32.26779
G1 X45.095 Y74.525 E32.35161
G1 X43.297 Y72.8 E32.43449
G1 X41.084 Y70.794 E32.53383
G1 X40.434 Y70.142 E32.56445
G1 X39.843 Y69.436 E32.59507
G1 X39.316 Y68.681 E32.6257
G1 X38.856 Y67.884 E32.6563
G1 X38.467 Y67.049 E32.68694
G1 X38.151 Y66.184 E32.71757
G1 X37.912 Y65.295 E32.74819
G1 X37.752 Y64.389 E32.77879
G1 X37.663 Y63.288 E32.81553
G1 X37.65 Y62.67 E32.83609
G1 X37.651 Y53.531 E33.14005
G1 X37.66 Y52.866 E33.16217
G1 X37.712 Y51.946 E33.19282
G1 X37.844 Y51.035 E33.22344
G1 X38.055 Y50.139 E33.25405
G1 X38.342 Y49.264 E33.28468
G1 X38.705 Y48.418 E33.3153
G1 X39.139 Y47.606 E33.34592
G1 X39.642 Y46.835 E33.37654
G1 X40.211 Y46.111 E33.40717
G1 X40.839 Y45.439 E33.43776
G1 X41.524 Y44.823 E33.4684
G1 X42.26 Y44.27 E33.49902
G1 X43.041 Y43.782 E33.52965
G1 X43.861 Y43.364 E33.56026
G1 X44.715 Y43.019 E33.5909
G1 X45.595 Y42.749 E33.62151
G1 X46.495 Y42.557 E33.65212
G1 X47.409 Y42.443 E33.68275
G1 X47.962 Y42.413 E33.70117
G1 X48.58 Y42.4 E33.72173
G1 X186.043 Y42.4 E38.29377
G1 X186.195 Y42.401 E38.29883
G1 X186.893 Y42.411 E38.32205
G0 F6000 X186.899 Y42.011
G1 F1200 X187.835 Y42.065 E38.35323
G1 X188.763 Y42.197 E38.38441
G1 X189.677 Y42.409 E38.41561
G1 X190.569 Y42.698 E38.4468
G1 X191.434 Y43.061 E38.478
G1 X192.264 Y43.497 E38.50918
G1 X193.055 Y44.002 E38.5404
G1 X193.799 Y44.573 E38.57159
G1 X194.492 Y45.205 E38.60278
G1 X195.129 Y45.893 E38.63397
G1 X195.704 Y46.634 E38.66516
G1 X196.215 Y47.42 E38.69635
G1 X196.657 Y48.248 E38.72756
G1 X197.026 Y49.11 E38.75875
G1 X197.321 Y50 E38.78994
G1 X197.539 Y50.912 E38.82112
G1 X197.679 Y51.84 E38.85234
G1 X197.737 Y52.701 E38.88104
G1 X197.75 Y53.33 E38.90196
G1 X197.75 Y129.293 E41.4285
G1 X197.749 Y129.449 E41.43369
G1 X197.739 Y130.154 E41.45714
G1 X197.723 Y130.614 E41.47245
G1 X197.581 Y133.151 E41.55697
G1 X197.509 Y135.69 E41.64145
G1 X197.509 Y138.179 E41.72423
G1 X197.583 Y140.78 E41.81078
G1 X197.647 Y142.066 E41.8536
G1 X197.735 Y143.667 E41.90693
G1 X197.745 Y143.997 E41.91791
G1 X197.75 Y144.33 E41.92899
G1 X197.749 Y181.4 E43.16194
G1 X197.74 Y182.127 E43.18612
G1 X197.689 Y183.064 E43.21734
G1 X197.557 Y183.992 E43.24851
G1 X197.348 Y184.906 E43.2797
G1 X197.061 Y185.799 E43.31089
G1 X196.699 Y186.665 E43.34211
G1 X196.265 Y187.496 E43.37329
G1 X195.761 Y188.287 E43.40449
G1 X195.192 Y189.032 E43.43567
G1 X194.561 Y189.727 E43.46689
G1 X193.874 Y190.365 E43.49807
G1 X193.135 Y190.942 E43.52926
G1 X192.349 Y191.454 E43.56046
G1 X191.523 Y191.897 E43.59163
G1 X190.661 Y192.269 E43.62286
G1 X189.772 Y192.565 E43.65402
G1 X188.86 Y192.785 E43.68522
G1 X187.933 Y192.926 E43.71641
G1 X187.049 Y192.987 E43.74588
G1 X186.42 Y193 E43.76681
G1 X83.007 Y193 E47.20634
G1 X82.167 Y192.99 E47.23428
G1 X81.231 Y192.938 E47.26546
G1 X80.302 Y192.806 E47.29667
G1 X79.388 Y192.596 E47.32786
G1 X78.495 Y192.309 E47.35906
G1 X77.63 Y191.946 E47.39026
G1 X76.799 Y191.512 E47.42144
G1 X76.008 Y191.008 E47.45263
G1 X75.263 Y190.438 E47.48383
G1 X74.569 Y189.807 E47.51503
G1 X73.932 Y189.12 E47.54619
G1 X73.355 Y188.38 E47.5774
G1 X72.843 Y187.594 E47.6086
G1 X72.4 Y186.767 E47.63981
G1 X72.029 Y185.906 E47.67099
G1 X71.733 Y185.016 E47.70218
G1 X71.514 Y184.104 E47.73338
G1 X71.373 Y183.177 E47.76457
G1 X71.313 Y182.288 E47.7942
G1 X71.3 Y181.658 E47.81516
G1 X71.3 Y138.242 E49.25918
G1 X71.263 Y135.634 E49.34593
G1 X71.156 Y133.112 E49.42989
G1 X70.979 Y130.614 E49.51318
G1 X70.731 Y128.118 E49.59661
G1 X70.413 Y125.629 E49.68007
G1 X70.019 Y123.12 E49.76454
G1 X69.56 Y120.654 E49.84797
G1 X69.026 Y118.172 E49.93241
G1 X68.44 Y115.783 E50.01422
G1 X67.758 Y113.302 E50.0998
G1 X67.032 Y110.93 E50.18231
G1 X66.221 Y108.527 E50.26666
G1 X65.341 Y106.139 E50.35131
G1 X64.417 Y103.84 E50.43372
G1 X63.409 Y101.524 E50.51773
G1 X62.333 Y99.227 E50.60209
G1 X61.207 Y96.991 E50.68536
G1 X60.012 Y94.781 E50.76892
G1 X58.748 Y92.589 E50.85308
G1 X57.424 Y90.436 E50.93715
G1 X56.061 Y88.355 E51.01989
G1 X54.624 Y86.292 E51.10351
G1 X53.119 Y84.256 E51.18772
G1 X51.566 Y82.273 E51.27149
G1 X49.955 Y80.333 E51.35536
G1 X48.302 Y78.454 E51.4386
G1 X46.585 Y76.608 E51.52245
G1 X44.816 Y74.812 E51.6063
G1 X42.999 Y73.069 E51.69004
G1 X40.813 Y71.088 E51.78816
G1 X40.151 Y70.424 E51.81935
G1 X39.547 Y69.707 E51.85053
G1 X39.007 Y68.94 E51.88173
G1 X38.533 Y68.13 E51.91294
G1 X38.131 Y67.283 E51.94412
G1 X37.802 Y66.405 E51.97531
G1 X37.549 Y65.502 E52.0065
G1 X37.374 Y64.58 E52.03771
G1 X37.263 Y63.299 E52.08048
G1 X37.25 Y62.67 E52.1014
G1 X37.251 Y53.525 E52.40557
G1 X37.26 Y52.86 E52.42769
G1 X37.313 Y51.924 E52.45887
G1 X37.445 Y50.995 E52.49008
G1 X37.656 Y50.081 E52.52128
G1 X37.944 Y49.189 E52.55245
G1 X38.307 Y48.324 E52.58365
G1 X38.742 Y47.493 E52.61485
G1 X39.246 Y46.703 E52.64602
G1 X39.816 Y45.958 E52.67722
G1 X40.448 Y45.264 E52.70844
G1 X41.136 Y44.627 E52.73962
G1 X41.876 Y44.051 E52.77081
G1 X42.662 Y43.539 E52.80201
G1 X43.489 Y43.097 E52.8332
G1 X44.351 Y42.727 E52.8644
G1 X45.241 Y42.431 E52.8956
G1 X46.153 Y42.213 E52.92678
G1 X47.08 Y42.072 E52.95797
G1 X47.951 Y42.013 E52.98701
G1 X48.58 Y42 E53.00793
G1 X186.043 Y42 E57.57997
G1 X186.201 Y42.001 E57.58522
G1 X186.899 Y42.011 E57.60844
G1 F2700 E56.60844
;MESH:Ender3ProCase_RPI_3B_Lid_v3.stl
G0 F6000 X178.412 Y60.846
G0 X179.149 Y59.578
G0 X179.866 Y60.779
G0 X180.11 Y61.368
G0 X180.194 Y62
G0 X180.11 Y62.632
G0 X179.866 Y63.221
G0 X179.478 Y63.728
G0 X178.971 Y64.116
G0 X178.494 Y64.313
G0 X177.076 Y64.517
;TYPE:WALL-INNER
G1 F2700 E57.60844
G1 F1200 X177.75 Y64.605 E57.63105
G1 X178.424 Y64.517 E57.65366
G1 X179.053 Y64.256 E57.67631
G1 X179.592 Y63.842 E57.69891
G1 X180.006 Y63.303 E57.72152
G1 X180.267 Y62.674 E57.74417
G1 X180.355 Y62 E57.76678
G1 X180.267 Y61.326 E57.78938
G1 X180.006 Y60.697 E57.81203
G1 X179.592 Y60.158 E57.83464
G1 X179.053 Y59.744 E57.85724
G1 X178.424 Y59.483 E57.87989
G1 X177.75 Y59.395 E57.9025
G1 X177.076 Y59.483 E57.92511
G1 X176.447 Y59.744 E57.94776
G1 X175.908 Y60.158 E57.97036
G1 X175.494 Y60.697 E57.99297
G1 X175.233 Y61.326 E58.01562
G1 X175.145 Y62 E58.03823
G1 X175.23 Y62.659 E58.06033
G1 X175.493 Y63.302 E58.08343
G1 X175.908 Y63.842 E58.10608
G1 X176.447 Y64.256 E58.12869
G1 X177.076 Y64.517 E58.15134
G0 F6000 X177.18 Y64.127
;TYPE:WALL-OUTER
G1 F1200 X177.75 Y64.202 E58.17046
G1 X178.32 Y64.127 E58.18958
G1 X178.851 Y63.907 E58.2087
G1 X179.307 Y63.557 E58.22782
G1 X179.657 Y63.101 E58.24694
G1 X179.877 Y62.57 E58.26606
G1 X179.952 Y62 E58.28518
G1 X179.877 Y61.43 E58.3043
G1 X179.657 Y60.899 E58.32342
G1 X179.307 Y60.443 E58.34253
G1 X178.851 Y60.093 E58.36165
G1 X178.32 Y59.873 E58.38077
G1 X177.75 Y59.798 E58.39989
G1 X177.18 Y59.873 E58.41901
G1 X176.649 Y60.093 E58.43813
G1 X176.193 Y60.443 E58.45725
G1 X175.843 Y60.899 E58.47637
G1 X175.623 Y61.43 E58.49549
G1 X175.548 Y62 E58.51461
G1 X175.62 Y62.556 E58.53325
G1 X175.843 Y63.101 E58.55284
G1 X176.193 Y63.557 E58.57196
G1 X176.649 Y63.907 E58.59108
G1 X177.18 Y64.127 E58.6102
G0 F6000 X177.067 Y64.552
G1 F2700 E57.6102
G0 F6000 X176.351 Y64.422
G0 X177.088 Y63.154
G0 X124.918 Y172.841
G0 X125.655 Y171.574
G0 X126.372 Y172.775
G0 X126.615 Y173.364
G0 X126.7 Y173.996
G0 X126.615 Y174.628
G0 X126.372 Y175.217
G0 X125.984 Y175.724
G0 X125.574 Y176.038
G0 X124.256 Y176.601
;TYPE:WALL-INNER
G1 F2700 E58.6102
G1 F1200 X124.929 Y176.513 E58.63277
G1 X125.559 Y176.252 E58.65545
G1 X126.098 Y175.838 E58.67806
G1 X126.513 Y175.299 E58.70068
G1 X126.772 Y174.67 E58.72331
G1 X126.862 Y173.996 E58.74592
G1 X126.772 Y173.322 E58.76854
G1 X126.513 Y172.693 E58.79116
G1 X126.098 Y172.154 E58.81379
G1 X125.559 Y171.74 E58.83639
G1 X124.929 Y171.479 E58.85907
G1 X124.256 Y171.391 E58.88165
G1 X123.582 Y171.479 E58.90426
G1 X122.953 Y171.74 E58.92691
G1 X122.413 Y172.154 E58.94954
G1 X121.998 Y172.693 E58.97216
G1 X121.739 Y173.322 E58.99479
G1 X121.651 Y173.996 E59.0174
G1 X121.739 Y174.67 E59.04
G1 X121.998 Y175.299 E59.06263
G1 X122.413 Y175.838 E59.08525
G1 X122.953 Y176.252 E59.10789
G1 X123.582 Y176.513 E59.13054
