;FLAVOR:Marlin
;TIME:14073
;Filament used: 11.9239m
;Layer height: 0.2
;MINX:54
;MINY:42
;MINZ:0.2
;MAXX:181
;MAXY:193
;MAXZ:4
;Generated with Cura_SteamEngine 4.6.1
M82 ;absolute extrusion mode
M201 X500 Y500 Z100 E5000 ;Setup machine max acceleration
M203 X500 Y500 Z10 E50 ;Setup machine max feedrate
M204 P500 T500 ;Setup Print/Travel acceleration
M205 X10 Y10 Z0.4 E5 ;Setup Jerk
;M207 F45 S1.0 Z0.2 ;Setup firmware-based retraction
;M208 F45 S0 ;Setup firmware-based retraction (recovery)
;M209 S0 ;Disable Auto Retract
M104 S205.0 ;Start heating extruder
M140 S60 ;Start heating bed
G28 ;Home all axes
G29 J ;Adjust the existing mesh to the bed tilt
G0 X255 F5000 ;Move over purge bucket
M109 S205.0 ;Wait for extruder to reach temp before proceeding
G92 E0 ;Zero the extruded length
G1 E15 F50 ;Purge nozzle
G92 E0 ;Zero the extruded length again
G12 ;Clean the nozzle
M190 S60 ;Wait for bed to reach temp before proceeding
M109 S205.0 ; Wait for extruder to reach temp before proceeding
M220 S100 ;Reset Feedrate
M221 S100 ;Reset Flowrate
G92 E0
G92 E0
G1 F2700 E-1
;LAYER_COUNT:20
;LAYER:0
M107
G0 F6000 X170.137 Y42.811 Z0.2
;TYPE:SKIRT
G1 F2700 E0
G1 F1200 X171.039 Y42.864 E0.03005
G1 X171.932 Y42.996 E0.06008
G1 X172.81 Y43.207 E0.09011
G1 X173.666 Y43.495 E0.12015
G1 X174.493 Y43.857 E0.15018
G1 X175.285 Y44.292 E0.18023
G1 X176.036 Y44.794 E0.21027
G1 X176.739 Y45.361 E0.24031
G1 X177.389 Y45.988 E0.27035
G1 X177.981 Y46.67 E0.30039
G1 X178.511 Y47.401 E0.33042
G1 X178.973 Y48.177 E0.36046
G1 X179.366 Y48.99 E0.39049
G1 X179.684 Y49.835 E0.42052
G1 X179.927 Y50.705 E0.45056
G1 X180.092 Y51.593 E0.4806
G1 X180.187 Y52.723 E0.51832
G1 X180.2 Y53.33 E0.53851
G1 X180.2 Y181.264 E4.79362
G1 X180.19 Y182.117 E4.82199
G1 X180.139 Y183.019 E4.85204
G1 X180.008 Y183.913 E4.88209
G1 X179.799 Y184.791 E4.91211
G1 X179.513 Y185.648 E4.94216
G1 X179.152 Y186.476 E4.9722
G1 X178.72 Y187.268 E5.00221
G1 X178.219 Y188.02 E5.03226
G1 X177.653 Y188.724 E5.06231
G1 X177.028 Y189.375 E5.09232
G1 X176.347 Y189.969 E5.12238
G1 X175.616 Y190.5 E5.15243
G1 X174.842 Y190.964 E5.18244
G1 X174.029 Y191.358 E5.21249
G1 X173.185 Y191.678 E5.24251
G1 X172.315 Y191.923 E5.27257
G1 X171.428 Y192.089 E5.30259
G1 X170.277 Y192.187 E5.34101
G1 X169.67 Y192.2 E5.3612
G1 X65.707 Y192.2 E8.81903
G1 X64.877 Y192.19 E8.84663
G1 X63.976 Y192.139 E8.87665
G1 X63.082 Y192.007 E8.90671
G1 X62.204 Y191.798 E8.93672
G1 X61.347 Y191.511 E8.96678
G1 X60.52 Y191.15 E8.9968
G1 X59.727 Y190.717 E9.02685
G1 X58.976 Y190.216 E9.05687
G1 X58.272 Y189.65 E9.08692
G1 X57.621 Y189.024 E9.11696
G1 X57.028 Y188.343 E9.14699
G1 X56.498 Y187.612 E9.17702
G1 X56.034 Y186.837 E9.20707
G1 X55.64 Y186.024 E9.23711
G1 X55.32 Y185.18 E9.26714
G1 X55.076 Y184.31 E9.29719
G1 X54.91 Y183.422 E9.32724
G1 X54.813 Y182.267 E9.36579
G1 X54.8 Y181.658 E9.38605
G1 X54.801 Y139.561 E10.7862
G1 X54.811 Y138.864 E10.80938
G1 X54.835 Y138.296 E10.82829
G1 X54.876 Y137.734 E10.84703
G1 X55.033 Y135.889 E10.90862
G1 X55.178 Y133.317 E10.9943
G1 X55.25 Y130.783 E11.07862
G1 X55.25 Y128.249 E11.1629
G1 X55.178 Y125.716 E11.24718
G1 X55.032 Y123.131 E11.33329
G1 X54.921 Y121.716 E11.3805
G1 X54.847 Y120.862 E11.40901
G1 X54.813 Y120.277 E11.4285
G1 X54.8 Y119.671 E11.44866
G1 X54.8 Y53.674 E13.64373
G1 X54.801 Y53.521 E13.64882
G1 X54.811 Y52.856 E13.67094
G1 X54.865 Y51.954 E13.70099
G1 X54.998 Y51.061 E13.73102
G1 X55.209 Y50.183 E13.76106
G1 X55.498 Y49.327 E13.79111
G1 X55.861 Y48.5 E13.82115
G1 X56.295 Y47.709 E13.85116
G1 X56.798 Y46.958 E13.88122
G1 X57.366 Y46.256 E13.91125
G1 X57.993 Y45.606 E13.94129
G1 X58.675 Y45.014 E13.97133
G1 X59.407 Y44.485 E14.00137
G1 X60.183 Y44.023 E14.0314
G1 X60.997 Y43.632 E14.06144
G1 X61.842 Y43.313 E14.09148
G1 X62.712 Y43.071 E14.12152
G1 X63.6 Y42.907 E14.15155
G1 X64.723 Y42.813 E14.18903
G1 X65.33 Y42.8 E14.20922
G1 X169.293 Y42.8 E17.66705
G1 X169.439 Y42.801 E17.6719
G1 X170.137 Y42.811 E17.69512
G0 F6000 X170.143 Y42.411
G1 F1200 X171.062 Y42.464 E17.72574
G1 X171.973 Y42.597 E17.75636
G1 X172.869 Y42.808 E17.78698
G1 X173.743 Y43.096 E17.81758
G1 X174.59 Y43.459 E17.84823
G1 X175.401 Y43.894 E17.87884
G1 X176.171 Y44.398 E17.90945
G1 X176.895 Y44.967 E17.94008
G1 X177.567 Y45.597 E17.97072
G1 X178.182 Y46.282 E18.00133
G1 X178.735 Y47.018 E18.03195
G1 X179.222 Y47.799 E18.06257
G1 X179.639 Y48.62 E18.09319
G1 X179.984 Y49.474 E18.12383
G1 X180.253 Y50.354 E18.15443
G1 X180.445 Y51.255 E18.18507
G1 X180.558 Y52.168 E18.21567
G1 X180.587 Y52.712 E18.23379
G1 X180.6 Y53.33 E18.25435
G1 X180.6 Y181.264 E22.50945
G1 X180.59 Y182.122 E22.53799
G1 X180.539 Y183.041 E22.5686
G1 X180.408 Y183.953 E22.59925
G1 X180.198 Y184.849 E22.62986
G1 X179.912 Y185.724 E22.66047
G1 X179.551 Y186.571 E22.6911
G1 X179.117 Y187.383 E22.72172
G1 X178.615 Y188.155 E22.75235
G1 X178.047 Y188.88 E22.78298
G1 X177.419 Y189.553 E22.8136
G1 X176.735 Y190.169 E22.84421
G1 X176 Y190.723 E22.87483
G1 X175.22 Y191.212 E22.90545
G1 X174.4 Y191.631 E22.93607
G1 X173.547 Y191.977 E22.96669
G1 X172.667 Y192.248 E22.99731
G1 X171.767 Y192.441 E23.02793
G1 X170.853 Y192.556 E23.05857
G1 X170.288 Y192.587 E23.07739
G1 X169.67 Y192.6 E23.09795
G1 X65.707 Y192.6 E26.55577
G1 X64.872 Y192.59 E26.58355
G1 X63.953 Y192.538 E26.61416
G1 X63.042 Y192.407 E26.64477
G1 X62.146 Y192.197 E26.67538
G1 X61.271 Y191.91 E26.70601
G1 X60.424 Y191.548 E26.73665
G1 X59.612 Y191.114 E26.76727
G1 X58.841 Y190.612 E26.79787
G1 X58.116 Y190.044 E26.8285
G1 X57.443 Y189.415 E26.85914
G1 X56.828 Y188.731 E26.88973
G1 X56.274 Y187.996 E26.92035
G1 X55.786 Y187.215 E26.95098
G1 X55.367 Y186.395 E26.9816
G1 X55.021 Y185.542 E27.01222
G1 X54.751 Y184.662 E27.04284
G1 X54.558 Y183.761 E27.07348
G1 X54.444 Y182.848 E27.10408
G1 X54.413 Y182.277 E27.1231
G1 X54.4 Y181.658 E27.1437
G1 X54.401 Y139.555 E28.54405
G1 X54.411 Y138.858 E28.56723
G1 X54.436 Y138.268 E28.58687
G1 X54.477 Y137.701 E28.60578
G1 X54.635 Y135.836 E28.66803
G1 X54.778 Y133.317 E28.75195
G1 X54.85 Y130.772 E28.83663
G1 X54.85 Y128.261 E28.92015
G1 X54.778 Y125.715 E29.00486
G1 X54.634 Y123.183 E29.08921
G1 X54.522 Y121.747 E29.13712
G1 X54.448 Y120.897 E29.1655
G1 X54.413 Y120.289 E29.18575
G1 X54.4 Y119.671 E29.20631
G1 X54.4 Y53.674 E31.40138
G1 X54.401 Y53.515 E31.40667
G1 X54.411 Y52.85 E31.42879
G1 X54.465 Y51.931 E31.45941
G1 X54.598 Y51.02 E31.49003
G1 X54.81 Y50.124 E31.52065
G1 X55.099 Y49.249 E31.5513
G1 X55.463 Y48.404 E31.58191
G1 X55.898 Y47.593 E31.61251
G1 X56.403 Y46.822 E31.64317
G1 X56.972 Y46.099 E31.67377
G1 X57.602 Y45.427 E31.70441
G1 X58.288 Y44.813 E31.73503
G1 X59.024 Y44.261 E31.76563
G1 X59.806 Y43.774 E31.79627
G1 X60.627 Y43.358 E31.82688
G1 X61.481 Y43.014 E31.8575
G1 X62.361 Y42.745 E31.88811
G1 X63.262 Y42.554 E31.91874
G1 X64.176 Y42.442 E31.94937
G1 X64.712 Y42.413 E31.96722
G1 X65.33 Y42.4 E31.98778
G1 X169.293 Y42.4 E35.4456
G1 X169.445 Y42.401 E35.45066
G1 X170.143 Y42.411 E35.47388
G0 F6000 X170.149 Y42.011
G1 F1200 X171.085 Y42.065 E35.50506
G1 X172.013 Y42.197 E35.53624
G1 X172.927 Y42.409 E35.56744
G1 X173.819 Y42.698 E35.59863
G1 X174.684 Y43.061 E35.62983
G1 X175.514 Y43.497 E35.66101
G1 X176.305 Y44.002 E35.69223
G1 X177.049 Y44.573 E35.72342
G1 X177.742 Y45.205 E35.75462
G1 X178.379 Y45.893 E35.7858
G1 X178.954 Y46.634 E35.817
G1 X179.465 Y47.42 E35.84818
G1 X179.907 Y48.248 E35.8794
G1 X180.276 Y49.11 E35.91058
G1 X180.571 Y50 E35.94177
G1 X180.789 Y50.912 E35.97296
G1 X180.929 Y51.84 E36.00417
G1 X180.987 Y52.701 E36.03287
G1 X181 Y53.33 E36.0538
G1 X181 Y181.264 E40.3089
G1 X180.99 Y182.127 E40.3376
G1 X180.939 Y183.064 E40.36882
G1 X180.807 Y183.992 E40.39999
G1 X180.598 Y184.906 E40.43118
G1 X180.311 Y185.799 E40.46237
G1 X179.949 Y186.665 E40.49359
G1 X179.515 Y187.496 E40.52477
G1 X179.011 Y188.287 E40.55597
G1 X178.442 Y189.032 E40.58715
G1 X177.811 Y189.727 E40.61837
G1 X177.124 Y190.365 E40.64955
G1 X176.385 Y190.942 E40.68074
G1 X175.599 Y191.454 E40.71194
G1 X174.773 Y191.897 E40.74311
G1 X173.911 Y192.269 E40.77434
G1 X173.022 Y192.565 E40.8055
G1 X172.11 Y192.785 E40.8367
G1 X171.183 Y192.926 E40.86789
G1 X170.299 Y192.987 E40.89736
G1 X169.67 Y193 E40.91829
G1 X65.707 Y193 E44.37611
G1 X64.867 Y192.99 E44.40405
G1 X63.931 Y192.938 E44.43523
G1 X63.002 Y192.806 E44.46644
G1 X62.088 Y192.596 E44.49763
G1 X61.195 Y192.309 E44.52883
G1 X60.33 Y191.946 E44.56003
G1 X59.499 Y191.512 E44.59121
G1 X58.708 Y191.008 E44.62241
G1 X57.963 Y190.438 E44.65361
G1 X57.269 Y189.807 E44.6848
G1 X56.632 Y189.12 E44.71597
G1 X56.055 Y188.38 E44.74718
G1 X55.543 Y187.594 E44.77838
G1 X55.1 Y186.767 E44.80958
G1 X54.729 Y185.906 E44.84076
G1 X54.433 Y185.016 E44.87196
G1 X54.214 Y184.104 E44.90315
G1 X54.073 Y183.177 E44.93434
G1 X54.013 Y182.288 E44.96398
G1 X54 Y181.658 E44.98493
G1 X54.001 Y139.549 E46.38548
G1 X54.011 Y138.852 E46.40867
G1 X54.037 Y138.24 E46.42904
G1 X54.078 Y137.667 E46.44815
G1 X54.238 Y135.778 E46.5112
G1 X54.378 Y133.319 E46.59312
G1 X54.45 Y130.761 E46.67824
G1 X54.45 Y128.272 E46.76102
G1 X54.378 Y125.713 E46.84617
G1 X54.235 Y123.191 E46.93018
G1 X54.131 Y121.867 E46.97435
G1 X54.05 Y120.931 E47.0056
G1 X54.014 Y120.3 E47.02662
G1 X54 Y119.671 E47.04755
G1 X54 Y53.674 E49.24262
G1 X54.001 Y53.509 E49.24811
G1 X54.011 Y52.844 E49.27023
G1 X54.065 Y51.907 E49.30144
G1 X54.199 Y50.979 E49.33263
G1 X54.411 Y50.065 E49.36384
G1 X54.7 Y49.173 E49.39502
G1 X55.065 Y48.309 E49.42622
G1 X55.501 Y47.479 E49.4574
G1 X56.007 Y46.689 E49.4886
G1 X56.578 Y45.945 E49.5198
G1 X57.21 Y45.252 E49.55099
G1 X57.899 Y44.616 E49.58218
G1 X58.64 Y44.041 E49.61338
G1 X59.427 Y43.531 E49.64457
G1 X60.255 Y43.09 E49.67577
G1 X61.117 Y42.721 E49.70696
G1 X62.008 Y42.427 E49.73816
G1 X62.92 Y42.209 E49.76935
G1 X63.847 Y42.071 E49.80052
G1 X64.701 Y42.013 E49.82899
G1 X65.33 Y42 E49.84992
G1 X169.293 Y42 E53.30774
G1 X169.451 Y42.001 E53.31299
G1 X170.149 Y42.011 E53.33621
G1 F2700 E52.33621
;MESH:Ender3ProCase_Mainboard_Lid_v3.stl
G0 F6000 X74.281 Y61.346
G0 X75.699 Y61.723
G0 X74.91 Y62.536
G0 X73.67 Y63.517
;TYPE:WALL-INNER
G1 F2700 E53.33621
G1 F1200 X74.299 Y63.256 E53.35886
G1 X74.838 Y62.842 E53.38147
G1 X75.252 Y62.303 E53.40407
G1 X75.513 Y61.673 E53.42675
G1 X75.601 Y61 E53.44933
G1 X75.513 Y60.326 E53.47194
G1 X75.252 Y59.697 E53.49459
G1 X74.838 Y59.157 E53.51722
G1 X74.299 Y58.744 E53.5398
G1 X73.67 Y58.483 E53.56245
G1 X72.996 Y58.395 E53.58506
G1 X72.322 Y58.483 E53.60767
G1 X71.693 Y58.744 E53.63032
G1 X71.154 Y59.157 E53.6529
G1 X70.74 Y59.697 E53.67553
G1 X70.479 Y60.326 E53.69818
G1 X70.391 Y61 E53.72079
G1 X70.479 Y61.673 E53.74337
G1 X70.74 Y62.303 E53.76605
G1 X71.154 Y62.842 E53.78865
G1 X71.693 Y63.256 E53.81126
G1 X72.322 Y63.517 E53.83391
G1 X72.996 Y63.605 E53.85652
G1 X73.67 Y63.517 E53.87912
G0 F6000 X73.566 Y63.127
;TYPE:WALL-OUTER
G1 F1200 X74.097 Y62.907 E53.89824
G1 X74.553 Y62.557 E53.91736
G1 X74.903 Y62.101 E53.93648
G1 X75.123 Y61.569 E53.95563
G1 X75.198 Y61 E53.97471
G1 X75.123 Y60.43 E53.99384
G1 X74.903 Y59.899 E54.01295
G1 X74.553 Y59.442 E54.0321
G1 X74.097 Y59.093 E54.0512
G1 X73.566 Y58.873 E54.07031
G1 X72.996 Y58.798 E54.08944
G1 X72.426 Y58.873 E54.10856
G1 X71.895 Y59.093 E54.12767
G1 X71.439 Y59.442 E54.14677
G1 X71.089 Y59.899 E54.16592
G1 X70.869 Y60.43 E54.18504
G1 X70.794 Y61 E54.20416
G1 X70.869 Y61.569 E54.22325
G1 X71.089 Y62.101 E54.24239
G1 X71.439 Y62.557 E54.26151
G1 X71.895 Y62.907 E54.28063
G1 X72.426 Y63.127 E54.29975
G1 X72.996 Y63.202 E54.31887
G1 X73.566 Y63.127 E54.33799
G0 F6000 X73.679 Y63.552
G1 F2700 E53.33799
G0 F6000 X74.395 Y63.422
G0 X73.658 Y62.154
G0 X126.839 Y172.84
G0 X126.102 Y171.573
G0 X125.385 Y172.774
G0 X125.142 Y173.363
G0 X125.057 Y173.995
G0 X125.142 Y174.627
G0 X125.385 Y175.216
G0 X125.699 Y175.626
G0 X126.828 Y176.512
;TYPE:WALL-INNER
G1 F2700 E54.33799
G1 F1200 X127.501 Y176.6 E54.36057
G1 X128.175 Y176.512 E54.38317
G1 X128.804 Y176.251 E54.40583
G1 X129.344 Y175.837 E54.42846
G1 X129.757 Y175.298 E54.45104
G1 X130.018 Y174.669 E54.47369
G1 X130.106 Y173.995 E54.4963
G1 X130.018 Y173.321 E54.51891
G1 X129.757 Y172.692 E54.54156
G1 X129.344 Y172.153 E54.56414
G1 X128.804 Y171.739 E54.58677
G1 X128.175 Y171.478 E54.60942
G1 X127.501 Y171.39 E54.63203
G1 X126.828 Y171.478 E54.65461
G1 X126.198 Y171.739 E54.67729
G1 X125.659 Y172.153 E54.69989
G1 X125.244 Y172.692 E54.72252
G1 X124.985 Y173.321 E54.74514
G1 X124.895 Y173.995 E54.76776
G1 X124.985 Y174.669 E54.79037
G1 X125.244 Y175.298 E54.813
G1 X125.659 Y175.837 E54.83562
G1 X126.198 Y176.251 E54.85823
G1 X126.828 Y176.512 E54.88091
G0 F6000 X126.932 Y176.122
;TYPE:WALL-OUTER
G1 F1200 X127.501 Y176.197 E54.9
G1 X128.071 Y176.122 E54.91912
G1 X128.602 Y175.902 E54.93824
G1 X129.059 Y175.552 E54.95738
G1 X129.408 Y175.096 E54.97648
G1 X129.628 Y174.565 E54.9956
G1 X129.703 Y173.995 E55.01472
G1 X129.628 Y173.425 E55.03384
G1 X129.408 Y172.894 E55.05296
G1 X129.059 Y172.438 E55.07206
G1 X128.602 Y172.088 E55.0912
G1 X128.071 Y171.868 E55.11032
G1 X127.501 Y171.793 E55.12944
G1 X126.932 Y171.868 E55.14853
G1 X126.4 Y172.088 E55.16768
G1 X125.944 Y172.438 E55.1868
G1 X125.594 Y172.894 E55.20592
G1 X125.375 Y173.425 E55.22502
G1 X125.299 Y173.995 E55.24415
G1 X125.375 Y174.565 E55.26327
G1 X125.594 Y175.096 E55.28238
G1 X125.944 Y175.552 E55.3015
G1 X126.4 Y175.902 E55.32062
G1 X126.932 Y176.122 E55.33976
G0 F6000 X126.819 Y176.547
G1 F2700 E54.33976
G0 F6000 X125.523 Y175.973
G0 X126.561 Y174.935
G0 X125.523 Y182.665
G0 X125.523 Y181.19
G0 X65.6 Y181.4
;TYPE:WALL-INNER
G1 F2700 E55.33976
G1 F1200 X65.6 Y139.6 E56.73004
G1 X76.6 Y139.6 E57.0959
G1 X76.6 Y119.4 E57.76775
G1 X65.6 Y119.4 E58.13361
G1 X65.6 Y53.6 E60.32213
G1 X169.4 Y53.6 E63.77453
G1 X169.4 Y181.4 E68.02518
G1 X65.6 Y181.4 E71.47758
G0 F6000 X65.2 Y181.8
;TYPE:WALL-OUTER
G1 F1200 X65.2 Y139.2 E72.89446
G1 X76.2 Y139.2 E73.26032
G1 X76.2 Y119.8 E73.90557
G1 X65.2 Y119.8 E74.27143
G1 X65.2 Y53.2 E76.48656
G1 X169.8 Y53.2 E79.96557
G1 X169.8 Y181.8 E84.24282
G1 X65.2 Y181.8 E87.72183
G0 F6000 X65.47 Y181.53
G0 X65.71 Y181.01
G0 X65.99 Y181.01
;TYPE:SKIN
G1 F1200 X65.99 Y139.99 E89.08616
G1 X76.99 Y139.99 E89.45202
G1 X76.99 Y119.01 E90.14982
G1 X65.99 Y119.01 E90.51568
G1 X65.99 Y53.99 E92.67826
G1 X169.01 Y53.99 E96.10472
G1 X169.01 Y181.01 E100.32942
G1 X65.99 Y181.01 E103.75588
G1 F2700 E102.75588
G0 F6000 X65.71 Y181.01
G0 X124.784 Y181.19
G0 X124.784 Y182.665
G0 X126.348 Y174.659
G0 X125.077 Y175.395
G0 X124.784 Y173.996
G0 X124.501 Y173.995
G1 F2700 E103.75588
G1 F1200 X124.605 Y174.771 E103.78192
G1 X124.903 Y175.495 E103.80796
G1 X125.381 Y176.116 E103.83402
G1 X126.001 Y176.592 E103.86002
G1 X126.726 Y176.892 E103.88612
G1 X127.501 Y176.994 E103.91212
G1 X128.277 Y176.892 E103.93815
G1 X129.001 Y176.592 E103.96421
G1 X129.623 Y176.116 E103.99026
G1 X130.098 Y175.495 E104.01627
G1 X130.398 Y174.771 E104.04233
G1 X130.5 Y173.995 E104.06837
G1 X130.398 Y173.219 E104.0944
G1 X130.098 Y172.495 E104.12046
G1 X129.623 Y171.874 E104.14647
G1 X129.001 Y171.398 E104.17252
G1 X128.277 Y171.098 E104.19858
G1 X127.501 Y170.996 E104.22462
G1 X126.726 Y171.098 E104.25061
G1 X126.001 Y171.398 E104.27671
G1 X125.381 Y171.874 E104.30271
G1 X124.903 Y172.495 E104.32877
G1 X124.605 Y173.219 E104.35481
G1 X124.501 Y173.995 E104.38085
G1 F2700 E103.38085
G0 F6000 X124.784 Y173.996
G0 X125.077 Y172.595
G0 X126.348 Y173.331
G0 X73.341 Y62.285
G0 X73.72 Y63.703
G0 X72.997 Y63.716
G0 X72.996 Y63.999
G1 F2700 E104.38085
G1 F1200 X73.772 Y63.897 E104.40689
G1 X74.496 Y63.597 E104.43295
G1 X75.117 Y63.121 E104.45898
G1 X75.593 Y62.5 E104.485
G1 X75.893 Y61.775 E104.5111
G1 X75.995 Y61 E104.5371
G1 X75.893 Y60.224 E104.56313
G1 X75.593 Y59.5 E104.58919
G1 X75.117 Y58.878 E104.61524
G1 X74.496 Y58.403 E104.64125
G1 X73.772 Y58.103 E104.66731
G1 X72.996 Y58.001 E104.69335
G1 X72.22 Y58.103 E104.71938
G1 X71.496 Y58.403 E104.74544
G1 X70.875 Y58.878 E104.77145
G1 X70.399 Y59.5 E104.7975
G1 X70.099 Y60.224 E104.82356
G1 X69.997 Y61 E104.8496
G1 X70.099 Y61.775 E104.87559
G1 X70.399 Y62.5 E104.90169
