; generated by Slic3r 1.3.0 on 2019-12-22 at 18:24:22

; external perimeters extrusion width = 0.44mm (2.98mm^3/s)
; perimeters extrusion width = 0.56mm (7.76mm^3/s)
; infill extrusion width = 0.50mm (9.14mm^3/s)
; solid infill extrusion width = 0.56mm (2.07mm^3/s)
; top infill extrusion width = 0.56mm (1.55mm^3/s)

M107
M190 S65 ; set bed temperature and wait for it to be reached
M104 S200 ; set temperature
G28 ; home all axes
; Filament gcode

M109 S200 ; set temperature and wait for it to be reached
G21 ; set units to millimeters
G90 ; use absolute coordinates
M82 ; use absolute distances for extrusion
G92 E0
G10
G92 E0
G1 Z0.350 F12000.000
; OctoLapse Trigger
G4 P1
G1 X90.112 Y90.624 F12000.000
G11
G92 E0
G1 F1800
G1 X90.431 Y90.316 E0.04028
G1 X90.977 Y89.842 E0.10604
G1 X91.562 Y89.399 E0.17275
G1 X92.400 Y88.865 E0.26315
G1 X93.039 Y88.525 E0.32892
G1 X93.441 Y88.339 E0.36920
G1 X94.378 Y87.978 E0.46049
G1 X94.801 Y87.847 E0.50077
G1 X95.502 Y87.670 E0.56653
G1 X96.492 Y87.503 E0.65785
G1 X97.544 Y87.426 E0.75376
G1 X142.213 Y87.423 E4.81549
G1 X144.472 Y87.823 E5.02403
G1 X146.458 Y88.969 E5.23258
G1 X147.935 Y90.724 E5.44112
G1 X148.725 Y92.877 E5.64966
G1 X148.829 Y94.048 E5.75651
G1 X148.829 Y127.452 E8.79399
G1 X148.432 Y129.711 E9.00253
G1 X147.288 Y131.699 E9.21107
G1 X145.457 Y133.223 E9.42769
G1 X112.801 Y151.634 E12.83649
G1 X111.702 Y152.128 E12.94611
G1 X111.479 Y152.205 E12.96752
G1 X110.168 Y152.511 E13.08996
G1 X109.458 Y152.572 E13.15472
G1 X102.664 Y152.577 E13.77252
G1 X101.811 Y152.541 E13.85011
G1 X101.093 Y152.460 E13.91589
G1 X100.381 Y152.330 E13.98170
G1 X99.679 Y152.153 E14.04745
G1 X98.991 Y151.930 E14.11326
G1 X98.319 Y151.661 E14.17904
G1 X97.667 Y151.348 E14.24484
G1 X97.037 Y150.992 E14.31062
G1 X96.432 Y150.595 E14.37639
G1 X96.069 Y150.327 E14.41751
G1 X95.518 Y149.873 E14.48243
G1 X94.984 Y149.369 E14.54914
G1 X94.317 Y148.632 E14.63955
G1 X94.043 Y148.284 E14.67978
G1 X93.626 Y147.694 E14.74552
G1 X93.114 Y146.829 E14.83688
G1 X92.914 Y146.434 E14.87714
G1 X92.623 Y145.772 E14.94292
G1 X92.294 Y144.823 E15.03424
G1 X92.177 Y144.396 E15.07449
G1 X92.024 Y143.689 E15.14024
G1 X91.885 Y142.697 E15.23131
G1 X87.035 Y99.447 E19.18869
G1 X86.982 Y98.752 E19.25208
G1 X86.972 Y98.029 E19.31779
G1 X87.040 Y97.027 E19.40917
G1 X87.099 Y96.588 E19.44943
G1 X87.233 Y95.877 E19.51520
G1 X87.499 Y94.909 E19.60653
G1 X87.745 Y94.228 E19.67230
G1 X87.922 Y93.812 E19.71348
G1 X88.235 Y93.171 E19.77832
G1 X88.596 Y92.544 E19.84410
G1 X89.164 Y91.716 E19.93544
G1 X89.620 Y91.154 E20.00123
G1 X90.071 Y90.667 E20.06155
G10
G92 E0
G1 X140.604 Y125.853 F12000.000
G11
G92 E0
G1 F2250
G1 X139.904 Y125.853 E0.06366
G1 X138.731 Y112.159 E1.31337
G1 X138.609 Y111.195 E1.40173
G1 X138.396 Y110.187 E1.49545
G1 X138.100 Y109.198 E1.58925
G1 X137.722 Y108.238 E1.68304
G1 X137.267 Y107.313 E1.77682
G1 X136.753 Y106.457 E1.86763
G1 X136.433 Y105.992 E1.91896
G1 X135.816 Y105.206 E2.00982
G1 X135.450 Y104.796 E2.05973
G1 X134.741 Y104.093 E2.15057
G1 X133.938 Y103.420 E2.24583
G1 X133.108 Y102.835 E2.33812
G1 X132.641 Y102.548 E2.38805
G1 X131.745 Y102.071 E2.48031
G1 X130.827 Y101.677 E2.57113
G1 X130.296 Y101.486 E2.62243
G1 X129.352 Y101.213 E2.71183
G1 X128.801 Y101.090 E2.76315
G1 X127.797 Y100.932 E2.85553
G1 X126.777 Y100.858 E2.94858
G1 X106.596 Y100.858 E4.78361
G1 X106.022 Y100.941 E4.83631
G1 X105.705 Y101.021 E4.86608
G1 X105.393 Y101.121 E4.89583
G1 X104.850 Y101.361 E4.94984
G1 X104.155 Y101.813 E5.02522
G1 X103.581 Y102.362 E5.09741
G1 X103.119 Y102.998 E5.16896
G1 X102.777 Y103.706 E5.24046
G1 X102.566 Y104.467 E5.31221
G1 X102.503 Y105.179 E5.37723
G1 X102.503 Y141.300 E8.66168
G1 X102.537 Y141.841 E8.71099
G1 X102.722 Y142.633 E8.78489
G1 X102.952 Y143.188 E8.83953
G1 X103.237 Y143.682 E8.89138
G1 X103.745 Y144.350 E8.96773
G1 X102.614 Y144.350 E9.07048
G1 X102.242 Y144.313 E9.10450
G1 X101.766 Y144.187 E9.14928
G1 X101.419 Y144.025 E9.18414
G1 X101.111 Y143.828 E9.21738
G1 X100.729 Y143.476 E9.26460
G1 X100.423 Y143.053 E9.31207
G1 X100.209 Y142.578 E9.35945
G1 X100.092 Y142.061 E9.40764
G1 X95.203 Y98.449 E13.39806
G1 X95.203 Y98.050 E13.43442
G1 X95.289 Y97.563 E13.47933
G1 X95.412 Y97.210 E13.51334
G1 X95.549 Y96.941 E13.54076
G1 X95.756 Y96.640 E13.57404
G1 X95.989 Y96.382 E13.60565
G1 X96.374 Y96.072 E13.65056
G1 X96.702 Y95.892 E13.68457
G1 X97.051 Y95.758 E13.71857
G1 X97.345 Y95.689 E13.74600
G1 X97.735 Y95.650 E13.78172
G1 X140.604 Y95.648 E17.67975
G1 X140.604 Y125.793 E20.42083
G1 X141.229 Y126.477 F12000.000
G1 F2250
G1 X139.509 Y126.470 E20.57719
G1 X139.403 Y126.426 E20.58771
G1 X139.339 Y126.341 E20.59733
G1 X139.315 Y126.270 E20.60415
G1 X138.109 Y112.225 E21.88597
G1 X137.992 Y111.299 E21.97085
G1 X137.790 Y110.341 E22.05986
G1 X137.509 Y109.403 E22.14893
G1 X137.150 Y108.491 E22.23799
G1 X136.718 Y107.613 E22.32705
G1 X136.227 Y106.795 E22.41376
G1 X135.929 Y106.362 E22.46153
G1 X135.336 Y105.607 E22.54881
G1 X134.997 Y105.227 E22.59518
G1 X134.319 Y104.555 E22.68191
G1 X133.557 Y103.916 E22.77242
G1 X132.764 Y103.357 E22.86055
G1 X132.330 Y103.090 E22.90693
G1 X131.474 Y102.635 E22.99506
G1 X130.598 Y102.258 E23.08177
G1 X130.104 Y102.081 E23.12953
G1 X129.197 Y101.819 E23.21538
G1 X128.684 Y101.704 E23.26315
G1 X127.726 Y101.554 E23.35135
G1 X126.754 Y101.483 E23.43996
G1 X106.641 Y101.483 E25.26883
G1 X106.143 Y101.555 E25.31455
G1 X105.877 Y101.622 E25.33951
G1 X105.616 Y101.706 E25.36444
G1 X105.148 Y101.912 E25.41095
G1 X104.545 Y102.305 E25.47639
G1 X104.054 Y102.774 E25.53816
G1 X103.657 Y103.320 E25.59952
G1 X103.364 Y103.927 E25.66083
G1 X103.184 Y104.579 E25.72228
G1 X103.128 Y105.207 E25.77961
G1 X103.128 Y141.280 E29.05977
G1 X103.157 Y141.750 E29.10256
G1 X103.318 Y142.441 E29.16703
G1 X103.514 Y142.910 E29.21330
G1 X103.759 Y143.335 E29.25789
G1 X104.040 Y143.706 E29.30021
G1 X104.304 Y143.980 E29.33480
G1 X104.554 Y144.200 E29.36511
G1 X104.931 Y144.463 E29.40691
G1 X105.359 Y144.691 E29.45102
G1 X105.288 Y144.976 E29.47765
G1 X102.583 Y144.975 E29.72363
G1 X102.138 Y144.930 E29.76430
G1 X101.703 Y144.827 E29.80496
G1 X101.531 Y144.767 E29.82153
G1 X101.117 Y144.574 E29.86306
G1 X100.748 Y144.338 E29.90290
G1 X100.604 Y144.224 E29.91957
G1 X100.272 Y143.903 E29.96162
G1 X100.148 Y143.756 E29.97913
G1 X99.890 Y143.380 E30.02049
G1 X99.802 Y143.220 E30.03715
G1 X99.621 Y142.793 E30.07930
G1 X99.567 Y142.618 E30.09594
G1 X99.474 Y142.158 E30.13860
G1 X94.578 Y98.481 E34.13502
G1 X94.578 Y98.018 E34.17712
G1 X94.596 Y97.836 E34.19376
G1 X94.685 Y97.398 E34.23443
G1 X94.832 Y96.975 E34.27509
G1 X95.016 Y96.613 E34.31209
G1 X95.265 Y96.251 E34.35195
G1 X95.554 Y95.932 E34.39116
G1 X95.895 Y95.643 E34.43182
G1 X96.046 Y95.539 E34.44846
G1 X96.438 Y95.324 E34.48913
G1 X96.856 Y95.164 E34.52979
G1 X97.252 Y95.070 E34.56679
G1 X97.704 Y95.025 E34.60814
G1 X141.229 Y95.023 E38.56583
G1 X141.229 Y126.417 E41.42056
G1 X141.854 Y127.102 F12000.000
G1 F1125
G1 X139.557 Y127.102 E41.62943
G1 X139.386 Y127.086 E41.64502
G1 X139.203 Y127.029 E41.66245
G1 X139.044 Y126.941 E41.67903
G1 X138.858 Y126.757 E41.70281
G1 X138.766 Y126.601 E41.71923
G1 X138.690 Y126.318 E41.74587
G1 X137.488 Y112.291 E43.02605
G1 X137.375 Y111.403 E43.10744
G1 X137.184 Y110.496 E43.19176
G1 X136.918 Y109.607 E43.27609
G1 X136.578 Y108.744 E43.36043
G1 X136.168 Y107.912 E43.44476
G1 X135.701 Y107.133 E43.52737
G1 X135.425 Y106.732 E43.57158
G1 X134.857 Y106.008 E43.65528
G1 X134.543 Y105.657 E43.69811
G1 X133.898 Y105.017 E43.78073
G1 X133.175 Y104.411 E43.86650
G1 X132.420 Y103.880 E43.95045
G1 X132.019 Y103.633 E43.99329
G1 X131.204 Y103.199 E44.07729
G1 X130.369 Y102.840 E44.15990
G1 X129.911 Y102.676 E44.20411
G1 X129.042 Y102.425 E44.28641
G1 X128.567 Y102.319 E44.33062
G1 X127.654 Y102.175 E44.41465
G1 X126.731 Y102.108 E44.49882
G1 X106.686 Y102.108 E46.32153
G1 X106.264 Y102.169 E46.36028
G1 X105.839 Y102.291 E46.40051
G1 X105.446 Y102.464 E46.43953
G1 X104.935 Y102.797 E46.49503
G1 X104.526 Y103.187 E46.54638
G1 X104.196 Y103.642 E46.59755
G1 X103.951 Y104.149 E46.64867
G1 X103.801 Y104.691 E46.69981
G1 X103.753 Y105.234 E46.74946
G1 X103.753 Y141.261 E50.02533
G1 X103.778 Y141.659 E50.06160
G1 X103.915 Y142.248 E50.11663
G1 X104.075 Y142.633 E50.15453
G1 X104.280 Y142.989 E50.19185
G1 X104.516 Y143.299 E50.22725
G1 X104.735 Y143.528 E50.25609
G1 X104.941 Y143.707 E50.28090
G1 X105.258 Y143.930 E50.31615
G1 X105.601 Y144.112 E50.35147
G1 X105.869 Y144.219 E50.37764
G1 X106.158 Y144.307 E50.40515
G1 X106.542 Y144.378 E50.44066
G1 X106.922 Y144.398 E50.47521
G1 X109.276 Y144.408 E50.68928
G1 X109.361 Y144.438 E50.69746
G1 X109.438 Y144.496 E50.70626
G1 X109.505 Y144.577 E50.71585
G1 X109.545 Y144.691 E50.72677
G1 X109.546 Y145.322 E50.78411
G1 X109.516 Y145.407 E50.79231
G1 X109.458 Y145.484 E50.80108
G1 X109.374 Y145.552 E50.81091
G1 X109.210 Y145.601 E50.82650
G1 X102.552 Y145.600 E51.43194
G1 X102.034 Y145.548 E51.47926
G1 X101.528 Y145.427 E51.52657
G1 X101.296 Y145.347 E51.54889
G1 X100.815 Y145.123 E51.59709
G1 X100.385 Y144.848 E51.64354
G1 X100.192 Y144.695 E51.66589
G1 X99.814 Y144.330 E51.71371
G1 X99.650 Y144.134 E51.73694
G1 X99.357 Y143.708 E51.78393
G1 X99.239 Y143.492 E51.80628
G1 X99.034 Y143.008 E51.85413
G1 X98.961 Y142.773 E51.87648
G1 X98.856 Y142.256 E51.92451
G1 X93.953 Y98.513 E55.92692
G1 X93.953 Y97.987 E55.97476
G1 X93.978 Y97.742 E55.99710
G1 X94.081 Y97.232 E56.04442
G1 X94.252 Y96.741 E56.09174
G1 X94.484 Y96.284 E56.13831
G1 X94.773 Y95.863 E56.18477
G1 X95.118 Y95.481 E56.23156
G1 X95.516 Y95.145 E56.27888
G1 X95.718 Y95.006 E56.30122
G1 X96.175 Y94.756 E56.34854
G1 X96.660 Y94.569 E56.39586
G1 X97.159 Y94.451 E56.44244
G1 X97.673 Y94.400 E56.48943
G1 X141.854 Y94.398 E60.50677
G1 X141.854 Y127.042 E63.47514
G1 X141.463 Y127.018 F12000.000
G10
G92 E0
G1 X140.241 Y125.540 F12000.000
G11
G92 E0
G1 F600
G1 X140.191 Y124.362 E0.01336
G1 F600
G1 X140.141 Y123.184 E0.04313
G1 F600
G1 X140.090 Y122.005 E0.08931
G1 F600
G1 X140.040 Y120.827 E0.15189
G1 F600
G1 X139.989 Y119.649 E0.23089
G1 F600
G1 X139.939 Y118.470 E0.32629
G1 F600
G1 X139.889 Y117.292 E0.43811
G1 F600
G1 X139.838 Y116.114 E0.56633
G1 F600
G1 X139.813 Y115.525 E0.63865
G1 X139.736 Y115.135 F12000.000
G1 F600
G1 X140.222 Y114.649 E0.70182
G1 X140.222 Y113.756 E0.78387
G1 X139.309 Y114.669 E0.90250
G1 X139.239 Y113.847 E0.97835
G1 X140.222 Y112.863 E1.10614
G1 X140.222 Y111.970 E1.18819
G1 X139.168 Y113.024 E1.32514
G1 X139.093 Y112.207 E1.40058
G1 X140.222 Y111.077 E1.54732
G1 X140.222 Y110.184 E1.62936
G1 X138.993 Y111.414 E1.78914
G1 X138.843 Y110.671 E1.85878
G1 X140.222 Y109.291 E2.03806
G1 X140.222 Y108.398 E2.12011
G1 X138.664 Y109.957 E2.32264
G1 X138.458 Y109.270 E2.38854
G1 X140.222 Y107.505 E2.61783
G1 X140.222 Y106.612 E2.69988
G1 X138.208 Y108.627 E2.96162
G1 X138.051 Y108.229 E3.00094
G1 X137.940 Y108.002 E3.02414
G1 X140.222 Y105.719 E3.32073
G1 X140.222 Y104.827 E3.40278
G1 X137.645 Y107.404 E3.73766
G1 X137.320 Y106.836 E3.79778
G1 X140.222 Y103.934 E4.17489
G1 X140.222 Y103.041 E4.25694
G1 X136.981 Y106.282 E4.67814
G1 X136.611 Y105.759 E4.73700
G1 X140.222 Y102.148 E5.20625
G1 X140.222 Y101.255 E5.28830
G1 X136.218 Y105.259 E5.80859
G1 X135.809 Y104.775 E5.86681
G1 X140.222 Y100.362 E6.44025
G1 X140.222 Y99.469 E6.52230
G1 X135.370 Y104.321 E7.15276
G1 X134.922 Y103.877 E7.21078
G1 X140.222 Y98.576 E7.89954
G1 X140.222 Y97.683 E7.98159
G1 X134.436 Y103.469 E8.73342
G1 X133.941 Y103.072 E8.79179
G1 X140.222 Y96.790 E9.60801
G1 X140.222 Y96.029 E9.67789
G1 X140.090 Y96.029 E9.69005
G1 X133.417 Y102.703 E10.55714
G1 X132.875 Y102.351 E10.61645
G1 X139.197 Y96.029 E11.43786
G1 X138.304 Y96.029 E11.51991
G1 X132.301 Y102.032 E12.29984
G1 X131.715 Y101.726 E12.36065
G1 X137.411 Y96.030 E13.10078
G1 X136.518 Y96.030 E13.18283
G1 X131.090 Y101.457 E13.88806
G1 X130.448 Y101.207 E13.95143
G1 X135.625 Y96.030 E14.62414
G1 X134.732 Y96.030 E14.70618
G1 X129.766 Y100.996 E15.35145
G1 X129.063 Y100.806 E15.41836
G1 X133.839 Y96.030 E16.03894
G1 X132.946 Y96.030 E16.12099
G1 X128.313 Y100.662 E16.72291
G1 X127.535 Y100.547 E16.79518
G1 X132.053 Y96.030 E17.38218
G1 X131.160 Y96.030 E17.46423
G1 X126.703 Y100.487 E18.04333
G1 X125.821 Y100.476 E18.12440
G1 X130.267 Y96.030 E18.70211
G1 X129.374 Y96.030 E18.78416
G1 X124.928 Y100.476 E19.36187
G1 X124.035 Y100.476 E19.44392
G1 X128.481 Y96.030 E20.02162
G1 X127.588 Y96.030 E20.10367
G1 X123.142 Y100.476 E20.68136
G1 X122.249 Y100.476 E20.76341
G1 X126.695 Y96.030 E21.34110
G1 X125.802 Y96.030 E21.42315
G1 X121.356 Y100.476 E22.00084
G1 X120.463 Y100.476 E22.08288
G1 X124.909 Y96.030 E22.66057
G1 X124.016 Y96.030 E22.74262
G1 X119.570 Y100.476 E23.32030
G1 X118.677 Y100.476 E23.40234
G1 X123.123 Y96.030 E23.98002
G1 X122.230 Y96.030 E24.06206
G1 X117.784 Y100.476 E24.63973
G1 X116.891 Y100.476 E24.72178
G1 X121.337 Y96.030 E25.29944
G1 X120.444 Y96.030 E25.38149
G1 X115.998 Y100.476 E25.95915
G1 X115.105 Y100.476 E26.04120
G1 X119.551 Y96.030 E26.61886
G1 X118.658 Y96.031 E26.70090
G1 X114.212 Y100.476 E27.27856
G1 X113.319 Y100.476 E27.36060
G1 X117.765 Y96.031 E27.93825
G1 X116.872 Y96.031 E28.02030
G1 X112.426 Y100.476 E28.59794
G1 X111.533 Y100.476 E28.67998
G1 X115.979 Y96.031 E29.25762
G1 X115.086 Y96.031 E29.33967
G1 X110.640 Y100.476 E29.91730
G1 X109.747 Y100.476 E29.99935
G1 X114.193 Y96.031 E30.57698
G1 X113.300 Y96.031 E30.65903
G1 X108.854 Y100.476 E31.23665
G1 X107.961 Y100.476 E31.31869
G1 X112.407 Y96.031 E31.89631
G1 X111.514 Y96.031 E31.97836
G1 X107.068 Y100.476 E32.55598
G1 X106.308 Y100.476 E32.62586
G1 X106.153 Y100.499 E32.64023
G1 X110.621 Y96.031 E33.22075
G1 X109.728 Y96.031 E33.30280
G1 X105.003 Y100.755 E33.91666
G1 X104.308 Y101.052 E33.98610
G1 X103.522 Y101.564 E34.07230
G1 X102.866 Y102.192 E34.15578
G1 X102.338 Y102.919 E34.23836
G1 X101.947 Y103.728 E34.32091
G1 X101.915 Y103.844 E34.33194
G1 X96.745 Y109.013 E35.00360
G1 X96.655 Y108.210 E35.07784
G1 X108.835 Y96.031 E36.66037
G1 X107.942 Y96.031 E36.74242
G1 X96.565 Y107.407 E38.22061
G1 X96.475 Y106.604 E38.29485
G1 X107.049 Y96.031 E39.66870
G1 X106.156 Y96.031 E39.75075
G1 X96.385 Y105.801 E41.02026
G1 X96.295 Y104.998 E41.09450
G1 X105.263 Y96.031 E42.25968
G1 X104.370 Y96.031 E42.34173
G1 X96.205 Y104.196 E43.40256
G1 X96.115 Y103.393 E43.47680
G1 X103.477 Y96.031 E44.43330
G1 X102.584 Y96.031 E44.51534
G1 X96.025 Y102.590 E45.36750
G1 X95.935 Y101.787 E45.44174
G1 X101.691 Y96.031 E46.18956
G1 X100.798 Y96.031 E46.27161
G1 X95.845 Y100.984 E46.91509
G1 X95.755 Y100.181 E46.98933
G1 X99.905 Y96.032 E47.52847
G1 X99.012 Y96.032 E47.61052
G1 X95.665 Y99.378 E48.04532
G1 X95.585 Y98.566 E48.12031
G1 X98.119 Y96.032 E48.44957
G1 X97.691 Y96.063 E48.48899
G1 X97.479 Y96.113 E48.50900
G1 X97.209 Y96.218 E48.53560
G1 X96.966 Y96.351 E48.56106
G1 X96.664 Y96.594 E48.59668
G1 X96.178 Y97.080 E48.65984
G10
G92 E0
G1 X102.401 Y103.358 F12000.000
G11
G92 E0
G1 F600
G1 X102.192 Y104.112 E0.07188
G1 X102.158 Y104.493 E0.10707
G1 X96.835 Y109.816 E0.79868
G1 X96.926 Y110.619 E0.87292
G1 X102.121 Y105.423 E1.54805
G1 X102.121 Y106.316 E1.63009
G1 X97.016 Y111.422 E2.29353
G1 X97.106 Y112.225 E2.36777
G1 X102.121 Y107.209 E3.01951
G1 X102.121 Y108.102 E3.10155
G1 X97.196 Y113.028 E3.74160
G1 X97.286 Y113.831 E3.81583
G1 X102.121 Y108.995 E4.44418
G1 X102.121 Y109.888 E4.52623
G1 X97.376 Y114.634 E5.14288
G1 X97.466 Y115.437 E5.21712
G1 X102.121 Y110.781 E5.82207
G1 X102.121 Y111.674 E5.90412
G1 X97.556 Y116.240 E6.49738
G1 X97.646 Y117.043 E6.57162
G1 X102.121 Y112.567 E7.15319
G1 X102.121 Y113.460 E7.23523
G1 X97.736 Y117.846 E7.80510
G1 X97.826 Y118.649 E7.87934
G1 X102.121 Y114.353 E8.43752
G1 X102.121 Y115.246 E8.51956
G1 X97.916 Y119.452 E9.06604
G1 X98.006 Y120.254 E9.14028
G1 X102.121 Y116.139 E9.67507
G1 X102.121 Y117.032 E9.75711
G1 X98.096 Y121.057 E10.28020
G1 X98.186 Y121.860 E10.35444
G1 X102.121 Y117.925 E10.86584
G1 X102.121 Y118.818 E10.94788
G1 X98.276 Y122.663 E11.44758
G1 X98.366 Y123.466 E11.52182
G1 X102.121 Y119.711 E12.00982
