;FLAVOR:Marlin
;TIME:4808
;Filament used: 3.98211m
;Layer height: 0.2
;MINX:73.474
;MINY:64.046
;MINZ:0.2
;MAXX:156.526
;MAXY:171.204
;MAXZ:21
;POSTPROCESSED
;Generated with Cura_SteamEngine master
M140 S60
M105
M190 S60
M104 S205
M105
M109 S205
M82 ;absolute extrusion mode
M201 X500.00 Y500.00 Z100.00 E5000.00 ;Setup machine max acceleration
M203 X500.00 Y500.00 Z10.00 E50.00 ;Setup machine max feedrate
M204 P500.00 R1000.00 T500.00 ;Setup Print/Retract/Travel acceleration
M205 X8.00 Y8.00 Z0.40 E5.00 ;Setup Jerk
M220 S100 ;Reset Feedrate
M221 S100 ;Reset Flowrate
M141 S28
G92 E0
G92 E0
G1 F1200 E-2
;LAYER_COUNT:100
;LAYER:0
M107
G0 F8400 X76.695 Y74.521 Z0.2
;TYPE:SKIRT
G1 F2700 E0
G1 F3000 X77.388 Y73.856 E0.03514
G1 X78.134 Y73.251 E0.07028
G1 X78.928 Y72.71 E0.10543
G1 X79.764 Y72.237 E0.14057
G1 X80.636 Y71.835 E0.1757
G1 X81.539 Y71.507 E0.21085
G1 X82.466 Y71.255 E0.246
G1 X83.378 Y71.086 E0.27993
G1 X84.267 Y70.958 E0.31279
G1 X86.881 Y70.546 E0.40961
G1 X89.311 Y70.092 E0.50005
G1 X91.753 Y69.563 E0.59147
G1 X94.175 Y68.967 E0.68272
G1 X96.604 Y68.296 E0.77492
G1 X98.986 Y67.565 E0.86608
G1 X101.371 Y66.758 E0.9582
G1 X103.703 Y65.895 E1.04917
G1 X106.153 Y64.909 E1.14579
G1 X107.058 Y64.588 E1.18093
G1 X107.987 Y64.343 E1.21608
G1 X108.933 Y64.177 E1.25122
G1 X109.566 Y64.11 E1.2745
G1 X109.926 Y64.082 E1.28772
G1 X110.815 Y64.047 E1.32027
G1 X112.663 Y64.046 E1.38788
G1 X112.833 Y64.047 E1.3941
G1 X113.538 Y64.057 E1.41989
G1 X116.177 Y64.057 E1.51644
G1 X116.802 Y64.048 E1.53931
G1 X116.962 Y64.047 E1.54517
G1 X118.82 Y64.046 E1.61314
G1 X118.983 Y64.047 E1.61911
G1 X119.645 Y64.056 E1.64333
G1 X120.604 Y64.109 E1.67847
G1 X121.555 Y64.242 E1.7136
G1 X122.493 Y64.453 E1.74878
G1 X123.806 Y64.893 E1.79944
G1 X125.344 Y65.514 E1.86012
G1 X127.721 Y66.424 E1.95324
G1 X130.091 Y67.257 E2.04515
G1 X132.452 Y68.011 E2.13583
G1 X134.859 Y68.706 E2.22749
G1 X137.303 Y69.337 E2.31984
G1 X139.758 Y69.9 E2.41199
G1 X142.166 Y70.377 E2.5018
G1 X144.678 Y70.803 E2.59502
G1 X146.119 Y71.007 E2.64826
G1 X146.301 Y71.034 E2.655
G1 X146.757 Y71.106 E2.67189
G1 X147.699 Y71.295 E2.70704
G1 X148.621 Y71.562 E2.74215
G1 X149.519 Y71.905 E2.77732
G1 X150.385 Y72.321 E2.81247
G1 X151.213 Y72.808 E2.84762
G1 X151.998 Y73.362 E2.88277
G1 X152.734 Y73.979 E2.91791
G1 X153.416 Y74.655 E2.95304
G1 X154.04 Y75.386 E2.9882
G1 X154.6 Y76.166 E3.02333
G1 X155.094 Y76.99 E3.05848
G1 X155.517 Y77.852 E3.09361
G1 X155.868 Y78.747 E3.12879
G1 X156.143 Y79.667 E3.16392
G1 X156.34 Y80.607 E3.19905
G1 X156.451 Y81.476 E3.23111
G1 X156.48 Y81.8 E3.24301
G1 X156.526 Y82.829 E3.28069
G1 X156.526 Y87.615 E3.45579
G1 X156.525 Y87.776 E3.46168
G1 X156.515 Y88.493 E3.48792
G1 X156.462 Y89.452 E3.52306
G1 X156.329 Y90.403 E3.55819
G1 X156.117 Y91.34 E3.59334
G1 X155.828 Y92.257 E3.62851
G1 X155.464 Y93.146 E3.66366
G1 X155.027 Y94.001 E3.69879
G1 X154.521 Y94.818 E3.73395
G1 X154.093 Y95.407 E3.76059
G1 X153.743 Y95.858 E3.78147
G1 X153.608 Y96.029 E3.78945
G1 X152.603 Y97.275 E3.84801
G1 X151.088 Y99.268 E3.9396
G1 X149.631 Y101.3 E4.03108
G1 X148.239 Y103.361 E4.12207
G1 X146.885 Y105.496 E4.21457
G1 X145.62 Y107.62 E4.30502
G1 X144.389 Y109.826 E4.39744
G1 X143.243 Y112.024 E4.48813
G1 X142.147 Y114.278 E4.57983
G1 X141.104 Y116.589 E4.67259
G1 X140.144 Y118.884 E4.76361
G1 X139.245 Y121.225 E4.85535
G1 X138.421 Y123.562 E4.94601
G1 X137.656 Y125.944 E5.03755
G1 X136.952 Y128.368 E5.1299
G1 X136.328 Y130.767 E5.22059
G1 X135.764 Y133.217 E5.31257
G1 X135.273 Y135.675 E5.40427
G1 X134.852 Y138.137 E5.49565
G1 X134.5 Y140.607 E5.58694
G1 X134.202 Y143.25 E5.68425
G1 X133.092 Y154.559 E6.09999
G1 X133.091 Y154.567 E6.10028
G1 X132.477 Y160.781 E6.32873
G1 X132.343 Y161.732 E6.36387
G1 X132.13 Y162.669 E6.39903
G1 X131.84 Y163.585 E6.43418
G1 X131.475 Y164.473 E6.46931
G1 X131.037 Y165.328 E6.50445
G1 X130.53 Y166.144 E6.5396
G1 X129.956 Y166.914 E6.57474
G1 X129.321 Y167.635 E6.60989
G1 X128.627 Y168.3 E6.64505
G1 X127.881 Y168.905 E6.6802
G1 X127.087 Y169.446 E6.71535
G1 X126.251 Y169.918 E6.75047
G1 X125.379 Y170.32 E6.7856
G1 X124.476 Y170.648 E6.82075
G1 X123.549 Y170.899 E6.85589
G1 X122.604 Y171.073 E6.89104
G1 X121.6 Y171.17 E6.92795
G1 X121.277 Y171.187 E6.93978
G1 X120.671 Y171.203 E6.96196
G1 X109.711 Y171.204 E7.36294
G1 X109.546 Y171.203 E7.36898
G1 X108.844 Y171.193 E7.39467
G1 X107.885 Y171.139 E7.42981
G1 X106.933 Y171.006 E7.46498
G1 X105.996 Y170.794 E7.50012
G1 X105.08 Y170.505 E7.53526
G1 X104.191 Y170.141 E7.57041
G1 X103.336 Y169.704 E7.60554
G1 X102.52 Y169.197 E7.64069
G1 X101.748 Y168.624 E7.67586
G1 X101.027 Y167.99 E7.71099
G1 X100.362 Y167.297 E7.74613
G1 X99.756 Y166.551 E7.78129
G1 X99.214 Y165.758 E7.81643
G1 X98.741 Y164.922 E7.85158
G1 X98.338 Y164.05 E7.88672
G1 X98.009 Y163.147 E7.92188
G1 X97.757 Y162.221 E7.95699
G1 X97.583 Y161.276 E7.99215
G1 X97.521 Y160.754 E8.01138
G1 X97.444 Y159.946 E8.04108
G1 X97.443 Y159.946 E8.04111
G1 X96.929 Y154.759 E8.23182
G1 X96.928 Y154.749 E8.23218
G1 X95.8 Y143.264 E8.6544
G1 X95.508 Y140.667 E8.75001
G1 X95.166 Y138.243 E8.83957
G1 X94.74 Y135.738 E8.93254
G1 X94.254 Y133.306 E9.02327
G1 X93.694 Y130.857 E9.11519
G1 X93.071 Y128.451 E9.20612
G1 X92.374 Y126.04 E9.29794
G1 X91.596 Y123.614 E9.39115
G1 X90.782 Y121.302 E9.48082
G1 X89.889 Y118.975 E9.57201
G1 X88.919 Y116.642 E9.66445
G1 X87.898 Y114.377 E9.75535
G1 X86.795 Y112.101 E9.84788
G1 X85.639 Y109.879 E9.93952
G1 X84.436 Y107.719 E10.02998
G1 X83.157 Y105.568 E10.12153
G1 X81.793 Y103.412 E10.21488
G1 X80.425 Y101.382 E10.30444
G1 X78.955 Y99.328 E10.39685
G1 X77.424 Y97.312 E10.48946
G1 X76.56 Y96.224 E10.54029
G1 X76.052 Y95.596 E10.56984
G1 X75.479 Y94.824 E10.60502
G1 X74.973 Y94.008 E10.64015
G1 X74.536 Y93.152 E10.67531
G1 X74.172 Y92.263 E10.71046
G1 X73.883 Y91.347 E10.7456
G1 X73.672 Y90.41 E10.78074
G1 X73.539 Y89.459 E10.81587
G1 X73.489 Y88.691 E10.84403
G1 X73.479 Y88.364 E10.85599
G1 X73.474 Y88.011 E10.86891
G1 X73.474 Y83.173 E11.04591
G1 X73.475 Y82.999 E11.05228
G1 X73.485 Y82.334 E11.07661
G1 X73.54 Y81.375 E11.11176
G1 X73.674 Y80.424 E11.14689
G1 X73.886 Y79.487 E11.18204
G1 X74.176 Y78.572 E11.21716
G1 X74.541 Y77.683 E11.25232
G1 X74.979 Y76.828 E11.28747
G1 X75.486 Y76.012 E11.32261
G1 X76.059 Y75.241 E11.35776
G1 X76.695 Y74.521 E11.39291
G0 F8400 X77.126 Y74.708
G1 F3000 X77.816 Y74.067 E11.42736
G1 X78.558 Y73.486 E11.46184
G1 X79.346 Y72.97 E11.4963
G1 X80.176 Y72.523 E11.53079
G1 X81.04 Y72.148 E11.56525
G1 X81.933 Y71.847 E11.59973
G1 X82.848 Y71.623 E11.63419
G1 X83.44 Y71.522 E11.65617
G1 X84.325 Y71.394 E11.68888
G1 X86.93 Y70.984 E11.78536
G1 X89.413 Y70.52 E11.87778
G1 X91.844 Y69.994 E11.96878
G1 X94.29 Y69.392 E12.06094
G1 X96.743 Y68.714 E12.15405
G1 X99.117 Y67.985 E12.24491
G1 X101.526 Y67.171 E12.33794
G1 X103.838 Y66.315 E12.42814
G1 X106.317 Y65.317 E12.52591
G1 X107.205 Y65.003 E12.56037
G1 X108.117 Y64.765 E12.59485
G1 X109.046 Y64.606 E12.62933
G1 X109.6 Y64.548 E12.64971
G1 X109.96 Y64.52 E12.66293
G1 X110.815 Y64.487 E12.69423
G1 X112.663 Y64.486 E12.76184
G1 X112.826 Y64.487 E12.7678
G1 X113.531 Y64.497 E12.7936
G1 X116.183 Y64.497 E12.89063
G1 X116.808 Y64.488 E12.9135
G1 X116.962 Y64.487 E12.91913
G1 X118.82 Y64.486 E12.98711
G1 X118.977 Y64.487 E12.99285
G1 X119.639 Y64.496 E13.01707
G1 X120.58 Y64.549 E13.05156
G1 X121.512 Y64.681 E13.08599
G1 X122.431 Y64.892 E13.12049
G1 X123.641 Y65.301 E13.16722
G1 X125.176 Y65.92 E13.22778
G1 X127.569 Y66.837 E13.32153
G1 X129.95 Y67.674 E13.41387
G1 X132.335 Y68.436 E13.50547
G1 X134.766 Y69.138 E13.59805
G1 X137.175 Y69.76 E13.68908
G1 X139.667 Y70.33 E13.7826
G1 X142.086 Y70.81 E13.87283
G1 X144.614 Y71.239 E13.96664
G1 X146.057 Y71.443 E14.01996
G1 X146.232 Y71.469 E14.02643
G1 X146.688 Y71.541 E14.04332
G1 X147.612 Y71.727 E14.07781
G1 X148.516 Y71.991 E14.11226
G1 X149.395 Y72.331 E14.14674
G1 X150.242 Y72.744 E14.18122
G1 X151.05 Y73.227 E14.21566
G1 X151.815 Y73.777 E14.25013
G1 X152.531 Y74.39 E14.28462
G1 X153.191 Y75.062 E14.31908
G1 X153.793 Y75.787 E14.35356
G1 X154.331 Y76.56 E14.38801
G1 X154.801 Y77.377 E14.4225
G1 X155.201 Y78.23 E14.45696
G1 X155.526 Y79.114 E14.49142
G1 X155.776 Y80.022 E14.52588
G1 X155.947 Y80.949 E14.56037
G1 X156.013 Y81.515 E14.58122
G1 X156.042 Y81.839 E14.59312
G1 X156.086 Y82.829 E14.62937
G1 X156.086 Y87.615 E14.80447
G1 X156.085 Y87.77 E14.81014
G1 X156.075 Y88.487 E14.83638
G1 X156.022 Y89.427 E14.87083
G1 X155.889 Y90.36 E14.90531
G1 X155.678 Y91.278 E14.93977
G1 X155.389 Y92.175 E14.97425
G1 X155.026 Y93.044 E15.0087
G1 X154.59 Y93.88 E15.0432
G1 X154.085 Y94.675 E15.07766
G1 X153.745 Y95.137 E15.09864
G1 X153.395 Y95.588 E15.11953
G1 X153.265 Y95.752 E15.12719
G1 X152.266 Y96.99 E15.18539
G1 X150.74 Y98.998 E15.27766
G1 X149.285 Y101.026 E15.36898
G1 X147.848 Y103.156 E15.46298
G1 X146.522 Y105.246 E15.55354
G1 X145.244 Y107.391 E15.64489
G1 X144.001 Y109.619 E15.73823
G1 X142.836 Y111.853 E15.83041
G1 X141.757 Y114.073 E15.92072
G1 X140.697 Y116.42 E16.01493
G1 X139.738 Y118.714 E16.1059
G1 X138.841 Y121.051 E16.19749
G1 X137.998 Y123.441 E16.29021
G1 X137.231 Y125.827 E16.3819
G1 X136.53 Y128.242 E16.4739
G1 X135.898 Y130.673 E16.5658
G1 X135.332 Y133.131 E16.65808
G1 X134.841 Y135.587 E16.74972
G1 X134.416 Y138.073 E16.84199
G1 X134.067 Y140.529 E16.93275
G1 X133.762 Y143.229 E17.03216
G1 X132.654 Y154.516 E17.44709
G1 X132.653 Y154.523 E17.44735
G1 X132.039 Y160.737 E17.6758
G1 X131.907 Y161.67 E17.71028
G1 X131.696 Y162.588 E17.74474
G1 X131.408 Y163.485 E17.77921
G1 X131.045 Y164.355 E17.8137
G1 X130.609 Y165.19 E17.84816
G1 X130.104 Y165.986 E17.88265
G1 X129.534 Y166.736 E17.91711
G1 X128.902 Y167.434 E17.95156
G1 X128.213 Y168.077 E17.98604
G1 X127.472 Y168.659 E18.02052
G1 X126.685 Y169.176 E18.05497
G1 X125.856 Y169.624 E18.08944
G1 X124.992 Y170.001 E18.12393
G1 X124.1 Y170.302 E18.15837
G1 X123.185 Y170.527 E18.19285
G1 X122.254 Y170.674 E18.22733
G1 X121.576 Y170.731 E18.25222
G1 X121.253 Y170.748 E18.26406
G1 X120.671 Y170.763 E18.28536
G1 X109.711 Y170.764 E18.68634
G1 X109.552 Y170.763 E18.69216
G1 X108.85 Y170.753 E18.71785
G1 X107.909 Y170.699 E18.75233
G1 X106.977 Y170.567 E18.78677
G1 X106.059 Y170.355 E18.82124
G1 X105.162 Y170.066 E18.85572
G1 X104.293 Y169.703 E18.89017
G1 X103.457 Y169.267 E18.92467
G1 X102.662 Y168.761 E18.95915
G1 X101.913 Y168.19 E18.9936
G1 X101.215 Y167.558 E19.02805
G1 X100.572 Y166.869 E19.06253
G1 X99.991 Y166.127 E19.09701
G1 X99.475 Y165.339 E19.13147
G1 X99.027 Y164.51 E19.16595
G1 X98.651 Y163.646 E19.20042
G1 X98.35 Y162.754 E19.23487
G1 X98.125 Y161.839 E19.26934
G1 X97.959 Y160.712 E19.31102
G1 X97.882 Y159.903 E19.34075
G1 X97.881 Y159.903 E19.34079
G1 X97.367 Y154.716 E19.53149
G1 X97.366 Y154.706 E19.53185
G1 X96.23 Y143.136 E19.95719
G1 X95.951 Y140.662 E20.04828
G1 X95.596 Y138.144 E20.14132
G1 X95.171 Y135.651 E20.23384
G1 X94.687 Y133.221 E20.32449
G1 X94.122 Y130.754 E20.41709
G1 X93.495 Y128.334 E20.50855
G1 X92.786 Y125.881 E20.60197
G1 X92.028 Y123.515 E20.69286
G1 X91.191 Y121.137 E20.7851
G1 X90.305 Y118.83 E20.87551
G1 X89.32 Y116.461 E20.96938
G1 X88.295 Y114.186 E21.06067
G1 X87.194 Y111.917 E21.15294
G1 X86.027 Y109.673 E21.24548
G1 X84.812 Y107.49 E21.33688
G1 X83.52 Y105.318 E21.42934
G1 X82.169 Y103.183 E21.52178
G1 X80.787 Y101.132 E21.61226
G1 X79.304 Y99.058 E21.70555
G1 X77.776 Y97.048 E21.79792
G1 X76.84 Y95.87 E21.85297
G1 X76.394 Y95.319 E21.8789
G1 X75.833 Y94.562 E21.91338
G1 X75.338 Y93.76 E21.94786
G1 X74.914 Y92.919 E21.98231
G1 X74.561 Y92.045 E22.0168
G1 X74.285 Y91.145 E22.05124
G1 X74.085 Y90.224 E22.08572
G1 X73.965 Y89.29 E22.12018
G1 X73.929 Y88.677 E22.14264
G1 X73.919 Y88.35 E22.15461
G1 X73.914 Y88.011 E22.16701
G1 X73.914 Y83.173 E22.34402
G1 X73.915 Y83.006 E22.35013
G1 X73.925 Y82.341 E22.37446
G1 X73.979 Y81.401 E22.40891
G1 X74.113 Y80.468 E22.44339
G1 X74.325 Y79.55 E22.47786
G1 X74.615 Y78.653 E22.51235
G1 X74.979 Y77.785 E22.54679
G1 X75.416 Y76.95 E22.58127
G1 X75.922 Y76.155 E22.61575
G1 X76.493 Y75.406 E22.65021
G1 X77.126 Y74.708 E22.68468
G0 F8400 X77.557 Y74.9
G1 F3000 X78.243 Y74.282 E22.71846
G1 X78.981 Y73.727 E22.75224
G1 X79.763 Y73.237 E22.78601
G1 X80.585 Y72.816 E22.8198
G1 X81.44 Y72.468 E22.85357
G1 X82.323 Y72.196 E22.88737
G1 X83.503 Y71.957 E22.93142
G1 X84.459 Y71.819 E22.96676
G1 X87.007 Y71.418 E23.06113
G1 X89.48 Y70.955 E23.15318
G1 X91.969 Y70.417 E23.24634
G1 X94.373 Y69.825 E23.33693
G1 X96.85 Y69.141 E23.43094
G1 X99.28 Y68.395 E23.52394
G1 X101.638 Y67.598 E23.61501
G1 X104.059 Y66.701 E23.70946
G1 X106.482 Y65.726 E23.80502
G1 X107.352 Y65.418 E23.83879
G1 X108.246 Y65.188 E23.87256
G1 X109.157 Y65.035 E23.90636
G1 X109.634 Y64.987 E23.9239
G1 X109.994 Y64.959 E23.93711
G1 X110.815 Y64.927 E23.96717
G1 X112.663 Y64.926 E24.03478
G1 X112.82 Y64.927 E24.04052
G1 X113.525 Y64.937 E24.06632
G1 X116.19 Y64.937 E24.16382
G1 X116.815 Y64.928 E24.18669
G1 X116.962 Y64.927 E24.19207
G1 X118.82 Y64.926 E24.26004
G1 X118.971 Y64.927 E24.26557
G1 X119.633 Y64.936 E24.28979
G1 X120.555 Y64.989 E24.32358
G1 X121.468 Y65.121 E24.35733
G1 X122.367 Y65.331 E24.39111
G1 X123.477 Y65.709 E24.43401
G1 X125.047 Y66.342 E24.49594
G1 X127.404 Y67.246 E24.5883
G1 X129.81 Y68.09 E24.68158
G1 X132.218 Y68.86 E24.77408
G1 X134.641 Y69.56 E24.86635
G1 X137.074 Y70.188 E24.95828
G1 X139.556 Y70.757 E25.05145
G1 X142.033 Y71.248 E25.14383
G1 X144.51 Y71.668 E25.23575
G1 X145.996 Y71.878 E25.29066
G1 X146.164 Y71.903 E25.29687
G1 X146.62 Y71.975 E25.31376
G1 X147.524 Y72.159 E25.34751
G1 X148.41 Y72.42 E25.38131
G1 X149.27 Y72.756 E25.41509
G1 X150.097 Y73.166 E25.44886
G1 X150.886 Y73.646 E25.48265
G1 X151.63 Y74.192 E25.51641
G1 X152.324 Y74.801 E25.55019
G1 X152.963 Y75.467 E25.58396
G1 X153.542 Y76.186 E25.61773
G1 X154.057 Y76.953 E25.65153
G1 X154.503 Y77.761 E25.6853
G1 X154.878 Y78.605 E25.71909
G1 X155.178 Y79.478 E25.75286
G1 X155.402 Y80.374 E25.78665
G1 X155.575 Y81.555 E25.83032
G1 X155.604 Y81.879 E25.84222
G1 X155.646 Y82.829 E25.87701
G1 X155.646 Y87.615 E26.05211
G1 X155.645 Y87.764 E26.05757
G1 X155.635 Y88.481 E26.0838
G1 X155.582 Y89.402 E26.11755
G1 X155.45 Y90.316 E26.15134
G1 X155.239 Y91.215 E26.18512
G1 X154.951 Y92.092 E26.2189
G1 X154.588 Y92.941 E26.25268
G1 X154.153 Y93.756 E26.28648
G1 X153.398 Y94.868 E26.33565
G1 X153.048 Y95.319 E26.35654
G1 X152.923 Y95.476 E26.36388
G1 X151.904 Y96.739 E26.42325
G1 X150.393 Y98.727 E26.51461
G1 X148.907 Y100.799 E26.6079
G1 X147.51 Y102.869 E26.69926
G1 X146.134 Y105.037 E26.79321
G1 X144.852 Y107.189 E26.88485
G1 X143.62 Y109.399 E26.97742
G1 X142.458 Y111.626 E27.06933
G1 X141.348 Y113.911 E27.16227
G1 X140.297 Y116.238 E27.25568
G1 X139.323 Y118.567 E27.34804
G1 X138.433 Y120.885 E27.43889
G1 X137.578 Y123.309 E27.53293
G1 X136.817 Y125.676 E27.62389
G1 X136.109 Y128.115 E27.71681
G1 X135.471 Y130.57 E27.80961
G1 X134.901 Y133.045 E27.90253
G1 X134.403 Y135.534 E27.9954
G1 X133.986 Y137.975 E28.086
G1 X133.629 Y140.489 E28.1789
G1 X133.322 Y143.2 E28.27872
G1 X132.216 Y154.473 E28.69314
G1 X132.215 Y154.48 E28.6934
G1 X131.601 Y160.694 E28.92185
G1 X131.471 Y161.608 E28.95563
G1 X131.262 Y162.507 E28.98939
G1 X130.976 Y163.385 E29.02318
G1 X130.615 Y164.235 E29.05696
G1 X130.182 Y165.05 E29.09073
G1 X129.679 Y165.825 E29.12453
G1 X129.112 Y166.554 E29.15832
G1 X128.484 Y167.23 E29.19208
G1 X127.8 Y167.85 E29.22585
G1 X127.064 Y168.408 E29.25964
G1 X126.283 Y168.901 E29.29344
G1 X125.463 Y169.324 E29.32719
G1 X124.609 Y169.674 E29.36096
G1 X123.727 Y169.949 E29.39476
G1 X122.825 Y170.147 E29.42855
G1 X121.553 Y170.291 E29.47538
G1 X121.23 Y170.308 E29.48722
G1 X120.671 Y170.323 E29.50767
G1 X109.711 Y170.324 E29.90866
G1 X109.558 Y170.323 E29.91426
G1 X108.856 Y170.313 E29.93994
G1 X107.934 Y170.26 E29.97373
G1 X107.021 Y170.127 E30.00749
G1 X106.122 Y169.916 E30.04127
G1 X105.245 Y169.628 E30.07504
G1 X104.396 Y169.265 E30.10882
G1 X103.582 Y168.83 E30.14259
G1 X102.808 Y168.326 E30.17638
G1 X102.081 Y167.757 E30.21016
G1 X101.406 Y167.127 E30.24394
