;FLAVOR:Marlin
;TIME:4628
;Filament used: 4.17838m
;Layer height: 0.2
;MINX:87.72
;MINY:72.72
;MINZ:0.2
;MAXX:142.28
;MAXY:157.28
;MAXZ:4.2
;POSTPROCESSED
;Generated with Cura_SteamEngine master
M140 S60
M105
M190 S60
M104 S205
M105
M109 S205
M82 ;absolute extrusion mode
M201 X500.00 Y500.00 Z100.00 E5000.00 ;Setup machine max acceleration
M203 X500.00 Y500.00 Z10.00 E50.00 ;Setup machine max feedrate
M204 P500.00 R1000.00 T500.00 ;Setup Print/Retract/Travel acceleration
M205 X8.00 Y8.00 Z0.40 E5.00 ;Setup Jerk
M220 S100 ;Reset Feedrate
M221 S100 ;Reset Flowrate
M141 S28
G92 E0
G92 E0
G1 F2700 E-5
;LAYER_COUNT:20
;LAYER:0
M107
;MESH:screwsorter-raised.stl
G0 F8400 X139.493 Y156.4 Z0.2
;TYPE:WALL-INNER
G1 F2700 E0
G1 F2400 X90.358 Y156.396 E1.79766
G1 X90.087 Y156.355 E1.80769
G1 X90.006 Y156.336 E1.81073
G1 X89.752 Y156.247 E1.82058
G1 X89.574 Y156.161 E1.82781
G1 X89.512 Y156.125 E1.83043
G1 X89.339 Y156.004 E1.83816
G1 X89.209 Y155.895 E1.84437
G1 X89.084 Y155.767 E1.85091
G1 X88.966 Y155.618 E1.85786
G1 X88.806 Y155.359 E1.869
G1 X88.707 Y155.133 E1.87803
G1 X88.658 Y154.967 E1.88436
G1 X88.622 Y154.786 E1.89111
G1 X88.6 Y154.498 E1.90168
G1 X88.6 Y75.393 E4.79583
G1 X88.601 Y75.383 E4.7962
G1 X88.645 Y75.089 E4.80707
G1 X88.671 Y74.981 E4.81114
G1 X88.728 Y74.809 E4.81777
G1 X88.772 Y74.706 E4.82186
G1 X88.889 Y74.492 E4.83079
G1 X88.965 Y74.383 E4.83565
G1 X88.995 Y74.339 E4.8376
G1 X89.108 Y74.205 E4.84401
G1 X89.157 Y74.156 E4.84655
G1 X89.215 Y74.099 E4.84952
G1 X89.371 Y73.971 E4.8569
G1 X89.391 Y73.959 E4.85776
G1 X89.648 Y73.802 E4.86877
G1 X89.801 Y73.733 E4.87492
G1 X90.03 Y73.659 E4.88372
G1 X90.209 Y73.623 E4.8904
G1 X90.507 Y73.6 E4.90134
G1 X139.556 Y73.6 E6.69585
G1 X139.82 Y73.627 E6.70556
G1 X140.024 Y73.674 E6.71322
G1 X140.196 Y73.731 E6.71985
G1 X140.302 Y73.776 E6.72406
G1 X140.502 Y73.884 E6.73238
G1 X140.652 Y73.989 E6.73907
G1 X140.846 Y74.157 E6.74846
G1 X140.888 Y74.201 E6.75069
G1 X141.033 Y74.379 E6.75909
G1 X141.198 Y74.649 E6.77067
G1 X141.269 Y74.805 E6.77694
G1 X141.326 Y74.972 E6.78339
G1 X141.358 Y75.1 E6.78822
G1 X141.38 Y75.226 E6.7929
G1 X141.4 Y75.508 E6.80324
G1 X141.4 Y154.566 E9.69567
G1 X141.397 Y154.638 E9.69831
G1 X141.356 Y154.912 E9.70844
G1 X141.333 Y155.008 E9.71205
G1 X141.276 Y155.178 E9.71861
G1 X141.222 Y155.305 E9.72366
G1 X141.112 Y155.508 E9.73211
G1 X141.007 Y155.657 E9.73878
G1 X140.849 Y155.84 E9.74763
G1 X140.797 Y155.891 E9.75029
G1 X140.62 Y156.034 E9.75862
G1 X140.358 Y156.195 E9.76987
G1 X140.187 Y156.272 E9.77673
G1 X139.968 Y156.343 E9.78515
G1 X139.789 Y156.377 E9.79182
G1 X139.493 Y156.4 E9.80268
G1 F2700 E4.80268
G1 F600 Z0.4
G0 F8400 X103.692 Y111.325 Z0.4
G1 F600 Z0.2
G1 F2700 E9.80268
G1 F2400 X104.4 Y111.214 E9.8289
G1 X105.043 Y110.893 E9.85519
G1 X105.572 Y110.374 E9.8823
G1 X105.904 Y109.72 E9.90914
G1 X106.011 Y109.025 E9.93487
G1 X105.907 Y108.299 E9.9617
G1 X105.573 Y107.646 E9.98853
G1 X105.076 Y107.147 E10.0143
G1 X104.508 Y106.851 E10.03773
G1 X104.438 Y106.815 E10.04061
G1 X103.707 Y106.69 E10.06775
G1 X103.693 Y106.692 E10.06826
G1 X102.983 Y106.804 E10.09456
G1 X102.919 Y106.836 E10.09718
G1 X102.338 Y107.135 E10.12108
G1 X101.839 Y107.632 E10.14685
G1 X101.507 Y108.27 E10.17316
G1 X101.382 Y109.001 E10.2003
G1 X101.493 Y109.707 E10.22644
G1 X101.824 Y110.366 E10.25342
G1 X102.338 Y110.88 E10.28002
G1 X102.967 Y111.2 E10.30584
G1 X103.692 Y111.325 E10.33276
G1 F2700 E5.33276
G1 F600 Z0.4
G0 F8400 X103.679 Y106.611 Z0.4
G1 F600 Z0.2
G1 F2700 E10.33276
G1 F2400 X103.694 Y106.609 E10.33295
G1 X104.392 Y106.505 E10.34435
G1 X104.564 Y106.479 E10.35071
G1 X104.634 Y106.444 E10.35333
G1 X105.336 Y106.089 E10.38212
G1 X105.977 Y105.457 E10.41505
G1 X106.379 Y104.667 E10.44748
G1 X106.512 Y103.819 E10.47888
G1 X106.381 Y102.933 E10.51165
G1 X105.99 Y102.163 E10.54325
G1 X105.409 Y101.57 E10.57362
G1 X105.377 Y101.538 E10.57528
G1 X104.967 Y101.325 E10.59218
G1 X105.209 Y101.204 E10.59513
G1 X105.25 Y101.184 E10.59669
G1 X105.623 Y100.997 E10.61196
G1 X106.382 Y100.253 E10.65085
G1 X106.842 Y99.346 E10.68805
G1 X107.011 Y98.33 E10.72573
G1 X106.862 Y97.304 E10.76367
G1 X106.399 Y96.378 E10.80154
G1 X105.673 Y95.636 E10.83952
G1 X105.454 Y95.522 E10.84856
G1 X105.071 Y95.324 E10.86433
G1 X105.457 Y95.131 E10.87308
G1 X105.912 Y94.904 E10.89168
G1 X106.763 Y94.068 E10.93533
G1 X107.313 Y93.009 E10.97898
G1 X107.51 Y91.833 E11.02261
G1 X107.332 Y90.623 E11.06735
G1 X106.801 Y89.583 E11.11008
G1 X105.969 Y88.735 E11.15354
G1 X105.557 Y88.521 E11.17053
G1 X105.174 Y88.322 E11.18632
G1 X105.56 Y88.13 E11.19505
G1 X106.201 Y87.81 E11.22127
G1 X107.165 Y86.865 E11.27066
G1 X107.796 Y85.651 E11.32071
G1 X108.01 Y84.335 E11.36949
G1 X107.814 Y83.003 E11.41875
G1 X107.204 Y81.781 E11.46872
G1 X106.263 Y80.831 E11.51764
G1 X105.071 Y80.212 E11.56678
G1 X103.826 Y80.001 E11.61298
G1 X103.592 Y80 E11.62154
G1 X102.367 Y80.193 E11.66691
G1 X101.194 Y80.79 E11.71507
G1 X100.224 Y81.744 E11.76484
G1 X99.65 Y82.855 E11.81059
G1 X99.577 Y83.077 E11.81914
G1 X99.382 Y84.298 E11.86438
G1 X99.589 Y85.599 E11.91258
G1 X100.188 Y86.801 E11.96171
G1 X101.148 Y87.776 E12.01177
G1 X101.833 Y88.129 E12.03997
G1 X102.214 Y88.325 E12.05564
G1 X101.832 Y88.52 E12.06434
G1 X101.485 Y88.697 E12.07859
G1 X100.637 Y89.529 E12.12206
G1 X100.087 Y90.586 E12.16565
G1 X99.882 Y91.793 E12.21044
G1 X100.065 Y92.948 E12.25323
G1 X100.608 Y94.035 E12.29768
G1 X101.434 Y94.864 E12.3405
G1 X101.94 Y95.128 E12.36138
G1 X102.319 Y95.325 E12.37701
G1 X101.937 Y95.518 E12.38569
G1 X101.774 Y95.601 E12.39238
G1 X101.038 Y96.327 E12.4302
G1 X100.56 Y97.244 E12.46804
G1 X100.382 Y98.291 E12.50689
G1 X100.541 Y99.299 E12.54423
G1 X101.001 Y100.221 E12.58192
G1 X101.745 Y100.978 E12.62076
G1 X102.145 Y101.182 E12.63718
G1 X102.213 Y101.217 E12.63998
G1 X102.425 Y101.326 E12.6487
G1 X102.064 Y101.51 E12.6569
G1 X102.01 Y101.564 E12.65941
G1 X101.425 Y102.138 E12.6894
G1 X101.021 Y102.927 E12.72183
G1 X100.887 Y103.777 E12.75331
G1 X101.019 Y104.664 E12.78612
G1 X101.41 Y105.433 E12.81768
G1 X102.024 Y106.059 E12.84976
G1 X102.761 Y106.442 E12.88015
G1 X102.824 Y106.475 E12.88255
G1 X103.029 Y106.507 E12.89014
G1 X103.679 Y106.611 E12.90014
G1 F2700 E7.90014
G1 F600 Z0.4
G0 F8400 X95.602 Y80.602 Z0.4
G1 F600 Z0.2
G1 F2700 E12.90014
G1 F2400 X95.602 Y74.397 E13.12716
G1 X89.421 Y74.397 E13.3533
G1 X89.397 Y74.397 E13.35385
G1 X89.397 Y74.451 E13.35583
G1 X89.397 Y80.602 E13.58087
G1 X95.602 Y80.602 E13.80789
G1 F2700 E8.80789
G1 F600 Z0.4
G0 F8400 X139.514 Y156.84 Z0.4
G1 F600 Z0.2
G1 F2700 E13.80789
G1 F2400 X90.325 Y156.836 E15.60752
G1 X90 Y156.787 E15.61955
G1 X89.879 Y156.758 E15.6241
G1 X89.586 Y156.656 E15.63545
G1 X89.376 Y156.554 E15.64399
G1 X89.27 Y156.493 E15.64847
G1 X89.069 Y156.352 E15.65745
G1 X88.911 Y156.22 E15.66498
G1 X88.75 Y156.054 E15.67344
G1 X88.607 Y155.875 E15.68183
G1 X88.416 Y155.564 E15.69518
G1 X88.294 Y155.285 E15.70632
G1 X88.23 Y155.072 E15.71446
G1 X88.208 Y154.971 E15.71824
G1 X88.184 Y154.835 E15.72329
G1 X88.16 Y154.518 E15.73492
G1 X88.16 Y75.393 E18.6298
G1 X88.163 Y75.337 E18.63185
G1 X88.213 Y75.003 E18.64421
G1 X88.247 Y74.861 E18.64955
G1 X88.317 Y74.652 E18.65762
G1 X88.378 Y74.51 E18.66327
G1 X88.513 Y74.261 E18.67363
G1 X88.644 Y74.073 E18.68202
G1 X88.782 Y73.909 E18.68986
G1 X88.921 Y73.771 E18.69702
G1 X89.118 Y73.61 E18.70633
G1 X89.443 Y73.412 E18.72026
G1 X89.635 Y73.325 E18.72797
G1 X89.92 Y73.232 E18.73894
G1 X90.025 Y73.209 E18.74287
G1 X90.161 Y73.185 E18.74792
G1 X90.486 Y73.16 E18.75985
G1 X139.58 Y73.16 E20.55601
G1 X139.895 Y73.192 E20.56759
G1 X140.136 Y73.248 E20.57664
G1 X140.352 Y73.319 E20.58496
G1 X140.491 Y73.378 E20.59049
G1 X140.737 Y73.511 E20.60072
G1 X140.923 Y73.641 E20.60902
G1 X141.147 Y73.835 E20.61986
G1 X141.22 Y73.911 E20.62372
G1 X141.392 Y74.123 E20.6337
G1 X141.588 Y74.443 E20.64743
G1 X141.678 Y74.642 E20.65542
G1 X141.748 Y74.846 E20.66332
G1 X141.792 Y75.025 E20.67006
G1 X141.817 Y75.169 E20.67541
G1 X141.84 Y75.491 E20.68722
G1 X141.84 Y154.586 E23.581
G1 X141.836 Y154.675 E23.58426
G1 X141.787 Y155.001 E23.59632
G1 X141.758 Y155.122 E23.60087
G1 X141.684 Y155.344 E23.60943
G1 X141.619 Y155.496 E23.61548
G1 X141.487 Y155.739 E23.6256
G1 X141.355 Y155.928 E23.63403
G1 X141.172 Y156.14 E23.64428
G1 X141.087 Y156.222 E23.6486
G1 X140.876 Y156.393 E23.65854
G1 X140.561 Y156.586 E23.67205
G1 X140.347 Y156.683 E23.68065
G1 X140.087 Y156.767 E23.69065
G1 X139.98 Y156.79 E23.69465
G1 X139.839 Y156.815 E23.69989
G1 X139.514 Y156.84 E23.71181
G1 F2700 E18.71181
G1 F600 Z0.4
G0 F8400 X103.695 Y110.879 Z0.4
G1 F600 Z0.2
G1 F2700 E23.71181
G1 F2400 X104.264 Y110.79 E23.73288
G1 X104.784 Y110.53 E23.75416
G1 X105.212 Y110.11 E23.77609
G1 X105.48 Y109.583 E23.79772
G1 X105.566 Y109.023 E23.81845
G1 X105.482 Y108.434 E23.84022
G1 X105.213 Y107.908 E23.86184
G1 X104.812 Y107.506 E23.88261
G1 X104.296 Y107.237 E23.9039
G1 X103.704 Y107.136 E23.92587
G1 X103.121 Y107.228 E23.94746
G1 X102.6 Y107.495 E23.96888
G1 X102.198 Y107.896 E23.98966
G1 X101.929 Y108.412 E24.01095
G1 X101.828 Y109.004 E24.03292
G1 X101.917 Y109.571 E24.05392
G1 X102.185 Y110.105 E24.07578
G1 X102.6 Y110.52 E24.09725
G1 X103.107 Y110.778 E24.11806
G1 X103.695 Y110.879 E24.13989
G1 F2700 E19.13989
G1 F600 Z0.4
G0 F8400 X103.681 Y106.166 Z0.4
G1 F600 Z0.2
G1 F2700 E24.13989
G1 F2400 X104.429 Y106.054 E24.16756
G1 X105.076 Y105.727 E24.19408
G1 X105.617 Y105.194 E24.22187
G1 X105.955 Y104.53 E24.24913
G1 X106.067 Y103.817 E24.27553
G1 X105.956 Y103.068 E24.30324
G1 X105.628 Y102.423 E24.32971
G1 X105.112 Y101.896 E24.3567
G1 X104.436 Y101.544 E24.38458
G1 X104.271 Y101.517 E24.3907
G1 X103.7 Y101.428 E24.41184
G1 X103.148 Y101.514 E24.43228
G1 X102.968 Y101.543 E24.43895
G1 X102.324 Y101.871 E24.46539
G1 X101.784 Y102.402 E24.4931
G1 X101.445 Y103.065 E24.52034
G1 X101.332 Y103.779 E24.54679
G1 X101.444 Y104.528 E24.5745
G1 X101.772 Y105.173 E24.60097
G1 X102.289 Y105.701 E24.62801
G1 X102.964 Y106.052 E24.65584
G1 X103.681 Y106.166 E24.6824
G1 F2700 E19.6824
G1 F600 Z0.4
G0 F8400 X103.677 Y101.165 Z0.4
G1 F600 Z0.2
G1 F2700 E24.6824
G1 F2400 X104.249 Y101.081 E24.69937
G1 X104.562 Y101.035 E24.71095
G1 X105.364 Y100.634 E24.74375
G1 X106.022 Y99.989 E24.77746
G1 X106.419 Y99.207 E24.80955
G1 X106.566 Y98.325 E24.84226
G1 X106.437 Y97.437 E24.87509
G1 X106.036 Y96.636 E24.90787
G1 X105.408 Y95.994 E24.94072
G1 X104.612 Y95.581 E24.97353
G1 X104.249 Y95.52 E24.987
G1 X103.726 Y95.432 E25.0064
G1 X103.713 Y95.434 E25.00688
G1 X103.173 Y95.514 E25.02686
G1 X102.816 Y95.567 E25.04006
G1 X102.034 Y95.963 E25.07213
G1 X101.396 Y96.592 E25.10491
G1 X100.982 Y97.386 E25.13767
G1 X100.828 Y98.294 E25.17136
G1 X100.965 Y99.163 E25.20355
G1 X101.364 Y99.962 E25.23623
G1 X102.009 Y100.619 E25.26991
G1 X102.812 Y101.029 E25.3029
G1 X103.125 Y101.079 E25.31449
G1 X103.677 Y101.165 E25.33089
G1 F2700 E20.33089
G1 F600 Z0.4
G0 F8400 X103.672 Y95.164 Z0.4
G1 F600 Z0.2
G1 F2700 E25.33089
G1 F2400 X103.685 Y95.162 E25.3312
G1 X104.21 Y95.086 E25.34697
G1 X104.711 Y95.012 E25.3655
G1 X105.653 Y94.541 E25.40403
G1 X106.405 Y93.803 E25.44258
G1 X106.891 Y92.868 E25.48113
G1 X107.065 Y91.829 E25.51967
G1 X106.907 Y90.759 E25.55924
G1 X106.44 Y89.843 E25.59686
G1 X105.704 Y89.093 E25.63531
G1 X104.77 Y88.607 E25.67383
G1 X104.245 Y88.519 E25.6933
G1 X103.779 Y88.441 E25.71059
G1 X103.668 Y88.441 E25.71465
G1 X103.624 Y88.441 E25.71626
G1 X103.123 Y88.519 E25.73481
G1 X102.659 Y88.592 E25.752
G1 X101.745 Y89.058 E25.78953
G1 X100.995 Y89.794 E25.82798
G1 X100.509 Y90.728 E25.8665
G1 X100.328 Y91.795 E25.90609
G1 X100.489 Y92.812 E25.94376
G1 X100.97 Y93.775 E25.98315
G1 X101.698 Y94.505 E26.02086
G1 X102.655 Y95.004 E26.06035
G1 X103.133 Y95.08 E26.07806
G1 X103.672 Y95.164 E26.09427
G1 F2700 E21.09427
G1 F600 Z0.4
G0 F8400 X103.668 Y88.164 Z0.4
G1 F600 Z0.2
G1 F2700 E26.09427
G1 F2400 X103.735 Y88.154 E26.09558
G1 X104.203 Y88.085 E26.10997
G1 X104.862 Y87.986 E26.13435
G1 X105.943 Y87.447 E26.17854
G1 X106.807 Y86.6 E26.22281
G1 X107.373 Y85.511 E26.26771
G1 X107.565 Y84.332 E26.31142
G1 X107.389 Y83.137 E26.35561
G1 X106.842 Y82.041 E26.40042
G1 X105.999 Y81.19 E26.44425
G1 X104.929 Y80.634 E26.48836
G1 X103.788 Y80.441 E26.5307
G1 X103.625 Y80.44 E26.53667
G1 X102.504 Y80.617 E26.57819
G1 X101.454 Y81.151 E26.62129
G1 X100.583 Y82.008 E26.66599
G1 X100.057 Y83.026 E26.70791
G1 X100.006 Y83.181 E26.71388
G1 X99.828 Y84.298 E26.75527
G1 X100.013 Y85.463 E26.79842
G1 X100.551 Y86.542 E26.84253
G1 X101.412 Y87.417 E26.88745
G1 X102.502 Y87.979 E26.93231
G1 X103.168 Y88.085 E26.95699
G1 X103.668 Y88.164 E26.97218
G1 F2700 E21.97218
G1 F600 Z0.4
G0 F8400 X95.162 Y80.162 Z0.4
G1 F600 Z0.2
G1 F2700 E26.97218
G1 F2400 X95.162 Y74.837 E27.167
G1 X89.837 Y74.837 E27.36182
G1 X89.837 Y80.162 E27.55664
G1 X95.162 Y80.162 E27.75146
G1 F2700 E22.75146
G1 F600 Z0.4
G0 F8400 X139.535 Y157.28 Z0.4
;TYPE:WALL-OUTER
G1 F600 Z0.2
G1 F2700 E27.75146
G1 F2400 X90.393 Y157.28 E29.54938
G1 X90.288 Y157.275 E29.55322
G1 X89.914 Y157.219 E29.56706
G1 X89.759 Y157.182 E29.57289
G1 X89.413 Y157.061 E29.5863
G1 X89.171 Y156.944 E29.59613
G1 X89.031 Y156.863 E29.60205
G1 X88.803 Y156.704 E29.61222
G1 X88.612 Y156.543 E29.62136
G1 X88.416 Y156.342 E29.63163
G1 X88.248 Y156.132 E29.64147
G1 X88.026 Y155.769 E29.65704
G1 X87.88 Y155.435 E29.67038
G1 X87.803 Y155.181 E29.68009
G1 X87.775 Y155.053 E29.68488
G1 X87.747 Y154.889 E29.69097
G1 X87.72 Y154.539 E29.70381
G1 X87.72 Y75.393 E32.59946
G1 X87.725 Y75.29 E32.60323
G1 X87.782 Y74.911 E32.61725
G1 X87.821 Y74.75 E32.62331
G1 X87.907 Y74.492 E32.63326
G1 X87.984 Y74.313 E32.64039
G1 X88.135 Y74.035 E32.65197
G1 X88.296 Y73.803 E32.6623
G1 X88.458 Y73.611 E32.67149
G1 X88.628 Y73.443 E32.68023
G1 X88.863 Y73.251 E32.69134
G1 X89.237 Y73.022 E32.70738
G1 X89.478 Y72.913 E32.71706
G1 X89.716 Y72.832 E32.72626
G1 X89.825 Y72.802 E32.73039
G1 X89.938 Y72.777 E32.73463
G1 X90.107 Y72.748 E32.7409
G1 X90.465 Y72.72 E32.75404
G1 X139.605 Y72.72 E34.55188
G1 X139.967 Y72.757 E34.56519
G1 X140.254 Y72.823 E34.57597
G1 X140.505 Y72.906 E34.58564
G1 X140.686 Y72.983 E34.59284
G1 X140.884 Y73.087 E34.60102
G1 X140.973 Y73.14 E34.60481
G1 X141.197 Y73.296 E34.6148
G1 X141.448 Y73.514 E34.62696
G1 X141.55 Y73.62 E34.63234
G1 X141.752 Y73.868 E34.64404
G1 X141.978 Y74.237 E34.65987
G1 X142.087 Y74.479 E34.66958
G1 X142.169 Y74.718 E34.67883
G1 X142.223 Y74.939 E34.68715
G1 X142.255 Y75.118 E34.69381
G1 X142.28 Y75.474 E34.70686
G1 X142.28 Y154.607 E37.60203
G1 X142.275 Y154.712 E37.60588
G1 X142.219 Y155.086 E37.61972
G1 X142.182 Y155.242 E37.62558
G1 X142.093 Y155.507 E37.63581
G1 X142.016 Y155.687 E37.64297
G1 X141.865 Y155.965 E37.65455
G1 X141.704 Y156.197 E37.66488
G1 X141.488 Y156.446 E37.67694
G1 X141.377 Y156.553 E37.68258
G1 X141.132 Y156.752 E37.69413
G1 X140.764 Y156.977 E37.70991
G1 X140.517 Y157.089 E37.71983
G1 X140.271 Y157.173 E37.72934
G1 X140.181 Y157.197 E37.73275
G1 X140.062 Y157.223 E37.7372
G1 X139.893 Y157.252 E37.74348
G1 X139.535 Y157.28 E37.75662
G1 F2700 E32.75662
G1 F600 Z0.4
G0 F8400 X103.698 Y110.433 Z0.4
G1 F600 Z0.2
G1 F2700 E37.75662
G1 F2400 X104.128 Y110.366 E37.77254
G1 X104.525 Y110.167 E37.78878
G1 X104.853 Y109.846 E37.80558
G1 X105.056 Y109.447 E37.82195
G1 X105.121 Y109.021 E37.83772
G1 X105.057 Y108.569 E37.85442
G1 X104.853 Y108.17 E37.87082
G1 X104.548 Y107.865 E37.8866
G1 X104.154 Y107.659 E37.90286
G1 X103.701 Y107.582 E37.91968
G1 X103.259 Y107.652 E37.93605
G1 X102.862 Y107.855 E37.95236
G1 X102.557 Y108.16 E37.96814
G1 X102.351 Y108.554 E37.98441
G1 X102.274 Y109.007 E38.00122
G1 X102.341 Y109.435 E38.01707
G1 X102.546 Y109.844 E38.03381
G1 X102.862 Y110.16 E38.05016
G1 X103.247 Y110.356 E38.06596
G1 X103.698 Y110.433 E38.0827
G1 F2700 E33.0827
G1 F600 Z0.4
G0 F8400 X103.683 Y105.721 Z0.4
G1 F600 Z0.2
G1 F2700 E38.0827
G1 F2400 X104.294 Y105.629 E38.10531
G1 X104.816 Y105.365 E38.12671
G1 X105.257 Y104.931 E38.14935
G1 X105.531 Y104.393 E38.17144
G1 X105.622 Y103.815 E38.19284
